;         PROGRAMM: TK941F3.6 3600.100.01
WORKPIECE(,"",,"BOX",64,0,-228.5,-80,-200,0,400,120)
;(****************************************************************)
;        PART NAME: D:\!Work\Models\TK941F3.6 3600.100.01\TK941F3.6 3600.100.01.prt
;    Creation Date: Thu Oct 10 12:31:45 2019
;(****************************************************************)
;    POSTPROCESSOR: TMT Sinumerik 828D 3-x axes (version 1.0.12.09)
;(****************************************************************)
N1 G40 G17 G90
N2 G54
/GOTO N3
T="3D TESTER"
M6
D1
G0 X0 Y10
Z-20
CYCLE150(11,10001,"//NC:/MPF.DIR/MEAS_PROTOCOL_START.TXT")
CYCLE977(20103,10001,,1,140,,,3,1,0,1,1,,1,1,"",,0,1.01,1.01,-1.01,0.34,1,0,,1,1)
M0
;(****************************************************************)
;    START OPERATION: CAVITY_MILL
;     TYPE OPERATION: Cavity Milling
;(****************************************************************)
N3 T="FR 50LONG"
M6
D1
;(****************************************************************)
; TOOL PARAMETRS> NAME: MILL_D50 D = 50.00 mm  L = 200.00 mm R = 0.8 mm
;(****************************************************************)
N4 S1300 M3
N5 G0 X43.122 Y-3.539 D1
N6 Z10. M8
N7 Z-.997
N8 G41 G1 X61.509 Y-20.507 F481.
N9 G3 X70. Y0.0 I-20.509 J20.503 F481.
N10 G1 Y2.814 F820
N11 G2 X70.025 Y3.536 I9.731 J.031 
N12 G3 X63.009 Y24.593 I-28.927 J2.06 F820
N13 G40
N14 G1 X43.465 Y8.972 F820
N15 G0 X43.122 Y-3.539
N16 Z-1.993
N17 G41 G1 X61.509 Y-20.507 F481.
N18 G3 X70. Y0.0 I-20.509 J20.503 F481.
N19 G1 Y6.836 F820
N20 G2 X70.023 Y7.553 I9.103 J.068 F820
N21 G3 X63.014 Y28.613 I-28.926 J2.07 F820
N22 G40
N23 G1 X43.465 Y12.998 F820
N24 G0 X43.122 Y-3.539
N25 Z-2.99
N26 G41 G1 X61.509 Y-20.507 F481.
N27 G3 X70. Y0.0 I-20.509 J20.503 F481.
N28 G1 Y10.771 F820
N29 G2 X70.025 Y11.52 I10.579 J.015 F820
N30 G3 X62.975 Y32.566 I-28.93 J2.012 F820
N31 G40
N32 G1 X43.457 Y16.913 F820
N33 G0 X43.122 Y-3.539
N34 Z-3.986
N35 G41 G1 X61.509 Y-20.507 F481.
N36 G3 X70. Y0.0 I-20.509 J20.503 F481.
N37 G1 Y14.767 F820
N38 G2 X70.024 Y15.468 I9.679 J.025 F820
N39 G3 X62.984 Y36.518 I-28.929 J2.027 F820
N40 G40
N41 G1 X43.458 Y20.874 F820
N42 G0 X43.122 Y-3.539
N43 Z-4.983
N44 G41 G1 X61.509 Y-20.507 F481.
N45 G3 X70. Y0.0 I-20.509 J20.503 F481.
N46 G1 Y18.867 F820
N47 G2 X70.019 Y19.558 I7.829 J.129 F820
N48 G3 X63.02 Y40.622 I-28.925 J2.084 F820
N49 G40
N50 G1 X43.464 Y25.016 F820
N51 G0 X43.122 Y-3.539
N52 Z-5.979
N53 G41 G1 X61.509 Y-20.507 F481.
N54 G3 X70. Y0.0 I-20.509 J20.503 F481.
N55 G1 Y22.735 F820
N56 G2 X70.024 Y23.472 I10.47 J.021 F820
N57 G3 X62.951 Y44.51 I-28.932 J1.981 F820
N58 G40
N59 G1 X43.45 Y28.835 F820
N60 G0 X43.122 Y-3.539
N61 Z-6.976
N62 G41 G1 X61.509 Y-20.507 F481.
N63 G3 X70. Y0.0 I-20.509 J20.503 F481.
N64 G1 Y26.72 F820
N65 G2 X70.023 Y27.411 I9.788 J.019 F820
N66 G3 X62.955 Y48.451 I-28.932 J1.989 F820
N67 G40
N68 G1 X43.45 Y32.781 F820
N69 G0 X43.122 Y-3.539
N70 Z-7.972
N71 G41 G1 X61.509 Y-20.507 F481.
N72 G3 X70. Y0.0 I-20.509 J20.503 F481.
N73 G1 Y30.801 F820
N74 G2 X70.019 Y31.479 I8.104 J.109 F820
N75 G3 X62.985 Y52.531 I-28.929 J2.035 F820
N76 G40
N77 G1 X43.455 Y36.892 F820
N78 G0 X43.122 Y-3.539
N79 Z-8.969
N80 G41 G1 X61.509 Y-20.507 F481.
N81 G3 X70. Y0.0 I-20.509 J20.503 F481.
N82 G1 Y34.7 F820
N83 G2 X70.023 Y35.424 I10.348 J.029 F820
N84 G3 X62.927 Y56.455 I-28.934 J1.949 F820
N85 G40
N86 G1 X43.443 Y40.759 F820
N87 G0 X43.122 Y-3.539
N88 Z-9.966
N89 G41 G1 X61.509 Y-20.507 F481.
N90 G3 X70. Y0.0 I-20.509 J20.503 F481.
N91 G1 Y38.676 F820
N92 G2 X70.022 Y39.355 I9.861 J.016 F820
N93 G3 X62.927 Y60.386 I-28.934 J1.951 F820
N94 G40
N95 G1 X43.442 Y44.69 F820
N96 G0 X43.122 Y-3.539
N97 Z-10.962
N98 G41 G1 X61.509 Y-20.507 F481.
N99 G3 X70. Y0.0 I-20.509 J20.503 F481.
N100 G1 Y42.739 F820
N101 G2 X70.02 Y43.417 I8.558 J.093 F820
N102 G3 X62.947 Y64.455 I-28.932 J1.982 F820
N103 G40
N104 G1 X43.445 Y48.781 F820
N105 G0 X43.122 Y-3.539
N106 Z-11.959
N107 G41 G1 X61.509 Y-20.507 F481.
N108 G3 X70. Y0.0 I-20.509 J20.503 F481.
N109 G1 Y46.653 F820
N110 G2 X70.023 Y47.364 I10.441 J.022 F820
N111 G3 X62.898 Y68.385 I-28.937 J1.911 F820
N112 G40
N113 G1 X43.435 Y52.663 F820
N114 G0 X43.122 Y-3.539
N115 Z-12.955
N116 G41 G1 X61.509 Y-20.507 F481.
N117 G3 X70. Y0.0 I-20.509 J20.503 F481.
N118 G1 Y50.314 F820
N119 X70.004 Y50.442 F820
N120 G3 X63.09 Y71.534 I-28.917 J2.199 F820
N121 G40
N122 G1 X43.471 Y56.006 F820
N123 G0 X43.122 Y-3.539
N124 Z-13.952
N125 G41 G1 X61.509 Y-20.507 F481.
N126 G3 X70. Y0.0 I-20.509 J20.503 F481.
N127 G1 Y51.968 F820
N128 X70.005 Y52.102 F820
N129 G3 X63.08 Y73.189 I-28.918 J2.185 F820
N130 G40
N131 G1 X43.469 Y57.652 F820
N132 G0 X43.122 Y-3.539
N133 Z-14.948
N134 G41 G1 X61.509 Y-20.507 F481.
N135 G3 X70. Y0.0 I-20.509 J20.503 F481.
N136 G1 Y53.648 F820
N137 X70.005 Y53.781 F820
N138 G3 X63.076 Y74.868 I-28.918 J2.179 F820
N139 G40
N140 G1 X43.468 Y59.327 F820
N141 G0 X43.122 Y-3.539
N142 Z-15.945
N143 G41 G1 X61.509 Y-20.507 F481.
N144 G3 X70. Y0.0 I-20.509 J20.503 F481.
N145 G1 Y55.329 F820
N146 X70.005 Y55.461 F820
N147 G3 X63.071 Y76.546 I-28.918 J2.173 F820
N148 G40
N149 G1 X43.466 Y61.001 F820
N150 G0 X43.122 Y-3.539
N151 Z-16.941
N152 G41 G1 X61.509 Y-20.507 F481.
N153 G3 X70. Y0.0 I-20.509 J20.503 F481.
N154 G1 Y57.035 F820
N155 X70.004 Y57.163 F820
N156 G3 X63.072 Y78.248 I-28.918 J2.175 F820
N157 G40
N158 G1 X43.466 Y62.704 F820
N159 G0 X43.122 Y-3.539
N160 Z-17.938
N161 G41 G1 X61.509 Y-20.507 F481.
N162 G3 X70. Y0.0 I-20.509 J20.503 F481.
N163 G1 Y58.719 F820
N164 X70.004 Y58.846 F820
N165 G3 X63.068 Y79.93 I-28.919 J2.169 F820
N166 G40
N167 G1 X43.465 Y64.382 F820
N168 G0 X43.122 Y-3.539
N169 Z-18.934
N170 G41 G1 X61.509 Y-20.507 F481.
N171 G3 X70. Y0.0 I-20.509 J20.503 F481.
N172 G1 Y60.399 F820
N173 X70.004 Y60.527 F820
N174 G3 X63.063 Y81.609 I-28.919 J2.163 F820
N175 G40
N176 G1 X43.464 Y66.057 F820
N177 G0 X43.122 Y-3.539
N178 Z-19.931
N179 G41 G1 X61.509 Y-20.507 F481.
N180 G3 X70. Y0.0 I-20.509 J20.503 F481.
N181 G1 Y62.088 F820
N182 X70.004 Y62.216 F820
N183 G3 X63.06 Y83.297 I-28.92 J2.159 F820
N184 G40
N185 G1 X43.463 Y67.742 F820
N186 G0 X43.122 Y-3.539
N187 Z-20.928
N188 G41 G1 X61.509 Y-20.507 F481.
N189 G3 X70. Y0.0 I-20.509 J20.503 F481.
N190 G1 Y63.753 F820
N191 X70.004 Y63.884 F820
N192 G3 X63.052 Y84.962 I-28.92 J2.147 F820
N193 G40
N194 G1 X43.461 Y69.4 F820
N195 G0 X43.122 Y-3.539
N196 Z-21.924
N197 G41 G1 X61.509 Y-20.507 F481.
N198 G3 X70. Y0.0 I-20.509 J20.503 F481.
N199 G1 Y65.434 F820
N200 X70.004 Y65.564 F820
N201 G3 X63.047 Y86.641 I-28.921 J2.141 F820
N202 G40
N203 G1 X43.46 Y71.074 F820
N204 G0 X43.122 Y-3.539
N205 Z-22.921
N206 G41 G1 X61.509 Y-20.507 F481.
N207 G3 X70. Y0.0 I-20.509 J20.503 F481.
N208 G1 Y67.114 F820
N209 X70.004 Y67.244 F820
N210 G3 X63.043 Y88.32 I-28.921 J2.135 F820
N211 G40
N212 G1 X43.459 Y72.749 F820
N213 G0 X43.122 Y-3.539
N214 Z-23.917
N215 G41 G1 X61.509 Y-20.507 F481.
N216 G3 X70. Y0.0 I-20.509 J20.503 F481.
N217 G1 Y68.795 F820
N218 X70.004 Y68.925 F820
N219 G3 X63.039 Y89.999 I-28.922 J2.129 F820
N220 G40
N221 G1 X43.458 Y74.424 F820
N222 G0 X43.122 Y-3.539
N223 Z-24.914
N224 G41 G1 X61.509 Y-20.507 F481.
N225 G3 X70. Y0.0 I-20.509 J20.503 F481.
N226 G1 Y70.477 F820
N227 X70.004 Y70.606 F820
N228 G3 X63.034 Y91.679 I-28.922 J2.123 F820
N229 G40
N230 G1 X43.456 Y76.099 F820
N231 G0 X43.122 Y-3.539
N232 Z-25.91
N233 G41 G1 X61.509 Y-20.507 F481.
N234 G3 X70. Y0.0 I-20.509 J20.503 F481.
N235 G1 Y72.158 F820
N236 X70.004 Y72.287 F820
N237 G3 X63.03 Y93.358 I-28.923 J2.117 F820
N238 G40
N239 G1 X43.455 Y77.775 F820
N240 G0 X43.122 Y-3.539
N241 Z-26.907
N242 G41 G1 X61.509 Y-20.507 F481.
N243 G3 X70. Y0.0 I-20.509 J20.503 F481.
N244 G1 Y73.841 F820
N245 X70.004 Y73.968 F820
N246 G3 X63.026 Y95.038 I-28.923 J2.112 F820
N247 G40
N248 G1 X43.454 Y79.452 F820
N249 G0 X43.122 Y-3.539
N250 Z-27.903
N251 G41 G1 X61.509 Y-20.507 F481.
N252 G3 X70. Y0.0 I-20.509 J20.503 F481.
N253 G1 Y75.522 F820
N254 X70.004 Y75.65 F820
N255 G3 X63.021 Y96.719 I-28.923 J2.105 F820
N256 G40
N257 G1 X43.453 Y81.128 F820
N258 G0 X43.122 Y-3.539
N259 Z-28.9
N260 G41 G1 X61.509 Y-20.507 F481.
N261 G3 X70. Y0.0 I-20.509 J20.503 F481.
N262 G1 Y77.208 F820
N263 X70.004 Y77.335 F820
N264 G3 X63.017 Y98.402 I-28.924 J2.1 F820
N265 G40
N266 G1 X43.452 Y82.808 F820
N267 G0 X43.122 Y-3.539
N268 Z-29.897
N269 G41 G1 X61.509 Y-20.507 F481.
N270 G3 X70. Y0.0 I-20.509 J20.503 F481.
N271 G1 Y78.881 F820
N272 X70.004 Y79.009 F820
N273 G3 X63.011 Y100.074 I-28.924 J2.092 F820
N274 G40
N275 G1 X43.45 Y84.474 F820
N276 G0 X43.122 Y-3.539
N277 Z-30.893
N278 G41 G1 X61.509 Y-20.507 F481.
N279 G3 X70. Y0.0 I-20.509 J20.503 F481.
N280 G1 Y80.561 F820
N281 X70.004 Y80.689 F820
N282 G3 X63.007 Y101.753 I-28.925 J2.085 F820
N283 G40
N284 G1 X43.449 Y86.148 F820
N285 G0 X43.122 Y-3.539
N286 Z-31.89
N287 G41 G1 X61.509 Y-20.507 F481.
N288 G3 X70. Y0.0 I-20.509 J20.503 F481.
N289 G1 Y82.255 F820
N290 X70.004 Y82.382 F820
N291 G3 X63.004 Y103.445 I-28.925 J2.082 F820
N292 G40
N293 G1 X43.448 Y87.839 F820
N294 G0 X43.122 Y-3.539
N295 Z-32.886
N296 G41 G1 X61.509 Y-20.507 F481.
N297 G3 X70. Y0.0 I-20.509 J20.503 F481.
N298 G1 Y83.932 F820
N299 X70.004 Y84.059 F820
N300 G3 X62.999 Y105.12 I-28.926 J2.075 F820
N301 G40
N302 G1 X43.447 Y89.508 F820
N303 G0 X43.122 Y-3.539
N304 Z-33.883
N305 G41 G1 X61.509 Y-20.507 F481.
N306 G3 X70. Y0.0 I-20.509 J20.503 F481.
N307 G1 Y85.557 F820
N308 X70.005 Y85.687 F820
N309 G3 X62.986 Y106.744 I-28.927 J2.056 F820
N310 G40
N311 G1 X43.444 Y91.119 F820
N312 G0 X43.122 Y-3.539
N313 Z-34.879
N314 G41 G1 X61.509 Y-20.507 F481.
N315 G3 X70. Y0.0 I-20.509 J20.503 F481.
N316 G1 Y87.238 F820
N317 X70.005 Y87.368 F820
N318 G3 X62.981 Y108.423 I-28.928 J2.049 F820
N319 G40
N320 G1 X43.443 Y92.794 F820
N321 G0 X43.122 Y-3.539
N322 Z-35.876
N323 G41 G1 X61.509 Y-20.507 F481.
N324 G3 X70. Y0.0 I-20.509 J20.503 F481.
N325 G1 Y88.919 F820
N326 X70.005 Y89.049 F820
N327 G3 X62.976 Y110.102 I-28.928 J2.042 F820
N328 G40
N329 G1 X43.442 Y94.469 F820
N330 G0 X43.122 Y-3.539
N331 Z-36.872
N332 G41 G1 X61.509 Y-20.507 F481.
N333 G3 X70. Y0.0 I-20.509 J20.503 F481.
N334 G1 Y90.6 F820
N335 X70.005 Y90.729 F820
N336 G3 X62.972 Y111.781 I-28.928 J2.037 F820
N337 G40
N338 G1 X43.441 Y96.143 F820
N339 G0 X43.122 Y-3.539
N340 Z-37.869
N341 G41 G1 X61.509 Y-20.507 F481.
N342 G3 X70. Y0.0 I-20.509 J20.503 F481.
N343 G1 Y92.281 F820
N344 X70.005 Y92.409 F820
N345 G3 X62.967 Y113.46 I-28.929 J2.031 F820
N346 G40
N347 G1 X43.439 Y97.818 F820
N348 G0 X43.122 Y-3.539
N349 Z-38.866
N350 G41 G1 X61.509 Y-20.507 F481.
N351 G3 X70. Y0.0 I-20.509 J20.503 F481.
N352 G1 Y93.963 F820
N353 X70.004 Y94.089 F820
N354 G3 X62.963 Y115.138 I-28.929 J2.025 F820
N355 G40
N356 G1 X43.438 Y99.493 F820
N357 G0 X43.122 Y-3.539
N358 Z-39.862
N359 G41 G1 X61.509 Y-20.507 F481.
N360 G3 X70. Y0.0 I-20.509 J20.503 F481.
N361 G1 Y95.64 F820
N362 X70.005 Y95.775 F820
N363 G3 X62.955 Y116.821 I-28.93 J2.013 F820
N364 G40
N365 G1 X43.436 Y101.168 F820
N366 G0 X43.122 Y-3.539
N367 Z-40.859
N368 G41 G1 X61.509 Y-20.507 F481.
N369 G3 X70. Y0.0 I-20.509 J20.503 F481.
N370 G1 Y97.321 F820
N371 X70.005 Y97.455 F820
N372 G3 X62.95 Y118.5 I-28.93 J2.007 F820
N373 G40
N374 G1 X43.435 Y102.842 F820
N375 G0 X43.122 Y-3.539
N376 Z-41.855
N377 G41 G1 X61.509 Y-20.507 F481.
N378 G3 X70. Y0.0 I-20.509 J20.503 F481.
N379 G1 Y99.002 F820
N380 X70.005 Y99.136 F820
N381 G3 X62.945 Y120.179 I-28.931 J2. F820
N382 G40
N383 G1 X43.434 Y104.517 F820
N384 G0 X43.122 Y-3.539
N385 Z-42.852
N386 G41 G1 X61.509 Y-20.507 F481.
N387 G3 X70. Y0.0 I-20.509 J20.503 F481.
N388 G1 Y100.683 F820
N389 X70.005 Y100.816 F820
N390 G3 X62.941 Y121.858 I-28.931 J1.994 F820
N391 G40
N392 G1 X43.433 Y106.192 F820
N393 G0 X43.122 Y-3.539
N394 Z-43.848
N395 G41 G1 X61.509 Y-20.507 F481.
N396 G3 X70. Y0.0 I-20.509 J20.503 F481.
N397 G1 Y102.364 F820
N398 X70.005 Y102.497 F820
N399 G3 X62.936 Y123.537 I-28.932 J1.987 F820
N400 G40
N401 G1 X43.431 Y107.866 F820
N402 G0 X43.122 Y-3.539
N403 Z-44.845
N404 G41 G1 X61.509 Y-20.507 F481.
N405 G3 X70. Y0.0 I-20.509 J20.503 F481.
N406 G1 Y104.045 F820
N407 X70.005 Y104.177 F820
N408 G3 X62.931 Y125.216 I-28.932 J1.981 F820
N409 G40
N410 G1 X43.43 Y109.541 F820
N411 G0 X43.122 Y-3.539
N412 Z-45.841
N413 G41 G1 X61.509 Y-20.507 F481.
N414 G3 X70. Y0.0 I-20.509 J20.503 F481.
N415 G1 Y105.726 F820
N416 X70.005 Y105.858 F820
N417 G3 X62.927 Y126.895 I-28.933 J1.974 F820
N418 G40
N419 G1 X43.429 Y111.215 F820
N420 G0 X43.122 Y-3.539
N421 Z-46.838
N422 G41 G1 X61.509 Y-20.507 F481.
N423 G3 X70. Y0.0 I-20.509 J20.503 F481.
N424 G1 Y107.407 F820
N425 X70.005 Y107.538 F820
N426 G3 X62.922 Y128.574 I-28.933 J1.968 F820
N427 G40
N428 G1 X43.428 Y112.89 F820
N429 G0 X43.122 Y-3.539
N430 Z-47.834
N431 G41 G1 X61.509 Y-20.507 F481.
N432 G3 X70. Y0.0 I-20.509 J20.503 F481.
N433 G1 Y109.087 F820
N434 X70.005 Y109.219 F820
N435 G3 X62.917 Y130.253 I-28.934 J1.962 F820
N436 G40
N437 G1 X43.427 Y114.564 F820
N438 G0 X43.122 Y-3.539
N439 Z-48.831
N440 G41 G1 X61.509 Y-20.507 F481.
N441 G3 X70. Y0.0 I-20.509 J20.503 F481.
N442 G1 Y110.768 F820
N443 X70.005 Y110.899 F820
N444 G3 X62.912 Y131.931 I-28.934 J1.955 F820
N445 G40
N446 G1 X43.425 Y116.239 F820
N447 G0 X43.122 Y-3.539
N448 Z-49.828
N449 G41 G1 X61.509 Y-20.507 F481.
N450 G3 X70. Y0.0 I-20.509 J20.503 F481.
N451 G1 Y112.449 F820
N452 X70.004 Y112.58 F820
N453 G3 X62.908 Y133.61 I-28.934 J1.948 F820
N454 G40
N455 G1 X43.424 Y117.913 F820
N456 G0 X43.122 Y-3.539
N457 Z-50.824
N458 G41 G1 X61.509 Y-20.507 F481.
N459 G3 X70. Y0.0 I-20.509 J20.503 F481.
N460 G1 Y114.131 F820
N461 X70.004 Y114.261 F820
N462 G3 X62.903 Y135.29 I-28.935 J1.942 F820
N463 G40
N464 G1 X43.423 Y119.589 F820
N465 G0 X43.122 Y-3.539
N466 Z-51.821
N467 G41 G1 X61.509 Y-20.507 F481.
N468 G3 X70. Y0.0 I-20.509 J20.503 F481.
N469 G1 Y115.814 F820
N470 X70.004 Y115.943 F820
N471 G3 X62.898 Y136.971 I-28.935 J1.936 F820
N472 G40
N473 G1 X43.422 Y121.265 F820
N474 G0 X43.122 Y-3.539
N475 Z-52.817
N476 G41 G1 X61.509 Y-20.507 F481.
N477 G3 X70. Y0.0 I-20.509 J20.503 F481.
N478 G1 Y117.502 F820
N479 X70.004 Y117.631 F820
N480 G3 X62.894 Y138.657 I-28.936 J1.931 F820
N481 G40
N482 G1 X43.421 Y122.948 F820
N483 G0 X43.122 Y-3.539
N484 Z-53.814
N485 G41 G1 X61.509 Y-20.507 F481.
N486 G3 X70. Y0.0 I-20.509 J20.503 F481.
N487 G1 Y119.157 F820
N488 X70.001 Y119.217 F820
N489 G3 X62.162 Y139.982 I-28.985 J.92 F820
N490 G40
N491 G1 X43.248 Y123.604 F820
N492 G0 X43.122 Y-3.539
N493 Z-54.81
N494 G41 G1 X61.509 Y-20.507 F481.
N495 G3 X70. Y0.0 I-20.509 J20.503 F481.
N496 G1 Y120. F820
N497 G3 X61.516 Y140.51 I-29. J.014 F820
N498 G40
N499 G1 X43.123 Y123.548 F820
N500 G0 X43.122 Y-3.539
N501 Z-55.807
N502 G41 G1 X61.509 Y-20.507 F481.
N503 G3 X70. Y0.0 I-20.509 J20.503 F481.
N504 G1 Y120. F820
N505 G3 X61.516 Y140.51 I-29. J.014 F820
N506 G40
N507 G1 X43.123 Y123.548 F820
N508 G0 X43.122 Y-3.539
N509 Z-56.803
N510 G41 G1 X61.509 Y-20.507 F481.
N511 G3 X70. Y0.0 I-20.509 J20.503 F481.
N512 G1 Y120. F820
N513 G3 X61.516 Y140.51 I-29. J.014 F820
N514 G40
N515 G1 X43.123 Y123.548 F820
N516 G0 X43.122 Y-3.539
N517 Z-57.8
N518 G41 G1 X61.509 Y-20.507 F481.
N519 G3 X70. Y0.0 I-20.509 J20.503 F481.
N520 G1 Y120. F820
N521 G3 X61.516 Y140.51 I-29. J.014 F820
N522 G40
N523 G1 X43.123 Y123.548 F820
N524 G0 X43.122 Y-3.539
N525 Z-58.797
N526 G41 G1 X61.509 Y-20.507 F481.
N527 G3 X70. Y0.0 I-20.509 J20.503 F481.
N528 G1 Y120. F820
N529 G3 X61.516 Y140.51 I-29. J.014 F820
N530 G40
N531 G1 X43.123 Y123.548 F820
N532 G0 X43.122 Y-3.539
N533 Z-59.793
N534 G41 G1 X61.509 Y-20.507 F481.
N535 G3 X70. Y0.0 I-20.509 J20.503 F481.
N536 G1 Y120. F820
N537 G3 X61.516 Y140.51 I-29. J.014 F820
N538 G40
N539 G1 X43.123 Y123.548 F820
N540 G0 X43.122 Y-3.539
N541 Z-60.79
N542 G41 G1 X61.509 Y-20.507 F481.
N543 G3 X70. Y0.0 I-20.509 J20.503 F481.
N544 G1 Y120. F820
N545 G3 X61.516 Y140.51 I-29. J.014 F820
N546 G40
N547 G1 X43.123 Y123.548 F820
N548 G0 X43.122 Y-3.539
N549 Z-61.786
N550 G41 G1 X61.509 Y-20.507 F481.
N551 G3 X70. Y0.0 I-20.509 J20.503 F481.
N552 G1 Y120. F820
N553 G3 X61.516 Y140.51 I-29. J.014 F820
N554 G40
N555 G1 X43.123 Y123.548 F820
N556 G0 X43.122 Y-3.539
N557 Z-62.783
N558 G41 G1 X61.509 Y-20.507 F481.
N559 G3 X70. Y0.0 I-20.509 J20.503 F481.
N560 G1 Y120. F820
N561 G3 X61.516 Y140.51 I-29. J.014 F820
N562 G40
N563 G1 X43.123 Y123.548 F820
N564 G0 X43.122 Y-3.539
N565 Z-63.779
N566 G41 G1 X61.509 Y-20.507 F481.
N567 G3 X70. Y0.0 I-20.509 J20.503 F481.
N568 G1 Y120. F820
N569 G3 X61.516 Y140.51 I-29. J.014 F820
N570 G40
N571 G1 X43.123 Y123.548 F820
N572 G0 X43.122 Y-3.539
N573 Z-64.776
N574 G41 G1 X61.509 Y-20.507 F481.
N575 G3 X70. Y0.0 I-20.509 J20.503 F481.
N576 G1 Y120. F820
N577 G3 X61.516 Y140.51 I-29. J.014 F820
N578 G40
N579 G1 X43.123 Y123.548 F820
N580 G0 X43.122 Y-3.539
N581 Z-65.772
N582 G41 G1 X61.509 Y-20.507 F481.
N583 G3 X70. Y0.0 I-20.509 J20.503 F481.
N584 G1 Y120. F820
N585 G3 X61.516 Y140.51 I-29. J.014 F820
N586 G40
N587 G1 X43.123 Y123.548 F820
N588 G0 X43.122 Y-3.539
N589 Z-66.769
N590 G41 G1 X61.509 Y-20.507 F481.
N591 G3 X70. Y0.0 I-20.509 J20.503 F481.
N592 G1 Y120. F820
N593 G3 X61.516 Y140.51 I-29. J.014 F820
N594 G40
N595 G1 X43.123 Y123.548 F820
N596 G0 X43.122 Y-3.539
N597 Z-67.766
N598 G41 G1 X61.509 Y-20.507 F481.
N599 G3 X70. Y0.0 I-20.509 J20.503 F481.
N600 G1 Y120. F820
N601 G3 X61.516 Y140.51 I-29. J.014 F820
N602 G40
N603 G1 X43.123 Y123.548 F820
N604 G0 X43.122 Y-3.539
N605 Z-68.762
N606 G41 G1 X61.509 Y-20.507 F481.
N607 G3 X70. Y0.0 I-20.509 J20.503 F481.
N608 G1 Y120. F820
N609 G3 X61.516 Y140.51 I-29. J.014 F820
N610 G40
N611 G1 X43.123 Y123.548 F820
N612 G0 X43.122 Y-3.539
N613 Z-69.759
N614 G41 G1 X61.509 Y-20.507 F481.
N615 G3 X70. Y0.0 I-20.509 J20.503 F481.
N616 G1 Y120. F820
N617 G3 X61.516 Y140.51 I-29. J.014 F820
N618 G40
N619 G1 X43.123 Y123.548 F820
N620 G0 X43.122 Y-3.539
N621 Z-70.755
N622 G41 G1 X61.509 Y-20.507 F481.
N623 G3 X70. Y0.0 I-20.509 J20.503 F481.
N624 G1 Y120. F820
N625 G3 X61.516 Y140.51 I-29. J.014 F820
N626 G40
N627 G1 X43.123 Y123.548 F820
N628 G0 X43.122 Y-3.539
N629 Z-71.752
N630 G41 G1 X61.509 Y-20.507 F481.
N631 G3 X70. Y0.0 I-20.509 J20.503 F481.
N632 G1 Y120. F820
N633 G3 X61.516 Y140.51 I-29. J.014 F820
N634 G40
N635 G1 X43.123 Y123.548 F820
N636 G0 X43.122 Y-3.539
N637 Z-72.748
N638 G41 G1 X61.509 Y-20.507 F481.
N639 G3 X70. Y0.0 I-20.509 J20.503 F481.
N640 G1 Y120. F820
N641 G3 X61.516 Y140.51 I-29. J.014 F820
N642 G40
N643 G1 X43.123 Y123.548 F820
N644 G0 X43.122 Y-3.539
N645 Z-73.745
N646 G41 G1 X61.509 Y-20.507 F481.
N647 G3 X70. Y0.0 I-20.509 J20.503 F481.
N648 G1 Y120. F820
N649 G3 X61.516 Y140.51 I-29. J.014 F820
N650 G40
N651 G1 X43.123 Y123.548 F820
N652 G0 X43.122 Y-3.539
N653 Z-74.741
N654 G41 G1 X61.509 Y-20.507 F481.
N655 G3 X70. Y0.0 I-20.509 J20.503 F481.
N656 G1 Y120. F820
N657 G3 X61.516 Y140.51 I-29. J.014 F820
N658 G40
N659 G1 X43.123 Y123.548 F820
N660 G0 X43.122 Y-3.539
N661 Z-75.738
N662 G41 G1 X61.509 Y-20.507 F481.
N663 G3 X70. Y0.0 I-20.509 J20.503 F481.
N664 G1 Y120. F820
N665 G3 X61.516 Y140.51 I-29. J.014 F820
N666 G40
N667 G1 X43.123 Y123.548 F820
N668 G0 X43.122 Y-3.539
N669 Z-76.734
N670 G41 G1 X61.509 Y-20.507 F481.
N671 G3 X70. Y0.0 I-20.509 J20.503 F481.
N672 G1 Y120. F820
N673 G3 X61.516 Y140.51 I-29. J.014 F820
N674 G40
N675 G1 X43.123 Y123.548 F820
N676 G0 X43.122 Y-3.539
N677 Z-77.731
N678 G41 G1 X61.509 Y-20.507 F481.
N679 G3 X70. Y0.0 I-20.509 J20.503 F481.
N680 G1 Y120. F820
N681 G3 X61.516 Y140.51 I-29. J.014 F820
N682 G40
N683 G1 X43.123 Y123.548 F820
N684 G0 X43.122 Y-3.539
N685 Z-78.728
N686 G41 G1 X61.509 Y-20.507 F481.
N687 G3 X70. Y0.0 I-20.509 J20.503 F481.
N688 G1 Y120. F820
N689 G3 X61.516 Y140.51 I-29. J.014 F820
N690 G40
N691 G1 X43.123 Y123.548 F820
N692 G0 X43.122 Y-3.539
N693 Z-79.724
N694 G41 G1 X61.509 Y-20.507 F481.
N695 G3 X70. Y0.0 I-20.509 J20.503 F481.
N696 G1 Y120. F820
N697 G3 X61.516 Y140.51 I-29. J.014 F820
N698 G40
N699 G1 X43.123 Y123.548 F820
N700 G0 X43.122 Y-3.539
N701 Z-80.721
N702 G41 G1 X61.509 Y-20.507 F481.
N703 G3 X70. Y0.0 I-20.509 J20.503 F481.
N704 G1 Y120. F820
N705 G3 X61.516 Y140.51 I-29. J.014 F820
N706 G40
N707 G1 X43.123 Y123.548 F820
N708 G0 X43.122 Y-3.539
N709 Z-81.717
N710 G41 G1 X61.509 Y-20.507 F481.
N711 G3 X70. Y0.0 I-20.509 J20.503 F481.
N712 G1 Y120. F820
N713 G3 X61.516 Y140.51 I-29. J.014 F820
N714 G40
N715 G1 X43.123 Y123.548 F820
N716 G0 X43.122 Y-3.539
N717 Z-82.714
N718 G41 G1 X61.509 Y-20.507 F481.
N719 G3 X70. Y0.0 I-20.509 J20.503 F481.
N720 G1 Y120. F820
N721 G3 X61.516 Y140.51 I-29. J.014 F820
N722 G40
N723 G1 X43.123 Y123.548 F820
N724 G0 X43.122 Y-3.539
N725 Z-83.71
N726 G41 G1 X61.509 Y-20.507 F481.
N727 G3 X70. Y0.0 I-20.509 J20.503 F481.
N728 G1 Y120. F820
N729 G3 X61.516 Y140.51 I-29. J.014 F820
N730 G40
N731 G1 X43.123 Y123.548 F820
N732 G0 X43.122 Y-3.539
N733 Z-84.707
N734 G41 G1 X61.509 Y-20.507 F481.
N735 G3 X70. Y0.0 I-20.509 J20.503 F481.
N736 G1 Y120. F820
N737 G3 X61.516 Y140.51 I-29. J.014 F820
N738 G40
N739 G1 X43.123 Y123.548 F820
N740 G0 X43.122 Y-3.539
N741 Z-85.703
N742 G41 G1 X61.509 Y-20.507 F481.
N743 G3 X70. Y0.0 I-20.509 J20.503 F481.
N744 G1 Y120. F820
N745 G3 X61.516 Y140.51 I-29. J.014 F820
N746 G40
N747 G1 X43.123 Y123.548 F820
N748 G0 X43.122 Y-3.539
N749 Z-86.7
N750 G41 G1 X61.509 Y-20.507 F481.
N751 G3 X70. Y0.0 I-20.509 J20.503 F481.
N752 G1 Y120. F820
N753 G3 X61.516 Y140.51 I-29. J.014 F820
N754 G40
N755 G1 X43.123 Y123.548 F820
N756 G0 X43.122 Y-3.539
N757 Z-87.697
N758 G41 G1 X61.509 Y-20.507 F481.
N759 G3 X70. Y0.0 I-20.509 J20.503 F481.
N760 G1 Y120. F820
N761 G3 X61.516 Y140.51 I-29. J.014 F820
N762 G40
N763 G1 X43.123 Y123.548 F820
N764 G0 X43.122 Y-3.539
N765 Z-88.693
N766 G41 G1 X61.509 Y-20.507 F481.
N767 G3 X70. Y0.0 I-20.509 J20.503 F481.
N768 G1 Y120. F820
N769 G3 X61.516 Y140.51 I-29. J.014 F820
N770 G40
N771 G1 X43.123 Y123.548 F820
N772 G0 X43.122 Y-3.539
N773 Z-89.69
N774 G41 G1 X61.509 Y-20.507 F481.
N775 G3 X70. Y0.0 I-20.509 J20.503 F481.
N776 G1 Y120. F820
N777 G3 X61.516 Y140.51 I-29. J.014 F820
N778 G40
N779 G1 X43.123 Y123.548 F820
N780 G0 X43.122 Y-3.539
N781 Z-90.686
N782 G41 G1 X61.509 Y-20.507 F481.
N783 G3 X70. Y0.0 I-20.509 J20.503 F481.
N784 G1 Y120. F820
N785 G3 X61.516 Y140.51 I-29. J.014 F820
N786 G40
N787 G1 X43.123 Y123.548 F820
N788 G0 X43.122 Y-3.539
N789 Z-91.683
N790 G41 G1 X61.509 Y-20.507 F481.
N791 G3 X70. Y0.0 I-20.509 J20.503 F481.
N792 G1 Y120. F820
N793 G3 X61.516 Y140.51 I-29. J.014 F820
N794 G40
N795 G1 X43.123 Y123.548 F820
N796 G0 X43.122 Y-3.539
N797 Z-92.679
N798 G41 G1 X61.509 Y-20.507 F481.
N799 G3 X70. Y0.0 I-20.509 J20.503 F481.
N800 G1 Y120. F820
N801 G3 X61.516 Y140.51 I-29. J.014 F820
N802 G40
N803 G1 X43.123 Y123.548 F820
N804 G0 X43.122 Y-3.539
N805 Z-93.676
N806 G41 G1 X61.509 Y-20.507 F481.
N807 G3 X70. Y0.0 I-20.509 J20.503 F481.
N808 G1 Y120. F820
N809 G3 X61.516 Y140.51 I-29. J.014 F820
N810 G40
N811 G1 X43.123 Y123.548 F820
N812 G0 X43.122 Y-3.539
N813 Z-94.672
N814 G41 G1 X61.509 Y-20.507 F481.
N815 G3 X70. Y0.0 I-20.509 J20.503 F481.
N816 G1 Y120. F820
N817 G3 X61.516 Y140.51 I-29. J.014 F820
N818 G40
N819 G1 X43.123 Y123.548 F820
N820 G0 X43.122 Y-3.539
N821 Z-95.669
N822 G41 G1 X61.509 Y-20.507 F481.
N823 G3 X70. Y0.0 I-20.509 J20.503 F481.
N824 G1 Y120. F820
N825 G3 X61.516 Y140.51 I-29. J.014 F820
N826 G40
N827 G1 X43.123 Y123.548 F820
N828 G0 X43.122 Y-3.539
N829 Z-96.666
N830 G41 G1 X61.509 Y-20.507 F481.
N831 G3 X70. Y0.0 I-20.509 J20.503 F481.
N832 G1 Y120. F820
N833 G3 X61.516 Y140.51 I-29. J.014 F820
N834 G40
N835 G1 X43.123 Y123.548 F820
N836 G0 X43.122 Y-3.539
N837 Z-97.662
N838 G41 G1 X61.509 Y-20.507 F481.
N839 G3 X70. Y0.0 I-20.509 J20.503 F481.
N840 G1 Y120. F820
N841 G3 X61.516 Y140.51 I-29. J.014 F820
N842 G40
N843 G1 X43.123 Y123.548 F820
N844 G0 X43.122 Y-3.539
N845 Z-98.659
N846 G41 G1 X61.509 Y-20.507 F481.
N847 G3 X70. Y0.0 I-20.509 J20.503 F481.
N848 G1 Y120. F820
N849 G3 X61.516 Y140.51 I-29. J.014 F820
N850 G40
N851 G1 X43.123 Y123.548 F820
N852 G0 X43.122 Y-3.539
N853 Z-99.655
N854 G41 G1 X61.509 Y-20.507 F481.
N855 G3 X70. Y0.0 I-20.509 J20.503 F481.
N856 G1 Y120. F820
N857 G3 X61.516 Y140.51 I-29. J.014 F820
N858 G40
N859 G1 X43.123 Y123.548 F820
N860 G0 X43.122 Y-3.539
N861 Z-100.652
N862 G41 G1 X61.509 Y-20.507 F481.
N863 G3 X70. Y0.0 I-20.509 J20.503 F481.
N864 G1 Y120. F820
N865 G3 X61.516 Y140.51 I-29. J.014 F820
N866 G40
N867 G1 X43.123 Y123.548 F820
N868 G0 X43.122 Y-3.539
N869 Z-101.648
N870 G41 G1 X61.509 Y-20.507 F481.
N871 G3 X70. Y0.0 I-20.509 J20.503 F481.
N872 G1 Y120. F820
N873 G3 X61.516 Y140.51 I-29. J.014 F820
N874 G40
N875 G1 X43.123 Y123.548 F820
N876 G0 X43.122 Y-3.539
N877 Z-102.645
N878 G41 G1 X61.509 Y-20.507 F481.
N879 G3 X70. Y0.0 I-20.509 J20.503 F481.
N880 G1 Y120. F820
N881 G3 X61.516 Y140.51 I-29. J.014 F820
N882 G40
N883 G1 X43.123 Y123.548 F820
N884 G0 X43.122 Y-3.539
N885 Z-103.641
N886 G41 G1 X61.509 Y-20.507 F481.
N887 G3 X70. Y0.0 I-20.509 J20.503 F481.
N888 G1 Y120. F820
N889 G3 X61.516 Y140.51 I-29. J.014 F820
N890 G40
N891 G1 X43.123 Y123.548 F820
N892 G0 X43.122 Y-3.539
N893 Z-104.638
N894 G41 G1 X61.509 Y-20.507 F481.
N895 G3 X70. Y0.0 I-20.509 J20.503 F481.
N896 G1 Y120. F820
N897 G3 X61.516 Y140.51 I-29. J.014 F820
N898 G40
N899 G1 X43.123 Y123.548 F820
N900 G0 X43.122 Y-3.539
N901 Z-105.634
N902 G41 G1 X61.509 Y-20.507 F481.
N903 G3 X70. Y0.0 I-20.509 J20.503 F481.
N904 G1 Y120. F820
N905 G3 X61.516 Y140.51 I-29. J.014 F820
N906 G40
N907 G1 X43.123 Y123.548 F820
N908 G0 X43.122 Y-3.539
N909 Z-106.631
N910 G41 G1 X61.509 Y-20.507 F481.
N911 G3 X70. Y0.0 I-20.509 J20.503 F481.
N912 G1 Y120. F820
N913 G3 X61.516 Y140.51 I-29. J.014 F820
N914 G40
N915 G1 X43.123 Y123.548 F820
N916 G0 X43.122 Y-3.539
N917 Z-107.628
N918 G41 G1 X61.509 Y-20.507 F481.
N919 G3 X70. Y0.0 I-20.509 J20.503 F481.
N920 G1 Y120. F820
N921 G3 X61.516 Y140.51 I-29. J.014 F820
N922 G40
N923 G1 X43.123 Y123.548 F820
N924 G0 X43.122 Y-3.539
N925 Z-108.624
N926 G41 G1 X61.509 Y-20.507 F481.
N927 G3 X70. Y0.0 I-20.509 J20.503 F481.
N928 G1 Y120. F820
N929 G3 X61.516 Y140.51 I-29. J.014 F820
N930 G40
N931 G1 X43.123 Y123.548 F820
N932 G0 X43.122 Y-3.539
N933 Z-109.621
N934 G41 G1 X61.509 Y-20.507 F481.
N935 G3 X70. Y0.0 I-20.509 J20.503 F481.
N936 G1 Y120. F820
N937 G3 X61.516 Y140.51 I-29. J.014 F820
N938 G40
N939 G1 X43.123 Y123.548 F820
N940 G0 X43.122 Y-3.539
N941 Z-110.617
N942 G41 G1 X61.509 Y-20.507 F481.
N943 G3 X70. Y0.0 I-20.509 J20.503 F481.
N944 G1 Y120. F820
N945 G3 X61.516 Y140.51 I-29. J.014 F820
N946 G40
N947 G1 X43.123 Y123.548 F820
N948 G0 X43.122 Y-3.539
N949 Z-111.614
N950 G41 G1 X61.509 Y-20.507 F481.
N951 G3 X70. Y0.0 I-20.509 J20.503 F481.
N952 G1 Y120. F820
N953 G3 X61.516 Y140.51 I-29. J.014 F820
N954 G40
N955 G1 X43.123 Y123.548 F820
N956 G0 X43.122 Y-3.539
N957 Z-112.61
N958 G41 G1 X61.509 Y-20.507 F481.
N959 G3 X70. Y0.0 I-20.509 J20.503 F481.
N960 G1 Y120. F820
N961 G3 X61.516 Y140.51 I-29. J.014 F820
N962 G40
N963 G1 X43.123 Y123.548 F820
N964 G0 X43.122 Y-3.539
N965 Z-113.607
N966 G41 G1 X61.509 Y-20.507 F481.
N967 G3 X70. Y0.0 I-20.509 J20.503 F481.
N968 G1 Y120. F820
N969 G3 X61.516 Y140.51 I-29. J.014 F820
N970 G40
N971 G1 X43.123 Y123.548 F820
N972 G0 X43.122 Y-3.539
N973 Z-114.603
N974 G41 G1 X61.509 Y-20.507 F481.
N975 G3 X70. Y0.0 I-20.509 J20.503 F481.
N976 G1 Y120. F820
N977 G3 X61.516 Y140.51 I-29. J.014 F820
N978 G40
N979 G1 X43.123 Y123.548 F820
N980 G0 X43.122 Y-3.539
N981 Z-115.6
N982 G41 G1 X61.509 Y-20.507 F481.
N983 G3 X70. Y0.0 I-20.509 J20.503 F481.
N984 G1 Y120. F820
N985 G3 X61.516 Y140.51 I-29. J.014 F820
N986 G40
N987 G1 X43.123 Y123.548 F820
N988 G0 X43.122 Y-3.539
N989 Z-116.597
N990 G41 G1 X61.509 Y-20.507 F481.
N991 G3 X70. Y0.0 I-20.509 J20.503 F481.
N992 G1 Y120. F820
N993 G3 X61.516 Y140.51 I-29. J.014 F820
N994 G40
N995 G1 X43.123 Y123.548 F820
N996 G0 X43.122 Y-3.539
N997 Z-117.593
N998 G41 G1 X61.509 Y-20.507 F481.
N999 G3 X70. Y0.0 I-20.509 J20.503 F481.
N1000 G1 Y120. F820
N1001 G3 X61.516 Y140.51 I-29. J.014 F820
N1002 G40
N1003 G1 X43.123 Y123.548 F820
N1004 G0 X43.122 Y-3.539
N1005 Z-118.59
N1006 G41 G1 X61.509 Y-20.507 F481.
N1007 G3 X70. Y0.0 I-20.509 J20.503 F481.
N1008 G1 Y120. F820
N1009 G3 X61.516 Y140.51 I-29. J.014 F820
N1010 G40
N1011 G1 X43.123 Y123.548 F820
N1012 G0 X43.122 Y-3.539
N1013 Z-119.586
N1014 G41 G1 X61.509 Y-20.507 F481.
N1015 G3 X70. Y0.0 I-20.509 J20.503 F481.
N1016 G1 Y120. F820
N1017 G3 X61.516 Y140.51 I-29. J.014 F820
N1018 G40
N1019 G1 X43.123 Y123.548 F820
N1020 G0 X43.122 Y-3.539
N1021 Z-120.583
N1022 G41 G1 X61.509 Y-20.507 F481.
N1023 G3 X70. Y0.0 I-20.509 J20.503 F481.
N1024 G1 Y120. F820
N1025 G3 X61.516 Y140.51 I-29. J.014 F820
N1026 G40
N1027 G1 X43.123 Y123.548 F820
N1028 G0 X43.122 Y-3.539
N1029 Z-121.579
N1030 G41 G1 X61.509 Y-20.507 F481.
N1031 G3 X70. Y0.0 I-20.509 J20.503 F481.
N1032 G1 Y120. F820
N1033 G3 X61.516 Y140.51 I-29. J.014 F820
N1034 G40
N1035 G1 X43.123 Y123.548 F820
N1036 G0 X43.122 Y-3.539
N1037 Z-122.576
N1038 G41 G1 X61.509 Y-20.507 F481.
N1039 G3 X70. Y0.0 I-20.509 J20.503 F481.
N1040 G1 Y120. F820
N1041 G3 X61.516 Y140.51 I-29. J.014 F820
N1042 G40
N1043 G1 X43.123 Y123.548 F820
N1044 G0 X43.122 Y-3.539
N1045 Z-123.572
N1046 G41 G1 X61.509 Y-20.507 F481.
N1047 G3 X70. Y0.0 I-20.509 J20.503 F481.
N1048 G1 Y120. F820
N1049 G3 X61.516 Y140.51 I-29. J.014 F820
N1050 G40
N1051 G1 X43.123 Y123.548 F820
N1052 G0 X43.122 Y-3.539
N1053 Z-124.569
N1054 G41 G1 X61.509 Y-20.507 F481.
N1055 G3 X70. Y0.0 I-20.509 J20.503 F481.
N1056 G1 Y120. F820
N1057 G3 X61.516 Y140.51 I-29. J.014 F820
N1058 G40
N1059 G1 X43.123 Y123.548 F820
N1060 G0 X43.122 Y-3.539
N1061 Z-125.566
N1062 G41 G1 X61.509 Y-20.507 F481.
N1063 G3 X70. Y0.0 I-20.509 J20.503 F481.
N1064 G1 Y120. F820
N1065 G3 X61.516 Y140.51 I-29. J.014 F820
N1066 G40
N1067 G1 X43.123 Y123.548 F820
N1068 G0 X43.122 Y-3.539
N1069 Z-126.562
N1070 G41 G1 X61.509 Y-20.507 F481.
N1071 G3 X70. Y0.0 I-20.509 J20.503 F481.
N1072 G1 Y120. F820
N1073 G3 X61.516 Y140.51 I-29. J.014 F820
N1074 G40
N1075 G1 X43.123 Y123.548 F820
N1076 G0 X43.122 Y-3.539
N1077 Z-127.559
N1078 G41 G1 X61.509 Y-20.507 F481.
N1079 G3 X70. Y0.0 I-20.509 J20.503 F481.
N1080 G1 Y120. F820
N1081 G3 X61.516 Y140.51 I-29. J.014 F820
N1082 G40
N1083 G1 X43.123 Y123.548 F820
N1084 G0 X43.122 Y-3.539
N1085 Z-128.555
N1086 G41 G1 X61.509 Y-20.507 F481.
N1087 G3 X70. Y0.0 I-20.509 J20.503 F481.
N1088 G1 Y120. F820
N1089 G3 X61.516 Y140.51 I-29. J.014 F820
N1090 G40
N1091 G1 X43.123 Y123.548 F820
N1092 G0 X43.122 Y-3.539
N1093 Z-129.552
N1094 G41 G1 X61.509 Y-20.507 F481.
N1095 G3 X70. Y0.0 I-20.509 J20.503 F481.
N1096 G1 Y120. F820
N1097 G3 X61.516 Y140.51 I-29. J.014 F820
N1098 G40
N1099 G1 X43.123 Y123.548 F820
N1100 G0 X43.122 Y-3.539
N1101 Z-130.548
N1102 G41 G1 X61.509 Y-20.507 F481.
N1103 G3 X70. Y0.0 I-20.509 J20.503 F481.
N1104 G1 Y120. F820
N1105 G3 X61.516 Y140.51 I-29. J.014 F820
N1106 G40
N1107 G1 X43.123 Y123.548 F820
N1108 G0 X43.122 Y-3.539
N1109 Z-131.545
N1110 G41 G1 X61.509 Y-20.507 F481.
N1111 G3 X70. Y0.0 I-20.509 J20.503 F481.
N1112 G1 Y120. F820
N1113 G3 X61.516 Y140.51 I-29. J.014 F820
N1114 G40
N1115 G1 X43.123 Y123.548 F820
N1116 G0 X43.122 Y-3.539
N1117 Z-132.541
N1118 G41 G1 X61.509 Y-20.507 F481.
N1119 G3 X70. Y0.0 I-20.509 J20.503 F481.
N1120 G1 Y120. F820
N1121 G3 X61.516 Y140.51 I-29. J.014 F820
N1122 G40
N1123 G1 X43.123 Y123.548 F820
N1124 G0 X43.122 Y-3.539
N1125 Z-133.538
N1126 G41 G1 X61.509 Y-20.507 F481.
N1127 G3 X70. Y0.0 I-20.509 J20.503 F481.
N1128 G1 Y120. F820
N1129 G3 X61.516 Y140.51 I-29. J.014 F820
N1130 G40
N1131 G1 X43.123 Y123.548 F820
N1132 G0 X43.122 Y-3.539
N1133 Z-134.534
N1134 G41 G1 X61.509 Y-20.507 F481.
N1135 G3 X70. Y0.0 I-20.509 J20.503 F481.
N1136 G1 Y120. F820
N1137 G3 X61.516 Y140.51 I-29. J.014 F820
N1138 G40
N1139 G1 X43.123 Y123.548 F820
N1140 G0 X43.122 Y-3.539
N1141 Z-135.531
N1142 G41 G1 X61.509 Y-20.507 F481.
N1143 G3 X70. Y0.0 I-20.509 J20.503 F481.
N1144 G1 Y120. F820
N1145 G3 X61.516 Y140.51 I-29. J.014 F820
N1146 G40
N1147 G1 X43.123 Y123.548 F820
N1148 G0 X43.122 Y-3.539
N1149 Z-136.528
N1150 G41 G1 X61.509 Y-20.507 F481.
N1151 G3 X70. Y0.0 I-20.509 J20.503 F481.
N1152 G1 Y120. F820
N1153 G3 X61.516 Y140.51 I-29. J.014 F820
N1154 G40
N1155 G1 X43.123 Y123.548 F820
N1156 G0 X43.122 Y-3.539
N1157 Z-137.524
N1158 G41 G1 X61.509 Y-20.507 F481.
N1159 G3 X70. Y0.0 I-20.509 J20.503 F481.
N1160 G1 Y120. F820
N1161 G3 X61.516 Y140.51 I-29. J.014 F820
N1162 G40
N1163 G1 X43.123 Y123.548 F820
N1164 G0 X43.122 Y-3.539
N1165 Z-138.521
N1166 G41 G1 X61.509 Y-20.507 F481.
N1167 G3 X70. Y0.0 I-20.509 J20.503 F481.
N1168 G1 Y120. F820
N1169 G3 X61.516 Y140.51 I-29. J.014 F820
N1170 G40
N1171 G1 X43.123 Y123.548 F820
N1172 G0 X43.122 Y-3.539
N1173 Z-139.517
N1174 G41 G1 X61.509 Y-20.507 F481.
N1175 G3 X70. Y0.0 I-20.509 J20.503 F481.
N1176 G1 Y120. F820
N1177 G3 X61.516 Y140.51 I-29. J.014 F820
N1178 G40
N1179 G1 X43.123 Y123.548 F820
N1180 G0 X43.122 Y-3.539
N1181 Z-140.514
N1182 G41 G1 X61.509 Y-20.507 F481.
N1183 G3 X70. Y0.0 I-20.509 J20.503 F481.
N1184 G1 Y120. F820
N1185 G3 X61.516 Y140.51 I-29. J.014 F820
N1186 G40
N1187 G1 X43.123 Y123.548 F820
N1188 G0 X43.122 Y-3.539
N1189 Z-141.51
N1190 G41 G1 X61.509 Y-20.507 F481.
N1191 G3 X70. Y0.0 I-20.509 J20.503 F481.
N1192 G1 Y120. F820
N1193 G3 X61.516 Y140.51 I-29. J.014 F820
N1194 G40
N1195 G1 X43.123 Y123.548 F820
N1196 G0 X43.122 Y-3.539
N1197 Z-142.507
N1198 G41 G1 X61.509 Y-20.507 F481.
N1199 G3 X70. Y0.0 I-20.509 J20.503 F481.
N1200 G1 Y120. F820
N1201 G3 X61.516 Y140.51 I-29. J.014 F820
N1202 G40
N1203 G1 X43.123 Y123.548 F820
N1204 G0 X43.122 Y-3.539
N1205 Z-143.503
N1206 G41 G1 X61.509 Y-20.507 F481.
N1207 G3 X70. Y0.0 I-20.509 J20.503 F481.
N1208 G1 Y120. F820
N1209 G3 X61.516 Y140.51 I-29. J.014 F820
N1210 G40
N1211 G1 X43.123 Y123.548 F820
N1212 G0 X43.122 Y-3.539
N1213 Z-144.5
N1214 G41 G1 X61.509 Y-20.507 F481.
N1215 G3 X70. Y0.0 I-20.509 J20.503 F481.
N1216 G1 Y120. F820
N1217 G3 X61.516 Y140.51 I-29. J.014 F820
N1218 G40
N1219 G1 X43.123 Y123.548 F820
N1220 G0 Z-.997
N1221 X-43.388 Y8.5
N1222 G41 G1 X-62.728 Y24.374 F481.
N1223 G3 X-70.016 Y3.409 I21.662 J-19.281 F481.
N1224 G2 X-70. Y2.814 I-9.714 J-.565 F820
N1225 G1 Y0.0 F820
N1226 G3 X-61.509 Y-20.507 I29. J-.004 F820
N1227 G40
N1228 G1 X-43.122 Y-3.539 F820
N1229 G0 X-43.391 Y12.547
N1230 Z-1.993
N1231 G41 G1 X-62.741 Y28.408 F481.
N1232 G3 X-70.015 Y7.438 I21.675 J-19.266 F481.
N1233 G2 X-70. Y6.836 I-9.087 J-.535 F820
N1234 G1 Y0.0 F820
N1235 G3 X-61.509 Y-20.507 I29. J-.004 F820
N1236 G40
N1237 G1 X-43.122 Y-3.539 F820
N1238 G0 X-43.386 Y16.467
N1239 Z-2.99
N1240 G41 G1 X-62.715 Y32.354 F481.
N1241 G3 X-70.017 Y11.394 I21.65 J-19.295 F481.
N1242 G2 X-70. Y10.771 I-10.562 J-.607 F820
N1243 G1 Y0.0 F820
N1244 G3 X-61.509 Y-20.507 I29. J-.004 F820
N1245 G40
N1246 G1 X-43.122 Y-3.539 F820
N1247 G0 X-43.389 Y20.449
N1248 Z-3.986
N1249 G41 G1 X-62.73 Y36.321 F481.
N1250 G3 X-70.016 Y15.355 I21.665 J-19.278 F481.
N1251 G2 X-70. Y14.767 I-9.663 J-.563 F820
N1252 G1 Y0.0 F820
N1253 G3 X-61.509 Y-20.507 I29. J-.004 F820
N1254 G40
N1255 G1 X-43.122 Y-3.539 F820
N1256 G0 X-43.397 Y24.62
N1257 Z-4.983
N1258 G41 G1 X-62.773 Y40.45 F481.
N1259 G3 X-70.013 Y19.469 I21.707 J-19.231 F481.
N1260 G2 X-70. Y18.867 I-7.816 J-.473 F820
N1261 G1 Y0.0 F820
N1262 G3 X-61.509 Y-20.507 I29. J-.004 F820
N1263 G40
N1264 G1 X-43.122 Y-3.539 F820
N1265 G0 X-43.387 Y28.438
N1266 Z-5.979
N1267 G41 G1 X-62.719 Y44.321 F481.
N1268 G3 X-70.017 Y23.36 I21.653 J-19.291 F481.
N1269 G2 X-70. Y22.735 I-10.453 J-.603 F820
N1270 G1 Y0.0 F820
N1271 G3 X-61.509 Y-20.507 I29. J-.004 F820
N1272 G40
N1273 G1 X-43.122 Y-3.539 F820
N1274 G0 X-43.389 Y32.403
N1275 Z-6.976
N1276 G41 G1 X-62.73 Y48.275 F481.
N1277 G3 X-70.017 Y27.309 I21.665 J-19.278 F481.
N1278 G2 X-70. Y26.72 I-9.772 J-.57 F820
N1279 G1 Y0.0 F820
N1280 G3 X-61.509 Y-20.507 I29. J-.004 F820
N1281 G40
N1282 G1 X-43.122 Y-3.539 F820
N1283 G0 X-43.398 Y36.582
N1284 Z-7.972
N1285 G41 G1 X-62.775 Y52.41 F481.
N1286 G3 X-70.013 Y31.428 I21.708 J-19.229 F481.
N1287 G2 X-70. Y30.825 I-7.816 J-.473 F820
N1288 G1 Y0.0 F820
N1289 G3 X-61.509 Y-20.507 I29. J-.004 F820
N1290 G40
N1291 G1 X-43.122 Y-3.539 F820
N1292 G0 X-43.388 Y40.402
N1293 Z-8.969
N1294 G41 G1 X-62.721 Y56.283 F481.
N1295 G3 X-70.017 Y35.321 I21.655 J-19.288 F481.
N1296 G2 X-70. Y34.695 I-10.429 J-.603 F820
N1297 G1 Y0.0 F820
N1298 G3 X-61.509 Y-20.507 I29. J-.004 F820
N1299 G40
N1300 G1 X-43.122 Y-3.539 F820
N1301 G0 X-43.389 Y44.36
N1302 Z-9.966
N1303 G41 G1 X-62.731 Y60.231 F481.
N1304 G3 X-70.017 Y39.266 I21.665 J-19.277 F481.
N1305 G2 X-70. Y38.676 I-9.845 J-.574 F820
N1306 G1 Y0.0 F820
N1307 G3 X-61.509 Y-20.507 I29. J-.004 F820
N1308 G40
N1309 G1 X-43.122 Y-3.539 F820
N1310 G0 X-43.395 Y48.474
N1311 Z-10.962
N1312 G41 G1 X-62.758 Y64.318 F481.
N1313 G3 X-70.015 Y43.342 I21.692 J-19.247 F481.
N1314 G2 X-70. Y42.739 I-8.544 J-.51 F820
N1315 G1 Y0.0 F820
N1316 G3 X-61.509 Y-20.507 I29. J-.004 F820
N1317 G40
N1318 G1 X-43.122 Y-3.539 F820
N1319 G0 X-43.388 Y52.363
N1320 Z-11.959
N1321 G41 G1 X-62.723 Y68.242 F481.
N1322 G3 X-70.017 Y47.279 I21.657 J-19.286 F481.
N1323 G2 X-70. Y46.653 I-10.424 J-.604 F820
N1324 G1 Y0.0 F820
N1325 G3 X-61.509 Y-20.507 I29. J-.004 F820
N1326 G40
N1327 G1 X-43.122 Y-3.539 F820
N1328 G0 X-43.42 Y55.717
N1329 Z-12.955
N1330 G41 G1 X-62.891 Y71.429 F481.
N1331 G3 X-70.004 Y50.404 I21.823 J-19.099 F481.
N1332 G1 X-70. Y50.276 F820
N1333 Y0.0 F820
N1334 G3 X-61.509 Y-20.507 I29. J-.004 F820
N1335 G40
N1336 G1 X-43.122 Y-3.539 F820
N1337 G0 X-43.418 Y57.345
N1338 Z-13.952
N1339 G41 G1 X-62.885 Y73.063 F481.
N1340 G3 X-70.005 Y52.04 I21.817 J-19.106 F481.
N1341 G1 X-70. Y51.911 F820
N1342 Y0.0 F820
N1343 G3 X-61.509 Y-20.507 I29. J-.004 F820
N1344 G40
N1345 G1 X-43.122 Y-3.539 F820
N1346 G0 X-43.419 Y59.025
N1347 Z-14.948
N1348 G41 G1 X-62.885 Y74.743 F481.
N1349 G3 X-70.005 Y53.72 I21.817 J-19.106 F481.
N1350 G1 X-70. Y53.591 F820
N1351 Y0.0 F820
N1352 G3 X-61.509 Y-20.507 I29. J-.004 F820
N1353 G40
N1354 G1 X-43.122 Y-3.539 F820
N1355 G0 X-43.418 Y60.687
N1356 Z-15.945
N1357 G41 G1 X-62.881 Y76.408 F481.
N1358 G3 X-70.005 Y55.387 I21.813 J-19.11 F481.
N1359 G1 X-70. Y55.254 F820
N1360 Y0.0 F820
N1361 G3 X-61.509 Y-20.507 I29. J-.004 F820
N1362 G40
N1363 G1 X-43.122 Y-3.539 F820
N1364 G0 X-43.419 Y62.408
N1365 Z-16.941
N1366 G41 G1 X-62.888 Y78.123 F481.
N1367 G3 X-70.004 Y57.099 I21.82 J-19.102 F481.
N1368 G1 X-70. Y56.97 F820
N1369 Y0.0 F820
N1370 G3 X-61.509 Y-20.507 I29. J-.004 F820
N1371 G40
N1372 G1 X-43.122 Y-3.539 F820
N1373 G0 X-43.419 Y64.102
N1374 Z-17.938
N1375 G41 G1 X-62.89 Y79.815 F481.
N1376 G3 X-70.004 Y58.791 I21.821 J-19.1 F481.
N1377 G1 X-70. Y58.662 F820
N1378 Y0.0 F820
N1379 G3 X-61.509 Y-20.507 I29. J-.004 F820
N1380 G40
N1381 G1 X-43.122 Y-3.539 F820
N1382 G0 X-43.42 Y65.782
N1383 Z-18.934
N1384 G41 G1 X-62.89 Y81.496 F481.
N1385 G3 X-70.004 Y60.471 I21.822 J-19.1 F481.
N1386 G1 X-70. Y60.342 F820
N1387 Y0.0 F820
N1388 G3 X-61.509 Y-20.507 I29. J-.004 F820
N1389 G40
N1390 G1 X-43.122 Y-3.539 F820
N1391 G0 X-43.42 Y67.464
N1392 Z-19.931
N1393 G41 G1 X-62.89 Y83.177 F481.
N1394 G3 X-70.004 Y62.152 I21.822 J-19.1 F481.
N1395 G1 X-70. Y62.024 F820
N1396 Y0.0 F820
N1397 G3 X-61.509 Y-20.507 I29. J-.004 F820
N1398 G40
N1399 G1 X-43.122 Y-3.539 F820
N1400 G0 X-43.42 Y69.145
N1401 Z-20.928
N1402 G41 G1 X-62.89 Y84.858 F481.
N1403 G3 X-70.004 Y63.833 I21.822 J-19.1 F481.
N1404 G1 X-70. Y63.704 F820
N1405 Y0.0 F820
N1406 G3 X-61.509 Y-20.507 I29. J-.004 F820
N1407 G40
N1408 G1 X-43.122 Y-3.539 F820
N1409 G0 X-43.422 Y70.886
N1410 Z-21.924
N1411 G41 G1 X-62.903 Y86.586 F481.
N1412 G3 X-70.003 Y65.557 I21.835 J-19.085 F481.
N1413 G1 X-70. Y65.441 F820
N1414 Y0.0 F820
N1415 G3 X-61.509 Y-20.507 I29. J-.004 F820
N1416 G40
N1417 G1 X-43.122 Y-3.539 F820
N1418 G0 X-43.422 Y72.578
N1419 Z-22.921
N1420 G41 G1 X-62.905 Y88.276 F481.
N1421 G3 X-70.003 Y67.246 I21.836 J-19.083 F481.
N1422 G1 X-70. Y67.131 F820
N1423 Y0.0 F820
N1424 G3 X-61.509 Y-20.507 I29. J-.004 F820
N1425 G40
N1426 G1 X-43.122 Y-3.539 F820
N1427 G0 X-43.422 Y74.255
N1428 Z-23.917
N1429 G41 G1 X-62.904 Y89.954 F481.
N1430 G3 X-70.003 Y68.924 I21.836 J-19.084 F481.
N1431 G1 X-70. Y68.807 F820
N1432 Y0.0 F820
N1433 G3 X-61.509 Y-20.507 I29. J-.004 F820
N1434 G40
N1435 G1 X-43.122 Y-3.539 F820
N1436 G0 X-43.422 Y75.931
N1437 Z-24.914
N1438 G41 G1 X-62.904 Y91.631 F481.
N1439 G3 X-70.003 Y70.601 I21.835 J-19.085 F481.
N1440 G1 X-70. Y70.484 F820
N1441 Y0.0 F820
N1442 G3 X-61.509 Y-20.507 I29. J-.004 F820
N1443 G40
N1444 G1 X-43.122 Y-3.539 F820
N1445 G0 X-43.422 Y77.609
N1446 Z-25.91
N1447 G41 G1 X-62.903 Y93.308 F481.
N1448 G3 X-70.003 Y72.279 I21.835 J-19.085 F481.
N1449 G1 X-70. Y72.161 F820
N1450 Y0.0 F820
N1451 G3 X-61.509 Y-20.507 I29. J-.004 F820
N1452 G40
N1453 G1 X-43.122 Y-3.539 F820
N1454 G0 X-43.422 Y79.285
N1455 Z-26.907
N1456 G41 G1 X-62.903 Y94.985 F481.
N1457 G3 X-70.003 Y73.956 I21.834 J-19.086 F481.
N1458 G1 X-70. Y73.838 F820
N1459 Y0.0 F820
N1460 G3 X-61.509 Y-20.507 I29. J-.004 F820
N1461 G40
N1462 G1 X-43.122 Y-3.539 F820
N1463 G0 X-43.422 Y80.961
N1464 Z-27.903
N1465 G41 G1 X-62.902 Y96.662 F481.
N1466 G3 X-70.004 Y75.633 I21.834 J-19.086 F481.
N1467 G1 X-70. Y75.514 F820
N1468 Y0.0 F820
N1469 G3 X-61.509 Y-20.507 I29. J-.004 F820
N1470 G40
N1471 G1 X-43.122 Y-3.539 F820
N1472 G0 X-43.422 Y82.638
N1473 Z-28.9
N1474 G41 G1 X-62.902 Y98.34 F481.
N1475 G3 X-70.004 Y77.311 I21.833 J-19.087 F481.
N1476 G1 X-70. Y77.191 F820
N1477 Y0.0 F820
N1478 G3 X-61.509 Y-20.507 I29. J-.004 F820
N1479 G40
N1480 G1 X-43.122 Y-3.539 F820
N1481 G0 X-43.422 Y84.33
N1482 Z-29.897
N1483 G41 G1 X-62.903 Y100.03 F481.
N1484 G3 X-70.003 Y79.001 I21.835 J-19.085 F481.
N1485 G1 X-70. Y78.881 F820
N1486 Y0.0 F820
N1487 G3 X-61.509 Y-20.507 I29. J-.004 F820
N1488 G40
N1489 G1 X-43.122 Y-3.539 F820
N1490 G0 X-43.422 Y86.01
N1491 Z-30.893
N1492 G41 G1 X-62.903 Y101.711 F481.
N1493 G3 X-70.004 Y80.681 I21.835 J-19.085 F481.
N1494 G1 X-70. Y80.561 F820
N1495 Y0.0 F820
N1496 G3 X-61.509 Y-20.507 I29. J-.004 F820
N1497 G40
N1498 G1 X-43.122 Y-3.539 F820
N1499 G0 X-43.422 Y87.683
N1500 Z-31.89
N1501 G41 G1 X-62.902 Y103.384 F481.
N1502 G3 X-70.004 Y82.355 I21.833 J-19.087 F481.
N1503 G1 X-70. Y82.234 F820
N1504 Y0.0 F820
N1505 G3 X-61.509 Y-20.507 I29. J-.004 F820
N1506 G40
N1507 G1 X-43.122 Y-3.539 F820
N1508 G0 X-43.421 Y89.327
N1509 Z-32.886
N1510 G41 G1 X-62.895 Y105.036 F481.
N1511 G3 X-70.004 Y84.01 I21.826 J-19.095 F481.
N1512 G1 X-70. Y83.881 F820
N1513 Y0.0 F820
N1514 G3 X-61.509 Y-20.507 I29. J-.004 F820
N1515 G40
N1516 G1 X-43.122 Y-3.539 F820
N1517 G0 X-43.421 Y91.
N1518 Z-33.883
N1519 G41 G1 X-62.894 Y106.71 F481.
N1520 G3 X-70.004 Y85.684 I21.825 J-19.096 F481.
N1521 G1 X-70. Y85.554 F820
N1522 Y0.0 F820
N1523 G3 X-61.509 Y-20.507 I29. J-.004 F820
N1524 G40
N1525 G1 X-43.122 Y-3.539 F820
N1526 G0 X-43.421 Y92.682
N1527 Z-34.879
N1528 G41 G1 X-62.894 Y108.391 F481.
N1529 G3 X-70.004 Y87.365 I21.826 J-19.096 F481.
N1530 G1 X-70. Y87.235 F820
N1531 Y0.0 F820
N1532 G3 X-61.509 Y-20.507 I29. J-.004 F820
N1533 G40
N1534 G1 X-43.122 Y-3.539 F820
N1535 G0 X-43.421 Y94.363
N1536 Z-35.876
N1537 G41 G1 X-62.895 Y110.072 F481.
N1538 G3 X-70.004 Y89.046 I21.826 J-19.095 F481.
N1539 G1 X-70. Y88.916 F820
N1540 Y0.0 F820
N1541 G3 X-61.509 Y-20.507 I29. J-.004 F820
N1542 G40
N1543 G1 X-43.122 Y-3.539 F820
N1544 G0 X-43.421 Y96.044
N1545 Z-36.872
N1546 G41 G1 X-62.898 Y111.75 F481.
N1547 G3 X-70.004 Y90.723 I21.829 J-19.092 F481.
N1548 G1 X-70. Y90.6 F820
N1549 Y0.0 F820
N1550 G3 X-61.509 Y-20.507 I29. J-.004 F820
N1551 G40
N1552 G1 X-43.122 Y-3.539 F820
N1553 G0 X-43.421 Y97.726
N1554 Z-37.869
N1555 G41 G1 X-62.895 Y113.434 F481.
N1556 G3 X-70.004 Y92.408 I21.827 J-19.095 F481.
N1557 G1 X-70. Y92.278 F820
N1558 Y0.0 F820
N1559 G3 X-61.509 Y-20.507 I29. J-.004 F820
N1560 G40
N1561 G1 X-43.122 Y-3.539 F820
N1562 G0 X-43.421 Y99.407
N1563 Z-38.866
N1564 G41 G1 X-62.896 Y115.115 F481.
N1565 G3 X-70.004 Y94.089 I21.827 J-19.094 F481.
N1566 G1 X-70. Y93.959 F820
N1567 Y0.0 F820
N1568 G3 X-61.509 Y-20.507 I29. J-.004 F820
N1569 G40
N1570 G1 X-43.122 Y-3.539 F820
N1571 G0 X-43.421 Y101.087
N1572 Z-39.862
N1573 G41 G1 X-62.896 Y116.795 F481.
N1574 G3 X-70.004 Y95.769 I21.827 J-19.094 F481.
N1575 G1 X-70. Y95.639 F820
N1576 Y0.0 F820
N1577 G3 X-61.509 Y-20.507 I29. J-.004 F820
N1578 G40
N1579 G1 X-43.122 Y-3.539 F820
N1580 G0 X-43.421 Y102.764
N1581 Z-40.859
N1582 G41 G1 X-62.896 Y118.472 F481.
N1583 G3 X-70.004 Y97.446 I21.827 J-19.094 F481.
N1584 G1 X-70. Y97.316 F820
N1585 Y0.0 F820
N1586 G3 X-61.509 Y-20.507 I29. J-.004 F820
N1587 G40
N1588 G1 X-43.122 Y-3.539 F820
N1589 G0 X-43.421 Y104.442
N1590 Z-41.855
N1591 G41 G1 X-62.895 Y120.15 F481.
N1592 G3 X-70.004 Y99.124 I21.827 J-19.095 F481.
N1593 G1 X-70. Y98.994 F820
N1594 Y0.0 F820
N1595 G3 X-61.509 Y-20.507 I29. J-.004 F820
N1596 G40
N1597 G1 X-43.122 Y-3.539 F820
N1598 G0 X-43.421 Y106.121
N1599 Z-42.852
N1600 G41 G1 X-62.895 Y121.829 F481.
N1601 G3 X-70.005 Y100.803 I21.827 J-19.095 F481.
N1602 G1 X-70. Y100.673 F820
N1603 Y0.0 F820
N1604 G3 X-61.509 Y-20.507 I29. J-.004 F820
N1605 G40
N1606 G1 X-43.122 Y-3.539 F820
N1607 G0 X-43.421 Y107.801
N1608 Z-43.848
N1609 G41 G1 X-62.896 Y123.509 F481.
N1610 G3 X-70.005 Y102.482 I21.827 J-19.094 F481.
N1611 G1 X-70. Y102.353 F820
N1612 Y0.0 F820
N1613 G3 X-61.509 Y-20.507 I29. J-.004 F820
N1614 G40
N1615 G1 X-43.122 Y-3.539 F820
N1616 G0 X-43.421 Y109.482
N1617 Z-44.845
N1618 G41 G1 X-62.896 Y125.19 F481.
N1619 G3 X-70.005 Y104.163 I21.827 J-19.094 F481.
N1620 G1 X-70. Y104.033 F820
N1621 Y0.0 F820
N1622 G3 X-61.509 Y-20.507 I29. J-.004 F820
N1623 G40
N1624 G1 X-43.122 Y-3.539 F820
N1625 G0 X-43.421 Y111.164
N1626 Z-45.841
N1627 G41 G1 X-62.896 Y126.871 F481.
N1628 G3 X-70.005 Y105.844 I21.827 J-19.094 F481.
N1629 G1 X-70. Y105.715 F820
N1630 Y0.0 F820
N1631 G3 X-61.509 Y-20.507 I29. J-.004 F820
N1632 G40
N1633 G1 X-43.122 Y-3.539 F820
N1634 G0 X-43.421 Y112.846
N1635 Z-46.838
N1636 G41 G1 X-62.897 Y128.553 F481.
N1637 G3 X-70.005 Y107.527 I21.828 J-19.093 F481.
N1638 G1 X-70. Y107.397 F820
N1639 Y0.0 F820
N1640 G3 X-61.509 Y-20.507 I29. J-.004 F820
N1641 G40
N1642 G1 X-43.122 Y-3.539 F820
N1643 G0 X-43.421 Y114.53
N1644 Z-47.834
N1645 G41 G1 X-62.897 Y130.236 F481.
N1646 G3 X-70.005 Y109.209 I21.828 J-19.093 F481.
N1647 G1 X-70. Y109.079 F820
N1648 Y0.0 F820
N1649 G3 X-61.509 Y-20.507 I29. J-.004 F820
N1650 G40
N1651 G1 X-43.122 Y-3.539 F820
N1652 G0 X-43.422 Y116.214
N1653 Z-48.831
N1654 G41 G1 X-62.898 Y131.92 F481.
N1655 G3 X-70.004 Y110.893 I21.829 J-19.092 F481.
N1656 G1 X-70. Y110.763 F820
N1657 Y0.0 F820
N1658 G3 X-61.509 Y-20.507 I29. J-.004 F820
N1659 G40
N1660 G1 X-43.122 Y-3.539 F820
N1661 G0 X-43.422 Y117.899
N1662 Z-49.828
N1663 G41 G1 X-62.899 Y133.604 F481.
N1664 G3 X-70.004 Y112.577 I21.829 J-19.091 F481.
N1665 G1 X-70. Y112.447 F820
N1666 Y0.0 F820
N1667 G3 X-61.509 Y-20.507 I29. J-.004 F820
N1668 G40
N1669 G1 X-43.122 Y-3.539 F820
N1670 G0 X-43.422 Y119.584
N1671 Z-50.824
N1672 G41 G1 X-62.899 Y135.289 F481.
N1673 G3 X-70.004 Y114.261 I21.83 J-19.09 F481.
N1674 G1 X-70. Y114.131 F820
N1675 Y0.0 F820
N1676 G3 X-61.509 Y-20.507 I29. J-.004 F820
N1677 G40
N1678 G1 X-43.122 Y-3.539 F820
N1679 G0 X-43.422 Y121.267
N1680 Z-51.821
N1681 G41 G1 X-62.9 Y136.971 F481.
N1682 G3 X-70.004 Y115.943 I21.831 J-19.09 F481.
N1683 G1 X-70. Y115.814 F820
N1684 Y0.0 F820
N1685 G3 X-61.509 Y-20.507 I29. J-.004 F820
N1686 G40
N1687 G1 X-43.122 Y-3.539 F820
N1688 G0 X-43.422 Y122.957
N1689 Z-52.817
N1690 G41 G1 X-62.901 Y138.66 F481.
N1691 G3 X-70.004 Y117.632 I21.832 J-19.088 F481.
N1692 G1 X-70. Y117.502 F820
N1693 Y0.0 F820
N1694 G3 X-61.509 Y-20.507 I29. J-.004 F820
N1695 G40
N1696 G1 X-43.122 Y-3.539 F820
N1697 G0 X-43.251 Y123.605
N1698 Z-53.814
N1699 G41 G1 X-62.176 Y139.971 F481.
N1700 G3 X-70.001 Y119.201 I21.159 J-19.831 F481.
N1701 G1 X-70. Y119.139 F820
N1702 Y0.0 F820
N1703 G3 X-61.509 Y-20.507 I29. J-.004 F820
N1704 G40
N1705 G1 X-43.122 Y-3.539 F820
N1706 G0 X-43.123 Y123.548
N1707 Z-54.81
N1708 G41 G1 X-61.516 Y140.51 F481.
N1709 G3 X-70. Y120. I20.516 J-20.496 F481.
N1710 G1 Y0.0 F820
N1711 G3 X-61.509 Y-20.507 I29. J-.004 F820
N1712 G40
N1713 G1 X-43.122 Y-3.539 F820
N1714 G0 X-43.123 Y123.548
N1715 Z-55.807
N1716 G41 G1 X-61.516 Y140.51 F481.
N1717 G3 X-70. Y120. I20.516 J-20.496 F481.
N1718 G1 Y0.0 F820
N1719 G3 X-61.509 Y-20.507 I29. J-.004 F820
N1720 G40
N1721 G1 X-43.122 Y-3.539 F820
N1722 G0 X-43.123 Y123.548
N1723 Z-56.803
N1724 G41 G1 X-61.516 Y140.51 F481.
N1725 G3 X-70. Y120. I20.516 J-20.496 F481.
N1726 G1 Y0.0 F820
N1727 G3 X-61.509 Y-20.507 I29. J-.004 F820
N1728 G40
N1729 G1 X-43.122 Y-3.539 F820
N1730 G0 X-43.123 Y123.548
N1731 Z-57.8
N1732 G41 G1 X-61.516 Y140.51 F481.
N1733 G3 X-70. Y120. I20.516 J-20.496 F481.
N1734 G1 Y0.0 F820
N1735 G3 X-61.509 Y-20.507 I29. J-.004 F820
N1736 G40
N1737 G1 X-43.122 Y-3.539 F820
N1738 G0 X-43.123 Y123.548
N1739 Z-58.797
N1740 G41 G1 X-61.516 Y140.51 F481.
N1741 G3 X-70. Y120. I20.516 J-20.496 F481.
N1742 G1 Y0.0 F820
N1743 G3 X-61.509 Y-20.507 I29. J-.004 F820
N1744 G40
N1745 G1 X-43.122 Y-3.539 F820
N1746 G0 X-43.123 Y123.548
N1747 Z-59.793
N1748 G41 G1 X-61.516 Y140.51 F481.
N1749 G3 X-70. Y120. I20.516 J-20.496 F481.
N1750 G1 Y0.0 F820
N1751 G3 X-61.509 Y-20.507 I29. J-.004 F820
N1752 G40
N1753 G1 X-43.122 Y-3.539 F820
N1754 G0 X-43.123 Y123.548
N1755 Z-60.79
N1756 G41 G1 X-61.516 Y140.51 F481.
N1757 G3 X-70. Y120. I20.516 J-20.496 F481.
N1758 G1 Y0.0 F820
N1759 G3 X-61.509 Y-20.507 I29. J-.004 F820
N1760 G40
N1761 G1 X-43.122 Y-3.539 F820
N1762 G0 X-43.123 Y123.548
N1763 Z-61.786
N1764 G41 G1 X-61.516 Y140.51 F481.
N1765 G3 X-70. Y120. I20.516 J-20.496 F481.
N1766 G1 Y0.0 F820
N1767 G3 X-61.509 Y-20.507 I29. J-.004 F820
N1768 G40
N1769 G1 X-43.122 Y-3.539 F820
N1770 G0 X-43.123 Y123.548
N1771 Z-62.783
N1772 G41 G1 X-61.516 Y140.51 F481.
N1773 G3 X-70. Y120. I20.516 J-20.496 F481.
N1774 G1 Y0.0 F820
N1775 G3 X-61.509 Y-20.507 I29. J-.004 F820
N1776 G40
N1777 G1 X-43.122 Y-3.539 F820
N1778 G0 X-43.123 Y123.548
N1779 Z-63.779
N1780 G41 G1 X-61.516 Y140.51 F481.
N1781 G3 X-70. Y120. I20.516 J-20.496 F481.
N1782 G1 Y0.0 F820
N1783 G3 X-61.509 Y-20.507 I29. J-.004 F820
N1784 G40
N1785 G1 X-43.122 Y-3.539 F820
N1786 G0 X-43.123 Y123.548
N1787 Z-64.776
N1788 G41 G1 X-61.516 Y140.51 F481.
N1789 G3 X-70. Y120. I20.516 J-20.496 F481.
N1790 G1 Y0.0 F820
N1791 G3 X-61.509 Y-20.507 I29. J-.004 F820
N1792 G40
N1793 G1 X-43.122 Y-3.539 F820
N1794 G0 X-43.123 Y123.548
N1795 Z-65.772
N1796 G41 G1 X-61.516 Y140.51 F481.
N1797 G3 X-70. Y120. I20.516 J-20.496 F481.
N1798 G1 Y0.0 F820
N1799 G3 X-61.509 Y-20.507 I29. J-.004 F820
N1800 G40
N1801 G1 X-43.122 Y-3.539 F820
N1802 G0 X-43.123 Y123.548
N1803 Z-66.769
N1804 G41 G1 X-61.516 Y140.51 F481.
N1805 G3 X-70. Y120. I20.516 J-20.496 F481.
N1806 G1 Y0.0 F820
N1807 G3 X-61.509 Y-20.507 I29. J-.004 F820
N1808 G40
N1809 G1 X-43.122 Y-3.539 F820
N1810 G0 X-43.123 Y123.548
N1811 Z-67.766
N1812 G41 G1 X-61.516 Y140.51 F481.
N1813 G3 X-70. Y120. I20.516 J-20.496 F481.
N1814 G1 Y0.0 F820
N1815 G3 X-61.509 Y-20.507 I29. J-.004 F820
N1816 G40
N1817 G1 X-43.122 Y-3.539 F820
N1818 G0 X-43.123 Y123.548
N1819 Z-68.762
N1820 G41 G1 X-61.516 Y140.51 F481.
N1821 G3 X-70. Y120. I20.516 J-20.496 F481.
N1822 G1 Y0.0 F820
N1823 G3 X-61.509 Y-20.507 I29. J-.004 F820
N1824 G40
N1825 G1 X-43.122 Y-3.539 F820
N1826 G0 X-43.123 Y123.548
N1827 Z-69.759
N1828 G41 G1 X-61.516 Y140.51 F481.
N1829 G3 X-70. Y120. I20.516 J-20.496 F481.
N1830 G1 Y0.0 F820
N1831 G3 X-61.509 Y-20.507 I29. J-.004 F820
N1832 G40
N1833 G1 X-43.122 Y-3.539 F820
N1834 G0 X-43.123 Y123.548
N1835 Z-70.755
N1836 G41 G1 X-61.516 Y140.51 F481.
N1837 G3 X-70. Y120. I20.516 J-20.496 F481.
N1838 G1 Y0.0 F820
N1839 G3 X-61.509 Y-20.507 I29. J-.004 F820
N1840 G40
N1841 G1 X-43.122 Y-3.539 F820
N1842 G0 X-43.123 Y123.548
N1843 Z-71.752
N1844 G41 G1 X-61.516 Y140.51 F481.
N1845 G3 X-70. Y120. I20.516 J-20.496 F481.
N1846 G1 Y0.0 F820
N1847 G3 X-61.509 Y-20.507 I29. J-.004 F820
N1848 G40
N1849 G1 X-43.122 Y-3.539 F820
N1850 G0 X-43.123 Y123.548
N1851 Z-72.748
N1852 G41 G1 X-61.516 Y140.51 F481.
N1853 G3 X-70. Y120. I20.516 J-20.496 F481.
N1854 G1 Y0.0 F820
N1855 G3 X-61.509 Y-20.507 I29. J-.004 F820
N1856 G40
N1857 G1 X-43.122 Y-3.539 F820
N1858 G0 X-43.123 Y123.548
N1859 Z-73.745
N1860 G41 G1 X-61.516 Y140.51 F481.
N1861 G3 X-70. Y120. I20.516 J-20.496 F481.
N1862 G1 Y0.0 F820
N1863 G3 X-61.509 Y-20.507 I29. J-.004 F820
N1864 G40
N1865 G1 X-43.122 Y-3.539 F820
N1866 G0 X-43.123 Y123.548
N1867 Z-74.741
N1868 G41 G1 X-61.516 Y140.51 F481.
N1869 G3 X-70. Y120. I20.516 J-20.496 F481.
N1870 G1 Y0.0 F820
N1871 G3 X-61.509 Y-20.507 I29. J-.004 F820
N1872 G40
N1873 G1 X-43.122 Y-3.539 F820
N1874 G0 X-43.123 Y123.548
N1875 Z-75.738
N1876 G41 G1 X-61.516 Y140.51 F481.
N1877 G3 X-70. Y120. I20.516 J-20.496 F481.
N1878 G1 Y0.0 F820
N1879 G3 X-61.509 Y-20.507 I29. J-.004 F820
N1880 G40
N1881 G1 X-43.122 Y-3.539 F820
N1882 G0 X-43.123 Y123.548
N1883 Z-76.734
N1884 G41 G1 X-61.516 Y140.51 F481.
N1885 G3 X-70. Y120. I20.516 J-20.496 F481.
N1886 G1 Y0.0 F820
N1887 G3 X-61.509 Y-20.507 I29. J-.004 F820
N1888 G40
N1889 G1 X-43.122 Y-3.539 F820
N1890 G0 X-43.123 Y123.548
N1891 Z-77.731
N1892 G41 G1 X-61.516 Y140.51 F481.
N1893 G3 X-70. Y120. I20.516 J-20.496 F481.
N1894 G1 Y0.0 F820
N1895 G3 X-61.509 Y-20.507 I29. J-.004 F820
N1896 G40
N1897 G1 X-43.122 Y-3.539 F820
N1898 G0 X-43.123 Y123.548
N1899 Z-78.728
N1900 G41 G1 X-61.516 Y140.51 F481.
N1901 G3 X-70. Y120. I20.516 J-20.496 F481.
N1902 G1 Y0.0 F820
N1903 G3 X-61.509 Y-20.507 I29. J-.004 F820
N1904 G40
N1905 G1 X-43.122 Y-3.539 F820
N1906 G0 X-43.123 Y123.548
N1907 Z-79.724
N1908 G41 G1 X-61.516 Y140.51 F481.
N1909 G3 X-70. Y120. I20.516 J-20.496 F481.
N1910 G1 Y0.0 F820
N1911 G3 X-61.509 Y-20.507 I29. J-.004 F820
N1912 G40
N1913 G1 X-43.122 Y-3.539 F820
N1914 G0 X-43.123 Y123.548
N1915 Z-80.721
N1916 G41 G1 X-61.516 Y140.51 F481.
N1917 G3 X-70. Y120. I20.516 J-20.496 F481.
N1918 G1 Y0.0 F820
N1919 G3 X-61.509 Y-20.507 I29. J-.004 F820
N1920 G40
N1921 G1 X-43.122 Y-3.539 F820
N1922 G0 X-43.123 Y123.548
N1923 Z-81.717
N1924 G41 G1 X-61.516 Y140.51 F481.
N1925 G3 X-70. Y120. I20.516 J-20.496 F481.
N1926 G1 Y0.0 F820
N1927 G3 X-61.509 Y-20.507 I29. J-.004 F820
N1928 G40
N1929 G1 X-43.122 Y-3.539 F820
N1930 G0 X-43.123 Y123.548
N1931 Z-82.714
N1932 G41 G1 X-61.516 Y140.51 F481.
N1933 G3 X-70. Y120. I20.516 J-20.496 F481.
N1934 G1 Y0.0 F820
N1935 G3 X-61.509 Y-20.507 I29. J-.004 F820
N1936 G40
N1937 G1 X-43.122 Y-3.539 F820
N1938 G0 X-43.123 Y123.548
N1939 Z-83.71
N1940 G41 G1 X-61.516 Y140.51 F481.
N1941 G3 X-70. Y120. I20.516 J-20.496 F481.
N1942 G1 Y0.0 F820
N1943 G3 X-61.509 Y-20.507 I29. J-.004 F820
N1944 G40
N1945 G1 X-43.122 Y-3.539 F820
N1946 G0 X-43.123 Y123.548
N1947 Z-84.707
N1948 G41 G1 X-61.516 Y140.51 F481.
N1949 G3 X-70. Y120. I20.516 J-20.496 F481.
N1950 G1 Y0.0 F820
N1951 G3 X-61.509 Y-20.507 I29. J-.004 F820
N1952 G40
N1953 G1 X-43.122 Y-3.539 F820
N1954 G0 X-43.123 Y123.548
N1955 Z-85.703
N1956 G41 G1 X-61.516 Y140.51 F481.
N1957 G3 X-70. Y120. I20.516 J-20.496 F481.
N1958 G1 Y0.0 F820
N1959 G3 X-61.509 Y-20.507 I29. J-.004 F820
N1960 G40
N1961 G1 X-43.122 Y-3.539 F820
N1962 G0 X-43.123 Y123.548
N1963 Z-86.7
N1964 G41 G1 X-61.516 Y140.51 F481.
N1965 G3 X-70. Y120. I20.516 J-20.496 F481.
N1966 G1 Y0.0 F820
N1967 G3 X-61.509 Y-20.507 I29. J-.004 F820
N1968 G40
N1969 G1 X-43.122 Y-3.539 F820
N1970 G0 X-43.123 Y123.548
N1971 Z-87.697
N1972 G41 G1 X-61.516 Y140.51 F481.
N1973 G3 X-70. Y120. I20.516 J-20.496 F481.
N1974 G1 Y0.0 F820
N1975 G3 X-61.509 Y-20.507 I29. J-.004 F820
N1976 G40
N1977 G1 X-43.122 Y-3.539 F820
N1978 G0 X-43.123 Y123.548
N1979 Z-88.693
N1980 G41 G1 X-61.516 Y140.51 F481.
N1981 G3 X-70. Y120. I20.516 J-20.496 F481.
N1982 G1 Y0.0 F820
N1983 G3 X-61.509 Y-20.507 I29. J-.004 F820
N1984 G40
N1985 G1 X-43.122 Y-3.539 F820
N1986 G0 X-43.123 Y123.548
N1987 Z-89.69
N1988 G41 G1 X-61.516 Y140.51 F481.
N1989 G3 X-70. Y120. I20.516 J-20.496 F481.
N1990 G1 Y0.0 F820
N1991 G3 X-61.509 Y-20.507 I29. J-.004 F820
N1992 G40
N1993 G1 X-43.122 Y-3.539 F820
N1994 G0 X-43.123 Y123.548
N1995 Z-90.686
N1996 G41 G1 X-61.516 Y140.51 F481.
N1997 G3 X-70. Y120. I20.516 J-20.496 F481.
N1998 G1 Y0.0 F820
N1999 G3 X-61.509 Y-20.507 I29. J-.004 F820
N2000 G40
N2001 G1 X-43.122 Y-3.539 F820
N2002 G0 X-43.123 Y123.548
N2003 Z-91.683
N2004 G41 G1 X-61.516 Y140.51 F481.
N2005 G3 X-70. Y120. I20.516 J-20.496 F481.
N2006 G1 Y0.0 F820
N2007 G3 X-61.509 Y-20.507 I29. J-.004 F820
N2008 G40
N2009 G1 X-43.122 Y-3.539 F820
N2010 G0 X-43.123 Y123.548
N2011 Z-92.679
N2012 G41 G1 X-61.516 Y140.51 F481.
N2013 G3 X-70. Y120. I20.516 J-20.496 F481.
N2014 G1 Y0.0 F820
N2015 G3 X-61.509 Y-20.507 I29. J-.004 F820
N2016 G40
N2017 G1 X-43.122 Y-3.539 F820
N2018 G0 X-43.123 Y123.548
N2019 Z-93.676
N2020 G41 G1 X-61.516 Y140.51 F481.
N2021 G3 X-70. Y120. I20.516 J-20.496 F481.
N2022 G1 Y0.0 F820
N2023 G3 X-61.509 Y-20.507 I29. J-.004 F820
N2024 G40
N2025 G1 X-43.122 Y-3.539 F820
N2026 G0 X-43.123 Y123.548
N2027 Z-94.672
N2028 G41 G1 X-61.516 Y140.51 F481.
N2029 G3 X-70. Y120. I20.516 J-20.496 F481.
N2030 G1 Y0.0 F820
N2031 G3 X-61.509 Y-20.507 I29. J-.004 F820
N2032 G40
N2033 G1 X-43.122 Y-3.539 F820
N2034 G0 X-43.123 Y123.548
N2035 Z-95.669
N2036 G41 G1 X-61.516 Y140.51 F481.
N2037 G3 X-70. Y120. I20.516 J-20.496 F481.
N2038 G1 Y0.0 F820
N2039 G3 X-61.509 Y-20.507 I29. J-.004 F820
N2040 G40
N2041 G1 X-43.122 Y-3.539 F820
N2042 G0 X-43.123 Y123.548
N2043 Z-96.666
N2044 G41 G1 X-61.516 Y140.51 F481.
N2045 G3 X-70. Y120. I20.516 J-20.496 F481.
N2046 G1 Y0.0 F820
N2047 G3 X-61.509 Y-20.507 I29. J-.004 F820
N2048 G40
N2049 G1 X-43.122 Y-3.539 F820
N2050 G0 X-43.123 Y123.548
N2051 Z-97.662
N2052 G41 G1 X-61.516 Y140.51 F481.
N2053 G3 X-70. Y120. I20.516 J-20.496 F481.
N2054 G1 Y0.0 F820
N2055 G3 X-61.509 Y-20.507 I29. J-.004 F820
N2056 G40
N2057 G1 X-43.122 Y-3.539 F820
N2058 G0 X-43.123 Y123.548
N2059 Z-98.659
N2060 G41 G1 X-61.516 Y140.51 F481.
N2061 G3 X-70. Y120. I20.516 J-20.496 F481.
N2062 G1 Y0.0 F820
N2063 G3 X-61.509 Y-20.507 I29. J-.004 F820
N2064 G40
N2065 G1 X-43.122 Y-3.539 F820
N2066 G0 X-43.123 Y123.548
N2067 Z-99.655
N2068 G41 G1 X-61.516 Y140.51 F481.
N2069 G3 X-70. Y120. I20.516 J-20.496 F481.
N2070 G1 Y0.0 F820
N2071 G3 X-61.509 Y-20.507 I29. J-.004 F820
N2072 G40
N2073 G1 X-43.122 Y-3.539 F820
N2074 G0 X-43.123 Y123.548
N2075 Z-100.652
N2076 G41 G1 X-61.516 Y140.51 F481.
N2077 G3 X-70. Y120. I20.516 J-20.496 F481.
N2078 G1 Y0.0 F820
N2079 G3 X-61.509 Y-20.507 I29. J-.004 F820
N2080 G40
N2081 G1 X-43.122 Y-3.539 F820
N2082 G0 X-43.123 Y123.548
N2083 Z-101.648
N2084 G41 G1 X-61.516 Y140.51 F481.
N2085 G3 X-70. Y120. I20.516 J-20.496 F481.
N2086 G1 Y0.0 F820
N2087 G3 X-61.509 Y-20.507 I29. J-.004 F820
N2088 G40
N2089 G1 X-43.122 Y-3.539 F820
N2090 G0 X-43.123 Y123.548
N2091 Z-102.645
N2092 G41 G1 X-61.516 Y140.51 F481.
N2093 G3 X-70. Y120. I20.516 J-20.496 F481.
N2094 G1 Y0.0 F820
N2095 G3 X-61.509 Y-20.507 I29. J-.004 F820
N2096 G40
N2097 G1 X-43.122 Y-3.539 F820
N2098 G0 X-43.123 Y123.548
N2099 Z-103.641
N2100 G41 G1 X-61.516 Y140.51 F481.
N2101 G3 X-70. Y120. I20.516 J-20.496 F481.
N2102 G1 Y0.0 F820
N2103 G3 X-61.509 Y-20.507 I29. J-.004 F820
N2104 G40
N2105 G1 X-43.122 Y-3.539 F820
N2106 G0 X-43.123 Y123.548
N2107 Z-104.638
N2108 G41 G1 X-61.516 Y140.51 F481.
N2109 G3 X-70. Y120. I20.516 J-20.496 F481.
N2110 G1 Y0.0 F820
N2111 G3 X-61.509 Y-20.507 I29. J-.004 F820
N2112 G40
N2113 G1 X-43.122 Y-3.539 F820
N2114 G0 X-43.123 Y123.548
N2115 Z-105.634
N2116 G41 G1 X-61.516 Y140.51 F481.
N2117 G3 X-70. Y120. I20.516 J-20.496 F481.
N2118 G1 Y0.0 F820
N2119 G3 X-61.509 Y-20.507 I29. J-.004 F820
N2120 G40
N2121 G1 X-43.122 Y-3.539 F820
N2122 G0 X-43.123 Y123.548
N2123 Z-106.631
N2124 G41 G1 X-61.516 Y140.51 F481.
N2125 G3 X-70. Y120. I20.516 J-20.496 F481.
N2126 G1 Y0.0 F820
N2127 G3 X-61.509 Y-20.507 I29. J-.004 F820
N2128 G40
N2129 G1 X-43.122 Y-3.539 F820
N2130 G0 X-43.123 Y123.548
N2131 Z-107.628
N2132 G41 G1 X-61.516 Y140.51 F481.
N2133 G3 X-70. Y120. I20.516 J-20.496 F481.
N2134 G1 Y0.0 F820
N2135 G3 X-61.509 Y-20.507 I29. J-.004 F820
N2136 G40
N2137 G1 X-43.122 Y-3.539 F820
N2138 G0 X-43.123 Y123.548
N2139 Z-108.624
N2140 G41 G1 X-61.516 Y140.51 F481.
N2141 G3 X-70. Y120. I20.516 J-20.496 F481.
N2142 G1 Y0.0 F820
N2143 G3 X-61.509 Y-20.507 I29. J-.004 F820
N2144 G40
N2145 G1 X-43.122 Y-3.539 F820
N2146 G0 X-43.123 Y123.548
N2147 Z-109.621
N2148 G41 G1 X-61.516 Y140.51 F481.
N2149 G3 X-70. Y120. I20.516 J-20.496 F481.
N2150 G1 Y0.0 F820
N2151 G3 X-61.509 Y-20.507 I29. J-.004 F820
N2152 G40
N2153 G1 X-43.122 Y-3.539 F820
N2154 G0 X-43.123 Y123.548
N2155 Z-110.617
N2156 G41 G1 X-61.516 Y140.51 F481.
N2157 G3 X-70. Y120. I20.516 J-20.496 F481.
N2158 G1 Y0.0 F820
N2159 G3 X-61.509 Y-20.507 I29. J-.004 F820
N2160 G40
N2161 G1 X-43.122 Y-3.539 F820
N2162 G0 X-43.123 Y123.548
N2163 Z-111.614
N2164 G41 G1 X-61.516 Y140.51 F481.
N2165 G3 X-70. Y120. I20.516 J-20.496 F481.
N2166 G1 Y0.0 F820
N2167 G3 X-61.509 Y-20.507 I29. J-.004 F820
N2168 G40
N2169 G1 X-43.122 Y-3.539 F820
N2170 G0 X-43.123 Y123.548
N2171 Z-112.61
N2172 G41 G1 X-61.516 Y140.51 F481.
N2173 G3 X-70. Y120. I20.516 J-20.496 F481.
N2174 G1 Y0.0 F820
N2175 G3 X-61.509 Y-20.507 I29. J-.004 F820
N2176 G40
N2177 G1 X-43.122 Y-3.539 F820
N2178 G0 X-43.123 Y123.548
N2179 Z-113.607
N2180 G41 G1 X-61.516 Y140.51 F481.
N2181 G3 X-70. Y120. I20.516 J-20.496 F481.
N2182 G1 Y0.0 F820
N2183 G3 X-61.509 Y-20.507 I29. J-.004 F820
N2184 G40
N2185 G1 X-43.122 Y-3.539 F820
N2186 G0 X-43.123 Y123.548
N2187 Z-114.603
N2188 G41 G1 X-61.516 Y140.51 F481.
N2189 G3 X-70. Y120. I20.516 J-20.496 F481.
N2190 G1 Y0.0 F820
N2191 G3 X-61.509 Y-20.507 I29. J-.004 F820
N2192 G40
N2193 G1 X-43.122 Y-3.539 F820
N2194 G0 X-43.123 Y123.548
N2195 Z-115.6
N2196 G41 G1 X-61.516 Y140.51 F481.
N2197 G3 X-70. Y120. I20.516 J-20.496 F481.
N2198 G1 Y0.0 F820
N2199 G3 X-61.509 Y-20.507 I29. J-.004 F820
N2200 G40
N2201 G1 X-43.122 Y-3.539 F820
N2202 G0 X-43.123 Y123.548
N2203 Z-116.597
N2204 G41 G1 X-61.516 Y140.51 F481.
N2205 G3 X-70. Y120. I20.516 J-20.496 F481.
N2206 G1 Y0.0 F820
N2207 G3 X-61.509 Y-20.507 I29. J-.004 F820
N2208 G40
N2209 G1 X-43.122 Y-3.539 F820
N2210 G0 X-43.123 Y123.548
N2211 Z-117.593
N2212 G41 G1 X-61.516 Y140.51 F481.
N2213 G3 X-70. Y120. I20.516 J-20.496 F481.
N2214 G1 Y0.0 F820
N2215 G3 X-61.509 Y-20.507 I29. J-.004 F820
N2216 G40
N2217 G1 X-43.122 Y-3.539 F820
N2218 G0 X-43.123 Y123.548
N2219 Z-118.59
N2220 G41 G1 X-61.516 Y140.51 F481.
N2221 G3 X-70. Y120. I20.516 J-20.496 F481.
N2222 G1 Y0.0 F820
N2223 G3 X-61.509 Y-20.507 I29. J-.004 F820
N2224 G40
N2225 G1 X-43.122 Y-3.539 F820
N2226 G0 X-43.123 Y123.548
N2227 Z-119.586
N2228 G41 G1 X-61.516 Y140.51 F481.
N2229 G3 X-70. Y120. I20.516 J-20.496 F481.
N2230 G1 Y0.0 F820
N2231 G3 X-61.509 Y-20.507 I29. J-.004 F820
N2232 G40
N2233 G1 X-43.122 Y-3.539 F820
N2234 G0 X-43.123 Y123.548
N2235 Z-120.583
N2236 G41 G1 X-61.516 Y140.51 F481.
N2237 G3 X-70. Y120. I20.516 J-20.496 F481.
N2238 G1 Y0.0 F820
N2239 G3 X-61.509 Y-20.507 I29. J-.004 F820
N2240 G40
N2241 G1 X-43.122 Y-3.539 F820
N2242 G0 X-43.123 Y123.548
N2243 Z-121.579
N2244 G41 G1 X-61.516 Y140.51 F481.
N2245 G3 X-70. Y120. I20.516 J-20.496 F481.
N2246 G1 Y0.0 F820
N2247 G3 X-61.509 Y-20.507 I29. J-.004 F820
N2248 G40
N2249 G1 X-43.122 Y-3.539 F820
N2250 G0 X-43.123 Y123.548
N2251 Z-122.576
N2252 G41 G1 X-61.516 Y140.51 F481.
N2253 G3 X-70. Y120. I20.516 J-20.496 F481.
N2254 G1 Y0.0 F820
N2255 G3 X-61.509 Y-20.507 I29. J-.004 F820
N2256 G40
N2257 G1 X-43.122 Y-3.539 F820
N2258 G0 X-43.123 Y123.548
N2259 Z-123.572
N2260 G41 G1 X-61.516 Y140.51 F481.
N2261 G3 X-70. Y120. I20.516 J-20.496 F481.
N2262 G1 Y0.0 F820
N2263 G3 X-61.509 Y-20.507 I29. J-.004 F820
N2264 G40
N2265 G1 X-43.122 Y-3.539 F820
N2266 G0 X-43.123 Y123.548
N2267 Z-124.569
N2268 G41 G1 X-61.516 Y140.51 F481.
N2269 G3 X-70. Y120. I20.516 J-20.496 F481.
N2270 G1 Y0.0 F820
N2271 G3 X-61.509 Y-20.507 I29. J-.004 F820
N2272 G40
N2273 G1 X-43.122 Y-3.539 F820
N2274 G0 X-43.123 Y123.548
N2275 Z-125.566
N2276 G41 G1 X-61.516 Y140.51 F481.
N2277 G3 X-70. Y120. I20.516 J-20.496 F481.
N2278 G1 Y0.0 F820
N2279 G3 X-61.509 Y-20.507 I29. J-.004 F820
N2280 G40
N2281 G1 X-43.122 Y-3.539 F820
N2282 G0 X-43.123 Y123.548
N2283 Z-126.562
N2284 G41 G1 X-61.516 Y140.51 F481.
N2285 G3 X-70. Y120. I20.516 J-20.496 F481.
N2286 G1 Y0.0 F820
N2287 G3 X-61.509 Y-20.507 I29. J-.004 F820
N2288 G40
N2289 G1 X-43.122 Y-3.539 F820
N2290 G0 X-43.123 Y123.548
N2291 Z-127.559
N2292 G41 G1 X-61.516 Y140.51 F481.
N2293 G3 X-70. Y120. I20.516 J-20.496 F481.
N2294 G1 Y0.0 F820
N2295 G3 X-61.509 Y-20.507 I29. J-.004 F820
N2296 G40
N2297 G1 X-43.122 Y-3.539 F820
N2298 G0 X-43.123 Y123.548
N2299 Z-128.555
N2300 G41 G1 X-61.516 Y140.51 F481.
N2301 G3 X-70. Y120. I20.516 J-20.496 F481.
N2302 G1 Y0.0 F820
N2303 G3 X-61.509 Y-20.507 I29. J-.004 F820
N2304 G40
N2305 G1 X-43.122 Y-3.539 F820
N2306 G0 X-43.123 Y123.548
N2307 Z-129.552
N2308 G41 G1 X-61.516 Y140.51 F481.
N2309 G3 X-70. Y120. I20.516 J-20.496 F481.
N2310 G1 Y0.0 F820
N2311 G3 X-61.509 Y-20.507 I29. J-.004 F820
N2312 G40
N2313 G1 X-43.122 Y-3.539 F820
N2314 G0 X-43.123 Y123.548
N2315 Z-130.548
N2316 G41 G1 X-61.516 Y140.51 F481.
N2317 G3 X-70. Y120. I20.516 J-20.496 F481.
N2318 G1 Y0.0 F820
N2319 G3 X-61.509 Y-20.507 I29. J-.004 F820
N2320 G40
N2321 G1 X-43.122 Y-3.539 F820
N2322 G0 X-43.123 Y123.548
N2323 Z-131.545
N2324 G41 G1 X-61.516 Y140.51 F481.
N2325 G3 X-70. Y120. I20.516 J-20.496 F481.
N2326 G1 Y0.0 F820
N2327 G3 X-61.509 Y-20.507 I29. J-.004 F820
N2328 G40
N2329 G1 X-43.122 Y-3.539 F820
N2330 G0 X-43.123 Y123.548
N2331 Z-132.541
N2332 G41 G1 X-61.516 Y140.51 F481.
N2333 G3 X-70. Y120. I20.516 J-20.496 F481.
N2334 G1 Y0.0 F820
N2335 G3 X-61.509 Y-20.507 I29. J-.004 F820
N2336 G40
N2337 G1 X-43.122 Y-3.539 F820
N2338 G0 X-43.123 Y123.548
N2339 Z-133.538
N2340 G41 G1 X-61.516 Y140.51 F481.
N2341 G3 X-70. Y120. I20.516 J-20.496 F481.
N2342 G1 Y0.0 F820
N2343 G3 X-61.509 Y-20.507 I29. J-.004 F820
N2344 G40
N2345 G1 X-43.122 Y-3.539 F820
N2346 G0 X-43.123 Y123.548
N2347 Z-134.534
N2348 G41 G1 X-61.516 Y140.51 F481.
N2349 G3 X-70. Y120. I20.516 J-20.496 F481.
N2350 G1 Y0.0 F820
N2351 G3 X-61.509 Y-20.507 I29. J-.004 F820
N2352 G40
N2353 G1 X-43.122 Y-3.539 F820
N2354 G0 X-43.123 Y123.548
N2355 Z-135.531
N2356 G41 G1 X-61.516 Y140.51 F481.
N2357 G3 X-70. Y120. I20.516 J-20.496 F481.
N2358 G1 Y0.0 F820
N2359 G3 X-61.509 Y-20.507 I29. J-.004 F820
N2360 G40
N2361 G1 X-43.122 Y-3.539 F820
N2362 G0 X-43.123 Y123.548
N2363 Z-136.528
N2364 G41 G1 X-61.516 Y140.51 F481.
N2365 G3 X-70. Y120. I20.516 J-20.496 F481.
N2366 G1 Y0.0 F820
N2367 G3 X-61.509 Y-20.507 I29. J-.004 F820
N2368 G40
N2369 G1 X-43.122 Y-3.539 F820
N2370 G0 X-43.123 Y123.548
N2371 Z-137.524
N2372 G41 G1 X-61.516 Y140.51 F481.
N2373 G3 X-70. Y120. I20.516 J-20.496 F481.
N2374 G1 Y0.0 F820
N2375 G3 X-61.509 Y-20.507 I29. J-.004 F820
N2376 G40
N2377 G1 X-43.122 Y-3.539 F820
N2378 G0 X-43.123 Y123.548
N2379 Z-138.521
N2380 G41 G1 X-61.516 Y140.51 F481.
N2381 G3 X-70. Y120. I20.516 J-20.496 F481.
N2382 G1 Y0.0 F820
N2383 G3 X-61.509 Y-20.507 I29. J-.004 F820
N2384 G40
N2385 G1 X-43.122 Y-3.539 F820
N2386 G0 X-43.123 Y123.548
N2387 Z-139.517
N2388 G41 G1 X-61.516 Y140.51 F481.
N2389 G3 X-70. Y120. I20.516 J-20.496 F481.
N2390 G1 Y0.0 F820
N2391 G3 X-61.509 Y-20.507 I29. J-.004 F820
N2392 G40
N2393 G1 X-43.122 Y-3.539 F820
N2394 G0 X-43.123 Y123.548
N2395 Z-140.514
N2396 G41 G1 X-61.516 Y140.51 F481.
N2397 G3 X-70. Y120. I20.516 J-20.496 F481.
N2398 G1 Y0.0 F820
N2399 G3 X-61.509 Y-20.507 I29. J-.004 F820
N2400 G40
N2401 G1 X-43.122 Y-3.539 F820
N2402 G0 X-43.123 Y123.548
N2403 Z-141.51
N2404 G41 G1 X-61.516 Y140.51 F481.
N2405 G3 X-70. Y120. I20.516 J-20.496 F481.
N2406 G1 Y0.0 F820
N2407 G3 X-61.509 Y-20.507 I29. J-.004 F820
N2408 G40
N2409 G1 X-43.122 Y-3.539 F820
N2410 G0 X-43.123 Y123.548
N2411 Z-142.507
N2412 G41 G1 X-61.516 Y140.51 F481.
N2413 G3 X-70. Y120. I20.516 J-20.496 F481.
N2414 G1 Y0.0 F820
N2415 G3 X-61.509 Y-20.507 I29. J-.004 F820
N2416 G40
N2417 G1 X-43.122 Y-3.539 F820
N2418 G0 X-43.123 Y123.548
N2419 Z-143.503
N2420 G41 G1 X-61.516 Y140.51 F481.
N2421 G3 X-70. Y120. I20.516 J-20.496 F481.
N2422 G1 Y0.0 F820
N2423 G3 X-61.509 Y-20.507 I29. J-.004 F820
N2424 G40
N2425 G1 X-43.122 Y-3.539 F820
N2426 G0 X-43.123 Y123.548
N2427 Z-144.5
N2428 G41 G1 X-61.516 Y140.51 F481.
N2429 G3 X-70. Y120. I20.516 J-20.496 F481.
N2430 G1 Y0.0 F820
N2431 G3 X-61.509 Y-20.507 I29. J-.004 F820
N2432 G40
N2433 G1 X-43.122 Y-3.539 F820
N2434 G0 Z300 M5 M9
SUPA Y0
N2435 M1
;(****************************************************************)
;      END OPERATION: CAVITY_MILL
;(****************************************************************)

T="3D TESTER"
M6
D1
G0 X0 Y10
G0 Z-20
CYCLE150(11,10001,"//NC:/MPF.DIR/MEAS_PROTOCOL_END.TXT")
CYCLE977(20003,,,1,140,,,3,1,0,1,1,,1,1,"",,0,1.01,1.01,-1.01,,,,,1,1)
MSG(<<_OVR[4])
M0
G0 Z300
SUPA Y0
N2437 T0 M6
N2438 M30
(================================================================)
(TOTAL MACHINE TIME: 86.16 MIN)
(================================================================)
(END PROGRAMM TK941F3.6 3600.100.01 MM)
