;POSTAVIT' VERTIKAL'NO. X=40,Y=31.
;PLITKA(30) NA 10 SNIZU PO Z, PLITKA NA 50 X SLEVA
N1 ; DATE : 24 .5 .20019 TIME - 10 :11 :51
N10 G54 ;nol na dne tiskov
STOPRE
R1=$P_UIFR[1,X,TR]+$P_UIFR[1,X,FI]
R2=$P_UIFR[1,Y,TR]+$P_UIFR[1,Y,FI]
R3=$P_UIFR[1,Z,TR]+$P_UIFR[1,Z,FI]
STOPRE
$P_UIFR[2]=CTRANS(X,R1-150+50,Y,R2+0.075, Z,R3+10+90)
G55
STOPRE
WORKPIECE(,"",,"BOX",0,0,-90,-80,0,0,40,-31)
T="FR12L56"
N1175 M6
N1176 D1
N1177 S3850 M3 F500
N1178 G64 SOFT COMPON
G0 X-8 Y-15.5 G90
M8
;cyctre (real rtp, real Zwork, real sdis, real trstep,real with, string[80] traect)
CYCTRE(100,-18,20,0.25,15.2,"G1 X42")
G0 X-8 Y-15.5 F500
CYCTRE(100,-37.1,38,0.25,15.1,"G1 X42")
M1
G0 Y-23 X-2 G41 OFFN=-.1
Z10
G1 Z-20 F500
X42
Y-15.5 G40
Y-8 G41
X-2
Y-15.5 G40

Y-23 X-2 G41
Z-37
X42
Y-15.5 G40
Y-8 G41
X-2
Y-15.5 G40
G0 SUPA Z-20
SUPA Y0 M9
M30
