;         PROGRAMM: UST_3
;(****************************************************************)
;        PART NAME: D:\!Work\Models\MY\hren'_dlya_stula\hren'_dlya_stula_v0.2.prt
;    Creation Date: Wed Jul  8 14:46:30 2020
;(****************************************************************)
;    POSTPROCESSOR: TMT Sinumerik 828D 3-x axes (version 1.01_07.07.2020)
;(****************************************************************)
N1 G40 G17 G90
N2 G55
;(****************************************************************)
;    START OPERATION: CORNER_ROUGH
;     TYPE OPERATION: Cavity Milling
;(****************************************************************)
N3 T="FR 5" M6
N4 D1
;(****************************************************************)
; TOOL PARAMETRS: NAME: FR_5 D = 5.00 mm  L = 58.00 mm R = 0.0 mm
;(****************************************************************)
N5 S4000 M3
N6 G94
N7 G0 X49.106 Y53.619
N8 Z10.2 ;M8
N9 Z-1.
N10 G3 Y51.498 I1.061 J-1.061 F1600.
N11 G1 X51.498 Y49.106 F1600.
N12 G3 X53.619 I1.061 J1.061 F1600.
N13 G1 X46.982 Y53.621 F1600.
N14 G3 Y51.5 I1.061 J-1.061 F1600.
N15 G1 X51.5 Y46.982 F1600.
N16 G3 X53.621 I1.061 J1.061 F1600.
N17 G1 X44.861 Y53.621 F1600.
N18 G3 Y51.5 I1.061 J-1.061 F1600.
N19 G1 X51.5 Y44.861 F1600.
N20 G3 X53.621 I1.061 J1.061 F1600.
N21 G1 X42.74 Y53.621 F1600.
N22 G3 Y51.5 I1.061 J-1.061 F1600.
N23 G1 X51.5 Y42.74 F1600.
N24 G3 X53.621 I1.061 J1.061 F1600.
N25 G1 X40.576 Y53.621 F1600.
N26 G3 Y51.5 I1.061 J-1.061 F1600.
N27 G1 X41.148 Y50.928 F1600.
N28 G2 X41.502 Y50.616 I-2.263 J-2.928 F1600.
N29 G1 X50.616 Y41.502 F1600.
N30 G2 X50.928 Y41.148 I-2.616 J-2.616 F1600.
N31 G1 X51.5 Y40.576 F1600.
N32 G3 X53.621 I1.061 J1.061 F1600.
N33 G0 Z0.0
N34 X49.106 Y53.619
N35 Z-2.
N36 G3 Y51.498 I1.061 J-1.061 F1600.
N37 G1 X51.498 Y49.106 F1600.
N38 G3 X53.619 I1.061 J1.061 F1600.
N39 G1 X46.982 Y53.621 F1600.
N40 G3 Y51.5 I1.061 J-1.061 F1600.
N41 G1 X51.5 Y46.982 F1600.
N42 G3 X53.621 I1.061 J1.061 F1600.
N43 G1 X44.861 Y53.621 F1600.
N44 G3 Y51.5 I1.061 J-1.061 F1600.
N45 G1 X51.5 Y44.861 F1600.
N46 G3 X53.621 I1.061 J1.061 F1600.
N47 G1 X42.74 Y53.621 F1600.
N48 G3 Y51.5 I1.061 J-1.061 F1600.
N49 G1 X51.5 Y42.74 F1600.
N50 G3 X53.621 I1.061 J1.061 F1600.
N51 G1 X40.576 Y53.621 F1600.
N52 G3 Y51.5 I1.061 J-1.061 F1600.
N53 G1 X41.148 Y50.928 F1600.
N54 G2 X41.502 Y50.616 I-2.263 J-2.928 F1600.
N55 G1 X50.616 Y41.502 F1600.
N56 G2 X50.928 Y41.148 I-2.616 J-2.616 F1600.
N57 G1 X51.5 Y40.576 F1600.
N58 G3 X53.621 I1.061 J1.061 F1600.
N59 G0 Z-1.
N60 X49.106 Y53.619
N61 Z-3.
N62 G3 Y51.498 I1.061 J-1.061 F1600.
N63 G1 X51.498 Y49.106 F1600.
N64 G3 X53.619 I1.061 J1.061 F1600.
N65 G1 X46.982 Y53.621 F1600.
N66 G3 Y51.5 I1.061 J-1.061 F1600.
N67 G1 X51.5 Y46.982 F1600.
N68 G3 X53.621 I1.061 J1.061 F1600.
N69 G1 X44.861 Y53.621 F1600.
N70 G3 Y51.5 I1.061 J-1.061 F1600.
N71 G1 X51.5 Y44.861 F1600.
N72 G3 X53.621 I1.061 J1.061 F1600.
N73 G1 X42.74 Y53.621 F1600.
N74 G3 Y51.5 I1.061 J-1.061 F1600.
N75 G1 X51.5 Y42.74 F1600.
N76 G3 X53.621 I1.061 J1.061 F1600.
N77 G1 X40.576 Y53.621 F1600.
N78 G3 Y51.5 I1.061 J-1.061 F1600.
N79 G1 X41.148 Y50.928 F1600.
N80 G2 X41.502 Y50.616 I-2.263 J-2.928 F1600.
N81 G1 X50.616 Y41.502 F1600.
N82 G2 X50.928 Y41.148 I-2.616 J-2.616 F1600.
N83 G1 X51.5 Y40.576 F1600.
N84 G3 X53.621 I1.061 J1.061 F1600.
N85 G0 Z-2.
N86 X49.106 Y53.619
N87 Z-4.
N88 G3 Y51.498 I1.061 J-1.061 F1600.
N89 G1 X51.498 Y49.106 F1600.
N90 G3 X53.619 I1.061 J1.061 F1600.
N91 G1 X46.982 Y53.621 F1600.
N92 G3 Y51.5 I1.061 J-1.061 F1600.
N93 G1 X51.5 Y46.982 F1600.
N94 G3 X53.621 I1.061 J1.061 F1600.
N95 G1 X44.861 Y53.621 F1600.
N96 G3 Y51.5 I1.061 J-1.061 F1600.
N97 G1 X51.5 Y44.861 F1600.
N98 G3 X53.621 I1.061 J1.061 F1600.
N99 G1 X42.74 Y53.621 F1600.
N100 G3 Y51.5 I1.061 J-1.061 F1600.
N101 G1 X51.5 Y42.74 F1600.
N102 G3 X53.621 I1.061 J1.061 F1600.
N103 G1 X40.576 Y53.621 F1600.
N104 G3 Y51.5 I1.061 J-1.061 F1600.
N105 G1 X41.148 Y50.928 F1600.
N106 G2 X41.502 Y50.616 I-2.263 J-2.928 F1600.
N107 G1 X50.616 Y41.502 F1600.
N108 G2 X50.928 Y41.148 I-2.616 J-2.616 F1600.
N109 G1 X51.5 Y40.576 F1600.
N110 G3 X53.621 I1.061 J1.061 F1600.
N111 G0 Z-3.
N112 X49.106 Y53.619
N113 Z-5.
N114 G3 Y51.498 I1.061 J-1.061 F1600.
N115 G1 X51.498 Y49.106 F1600.
N116 G3 X53.619 I1.061 J1.061 F1600.
N117 G1 X46.982 Y53.621 F1600.
N118 G3 Y51.5 I1.061 J-1.061 F1600.
N119 G1 X51.5 Y46.982 F1600.
N120 G3 X53.621 I1.061 J1.061 F1600.
N121 G1 X44.861 Y53.621 F1600.
N122 G3 Y51.5 I1.061 J-1.061 F1600.
N123 G1 X51.5 Y44.861 F1600.
N124 G3 X53.621 I1.061 J1.061 F1600.
N125 G1 X42.74 Y53.621 F1600.
N126 G3 Y51.5 I1.061 J-1.061 F1600.
N127 G1 X51.5 Y42.74 F1600.
N128 G3 X53.621 I1.061 J1.061 F1600.
N129 G1 X40.576 Y53.621 F1600.
N130 G3 Y51.5 I1.061 J-1.061 F1600.
N131 G1 X41.148 Y50.928 F1600.
N132 G2 X41.502 Y50.616 I-2.263 J-2.928 F1600.
N133 G1 X50.616 Y41.502 F1600.
N134 G2 X50.928 Y41.148 I-2.616 J-2.616 F1600.
N135 G1 X51.5 Y40.576 F1600.
N136 G3 X53.621 I1.061 J1.061 F1600.
N137 G0 Z-1.
N138 X53.619 Y-.106
N139 G3 X51.498 I-1.061 J-1.061 F1600.
N140 G1 X49.106 Y-2.498 F1600.
N141 G3 Y-4.619 I1.061 J-1.061 F1600.
N142 G1 X53.621 Y2.018 F1600.
N143 G3 X51.5 I-1.061 J-1.061 F1600.
N144 G1 X46.982 Y-2.5 F1600.
N145 G3 Y-4.621 I1.061 J-1.061 F1600.
N146 G1 X53.621 Y4.139 F1600.
N147 G3 X51.5 I-1.061 J-1.061 F1600.
N148 G1 X44.861 Y-2.5 F1600.
N149 G3 Y-4.621 I1.061 J-1.061 F1600.
N150 G1 X53.621 Y6.26 F1600.
N151 G3 X51.5 I-1.061 J-1.061 F1600.
N152 G1 X42.74 Y-2.5 F1600.
N153 G3 Y-4.621 I1.061 J-1.061 F1600.
N154 G1 X53.621 Y8.424 F1600.
N155 G3 X51.5 I-1.061 J-1.061 F1600.
N156 G1 X50.928 Y7.852 F1600.
N157 G2 X50.616 Y7.498 I-2.928 J2.263 F1600.
N158 G1 X41.502 Y-1.616 F1600.
N159 G2 X41.148 Y-1.928 I-2.616 J2.616 F1600.
N160 G1 X40.576 Y-2.5 F1600.
N161 G3 Y-4.621 I1.061 J-1.061 F1600.
N162 G0 Z0.0
N163 X53.619 Y-.106
N164 Z-2.
N165 G3 X51.498 I-1.061 J-1.061 F1600.
N166 G1 X49.106 Y-2.498 F1600.
N167 G3 Y-4.619 I1.061 J-1.061 F1600.
N168 G1 X53.621 Y2.018 F1600.
N169 G3 X51.5 I-1.061 J-1.061 F1600.
N170 G1 X46.982 Y-2.5 F1600.
N171 G3 Y-4.621 I1.061 J-1.061 F1600.
N172 G1 X53.621 Y4.139 F1600.
N173 G3 X51.5 I-1.061 J-1.061 F1600.
N174 G1 X44.861 Y-2.5 F1600.
N175 G3 Y-4.621 I1.061 J-1.061 F1600.
N176 G1 X53.621 Y6.26 F1600.
N177 G3 X51.5 I-1.061 J-1.061 F1600.
N178 G1 X42.74 Y-2.5 F1600.
N179 G3 Y-4.621 I1.061 J-1.061 F1600.
N180 G1 X53.621 Y8.424 F1600.
N181 G3 X51.5 I-1.061 J-1.061 F1600.
N182 G1 X50.928 Y7.852 F1600.
N183 G2 X50.616 Y7.498 I-2.928 J2.263 F1600.
N184 G1 X41.502 Y-1.616 F1600.
N185 G2 X41.148 Y-1.928 I-2.616 J2.616 F1600.
N186 G1 X40.576 Y-2.5 F1600.
N187 G3 Y-4.621 I1.061 J-1.061 F1600.
N188 G0 Z-1.
N189 X53.619 Y-.106
N190 Z-3.
N191 G3 X51.498 I-1.061 J-1.061 F1600.
N192 G1 X49.106 Y-2.498 F1600.
N193 G3 Y-4.619 I1.061 J-1.061 F1600.
N194 G1 X53.621 Y2.018 F1600.
N195 G3 X51.5 I-1.061 J-1.061 F1600.
N196 G1 X46.982 Y-2.5 F1600.
N197 G3 Y-4.621 I1.061 J-1.061 F1600.
N198 G1 X53.621 Y4.139 F1600.
N199 G3 X51.5 I-1.061 J-1.061 F1600.
N200 G1 X44.861 Y-2.5 F1600.
N201 G3 Y-4.621 I1.061 J-1.061 F1600.
N202 G1 X53.621 Y6.26 F1600.
N203 G3 X51.5 I-1.061 J-1.061 F1600.
N204 G1 X42.74 Y-2.5 F1600.
N205 G3 Y-4.621 I1.061 J-1.061 F1600.
N206 G1 X53.621 Y8.424 F1600.
N207 G3 X51.5 I-1.061 J-1.061 F1600.
N208 G1 X50.928 Y7.852 F1600.
N209 G2 X50.616 Y7.498 I-2.928 J2.263 F1600.
N210 G1 X41.502 Y-1.616 F1600.
N211 G2 X41.148 Y-1.928 I-2.616 J2.616 F1600.
N212 G1 X40.576 Y-2.5 F1600.
N213 G3 Y-4.621 I1.061 J-1.061 F1600.
N214 G0 Z-2.
N215 X53.619 Y-.106
N216 Z-4.
N217 G3 X51.498 I-1.061 J-1.061 F1600.
N218 G1 X49.106 Y-2.498 F1600.
N219 G3 Y-4.619 I1.061 J-1.061 F1600.
N220 G1 X53.621 Y2.018 F1600.
N221 G3 X51.5 I-1.061 J-1.061 F1600.
N222 G1 X46.982 Y-2.5 F1600.
N223 G3 Y-4.621 I1.061 J-1.061 F1600.
N224 G1 X53.621 Y4.139 F1600.
N225 G3 X51.5 I-1.061 J-1.061 F1600.
N226 G1 X44.861 Y-2.5 F1600.
N227 G3 Y-4.621 I1.061 J-1.061 F1600.
N228 G1 X53.621 Y6.26 F1600.
N229 G3 X51.5 I-1.061 J-1.061 F1600.
N230 G1 X42.74 Y-2.5 F1600.
N231 G3 Y-4.621 I1.061 J-1.061 F1600.
N232 G1 X53.621 Y8.424 F1600.
N233 G3 X51.5 I-1.061 J-1.061 F1600.
N234 G1 X50.928 Y7.852 F1600.
N235 G2 X50.616 Y7.498 I-2.928 J2.263 F1600.
N236 G1 X41.502 Y-1.616 F1600.
N237 G2 X41.148 Y-1.928 I-2.616 J2.616 F1600.
N238 G1 X40.576 Y-2.5 F1600.
N239 G3 Y-4.621 I1.061 J-1.061 F1600.
N240 G0 Z-3.
N241 X53.619 Y-.106
N242 Z-5.
N243 G3 X51.498 I-1.061 J-1.061 F1600.
N244 G1 X49.106 Y-2.498 F1600.
N245 G3 Y-4.619 I1.061 J-1.061 F1600.
N246 G1 X53.621 Y2.018 F1600.
N247 G3 X51.5 I-1.061 J-1.061 F1600.
N248 G1 X46.982 Y-2.5 F1600.
N249 G3 Y-4.621 I1.061 J-1.061 F1600.
N250 G1 X53.621 Y4.139 F1600.
N251 G3 X51.5 I-1.061 J-1.061 F1600.
N252 G1 X44.861 Y-2.5 F1600.
N253 G3 Y-4.621 I1.061 J-1.061 F1600.
N254 G1 X53.621 Y6.26 F1600.
N255 G3 X51.5 I-1.061 J-1.061 F1600.
N256 G1 X42.74 Y-2.5 F1600.
N257 G3 Y-4.621 I1.061 J-1.061 F1600.
N258 G1 X53.621 Y8.424 F1600.
N259 G3 X51.5 I-1.061 J-1.061 F1600.
N260 G1 X50.928 Y7.852 F1600.
N261 G2 X50.616 Y7.498 I-2.928 J2.263 F1600.
N262 G1 X41.502 Y-1.616 F1600.
N263 G2 X41.148 Y-1.928 I-2.616 J2.616 F1600.
N264 G1 X40.576 Y-2.5 F1600.
N265 G3 Y-4.621 I1.061 J-1.061 F1600.
N266 G0 Z-1.
N267 X-.106 Y-4.619
N268 G3 Y-2.498 I-1.061 J1.061 F1600.
N269 G1 X-2.498 Y-.106 F1600.
N270 G3 X-4.619 I-1.061 J-1.061 F1600.
N271 G1 X2.018 Y-4.621 F1600.
N272 G3 Y-2.5 I-1.061 J1.061 F1600.
N273 G1 X-2.5 Y2.018 F1600.
N274 G3 X-4.621 I-1.061 J-1.061 F1600.
N275 G1 X4.139 Y-4.621 F1600.
N276 G3 Y-2.5 I-1.061 J1.061 F1600.
N277 G1 X-2.5 Y4.139 F1600.
N278 G3 X-4.621 I-1.061 J-1.061 F1600.
N279 G1 X6.26 Y-4.621 F1600.
N280 G3 Y-2.5 I-1.061 J1.061 F1600.
N281 G1 X-2.5 Y6.26 F1600.
N282 G3 X-4.621 I-1.061 J-1.061 F1600.
N283 G1 X8.424 Y-4.621 F1600.
N284 G3 Y-2.5 I-1.061 J1.061 F1600.
N285 G1 X7.852 Y-1.928 F1600.
N286 G2 X7.498 Y-1.616 I2.263 J2.928 F1600.
N287 G1 X-1.616 Y7.498 F1600.
N288 G2 X-1.928 Y7.852 I2.616 J2.616 F1600.
N289 G1 X-2.5 Y8.424 F1600.
N290 G3 X-4.621 I-1.061 J-1.061 F1600.
N291 G0 Z0.0
N292 X-.106 Y-4.619
N293 Z-2.
N294 G3 Y-2.498 I-1.061 J1.061 F1600.
N295 G1 X-2.498 Y-.106 F1600.
N296 G3 X-4.619 I-1.061 J-1.061 F1600.
N297 G1 X2.018 Y-4.621 F1600.
N298 G3 Y-2.5 I-1.061 J1.061 F1600.
N299 G1 X-2.5 Y2.018 F1600.
N300 G3 X-4.621 I-1.061 J-1.061 F1600.
N301 G1 X4.139 Y-4.621 F1600.
N302 G3 Y-2.5 I-1.061 J1.061 F1600.
N303 G1 X-2.5 Y4.139 F1600.
N304 G3 X-4.621 I-1.061 J-1.061 F1600.
N305 G1 X6.26 Y-4.621 F1600.
N306 G3 Y-2.5 I-1.061 J1.061 F1600.
N307 G1 X-2.5 Y6.26 F1600.
N308 G3 X-4.621 I-1.061 J-1.061 F1600.
N309 G1 X8.424 Y-4.621 F1600.
N310 G3 Y-2.5 I-1.061 J1.061 F1600.
N311 G1 X7.852 Y-1.928 F1600.
N312 G2 X7.498 Y-1.616 I2.263 J2.928 F1600.
N313 G1 X-1.616 Y7.498 F1600.
N314 G2 X-1.928 Y7.852 I2.616 J2.616 F1600.
N315 G1 X-2.5 Y8.424 F1600.
N316 G3 X-4.621 I-1.061 J-1.061 F1600.
N317 G0 Z-1.
N318 X-.106 Y-4.619
N319 Z-3.
N320 G3 Y-2.498 I-1.061 J1.061 F1600.
N321 G1 X-2.498 Y-.106 F1600.
N322 G3 X-4.619 I-1.061 J-1.061 F1600.
N323 G1 X2.018 Y-4.621 F1600.
N324 G3 Y-2.5 I-1.061 J1.061 F1600.
N325 G1 X-2.5 Y2.018 F1600.
N326 G3 X-4.621 I-1.061 J-1.061 F1600.
N327 G1 X4.139 Y-4.621 F1600.
N328 G3 Y-2.5 I-1.061 J1.061 F1600.
N329 G1 X-2.5 Y4.139 F1600.
N330 G3 X-4.621 I-1.061 J-1.061 F1600.
N331 G1 X6.26 Y-4.621 F1600.
N332 G3 Y-2.5 I-1.061 J1.061 F1600.
N333 G1 X-2.5 Y6.26 F1600.
N334 G3 X-4.621 I-1.061 J-1.061 F1600.
N335 G1 X8.424 Y-4.621 F1600.
N336 G3 Y-2.5 I-1.061 J1.061 F1600.
N337 G1 X7.852 Y-1.928 F1600.
N338 G2 X7.498 Y-1.616 I2.263 J2.928 F1600.
N339 G1 X-1.616 Y7.498 F1600.
N340 G2 X-1.928 Y7.852 I2.616 J2.616 F1600.
N341 G1 X-2.5 Y8.424 F1600.
N342 G3 X-4.621 I-1.061 J-1.061 F1600.
N343 G0 Z-2.
N344 X-.106 Y-4.619
N345 Z-4.
N346 G3 Y-2.498 I-1.061 J1.061 F1600.
N347 G1 X-2.498 Y-.106 F1600.
N348 G3 X-4.619 I-1.061 J-1.061 F1600.
N349 G1 X2.018 Y-4.621 F1600.
N350 G3 Y-2.5 I-1.061 J1.061 F1600.
N351 G1 X-2.5 Y2.018 F1600.
N352 G3 X-4.621 I-1.061 J-1.061 F1600.
N353 G1 X4.139 Y-4.621 F1600.
N354 G3 Y-2.5 I-1.061 J1.061 F1600.
N355 G1 X-2.5 Y4.139 F1600.
N356 G3 X-4.621 I-1.061 J-1.061 F1600.
N357 G1 X6.26 Y-4.621 F1600.
N358 G3 Y-2.5 I-1.061 J1.061 F1600.
N359 G1 X-2.5 Y6.26 F1600.
N360 G3 X-4.621 I-1.061 J-1.061 F1600.
N361 G1 X8.424 Y-4.621 F1600.
N362 G3 Y-2.5 I-1.061 J1.061 F1600.
N363 G1 X7.852 Y-1.928 F1600.
N364 G2 X7.498 Y-1.616 I2.263 J2.928 F1600.
N365 G1 X-1.616 Y7.498 F1600.
N366 G2 X-1.928 Y7.852 I2.616 J2.616 F1600.
N367 G1 X-2.5 Y8.424 F1600.
N368 G3 X-4.621 I-1.061 J-1.061 F1600.
N369 G0 Z-3.
N370 X-.106 Y-4.619
N371 Z-5.
N372 G3 Y-2.498 I-1.061 J1.061 F1600.
N373 G1 X-2.498 Y-.106 F1600.
N374 G3 X-4.619 I-1.061 J-1.061 F1600.
N375 G1 X2.018 Y-4.621 F1600.
N376 G3 Y-2.5 I-1.061 J1.061 F1600.
N377 G1 X-2.5 Y2.018 F1600.
N378 G3 X-4.621 I-1.061 J-1.061 F1600.
N379 G1 X4.139 Y-4.621 F1600.
N380 G3 Y-2.5 I-1.061 J1.061 F1600.
N381 G1 X-2.5 Y4.139 F1600.
N382 G3 X-4.621 I-1.061 J-1.061 F1600.
N383 G1 X6.26 Y-4.621 F1600.
N384 G3 Y-2.5 I-1.061 J1.061 F1600.
N385 G1 X-2.5 Y6.26 F1600.
N386 G3 X-4.621 I-1.061 J-1.061 F1600.
N387 G1 X8.424 Y-4.621 F1600.
N388 G3 Y-2.5 I-1.061 J1.061 F1600.
N389 G1 X7.852 Y-1.928 F1600.
N390 G2 X7.498 Y-1.616 I2.263 J2.928 F1600.
N391 G1 X-1.616 Y7.498 F1600.
N392 G2 X-1.928 Y7.852 I2.616 J2.616 F1600.
N393 G1 X-2.5 Y8.424 F1600.
N394 G3 X-4.621 I-1.061 J-1.061 F1600.
N395 G0 Z10.2
N396 M1
;(****************************************************************)
;      END OPERATION: CORNER_ROUGH
;(****************************************************************)
;    START OPERATION: CAVITY_MILL
;     TYPE OPERATION: Cavity Milling
;(****************************************************************)
N397 G0 X-5. Y40.533
N398 Z10.2
N399 Z2.
N400 G1 Z-1. F1600.
N401 X-2.5 Y40.951 F1600.
N402 G2 X-1.85 Y41.048 I3. J-17.951 F1600.
N403 X-2.5 Y44.493 I19.45 J5.452 F1600.
N404 G1 X-2.748 Y46.98 F1600.
N405 X-5. F1600.
N406 Z2. F1600.
N407 G0 Z10.2
N408 Y46.02
N409 Z2.
N410 G1 Z-1. F1600.
N411 X-2.748 F1600.
N412 X-2.5 Y48.507 F1600.
N413 G2 X-2.297 Y49.988 I20.1 J-2.007 F1600.
N414 G1 X-1.642 Y53.723 F1600.
N415 Z2. F1600.
N416 G0 Z10.2
N417 X-5. Y38.972
N418 Z2.
N419 G1 Z-1. F1600.
N420 X-2.5 Y39.428 F1600.
N421 G2 X.181 Y39.697 I3. J-16.428 F1600.
N422 X-.429 Y51.463 I17.419 J6.803 F1600.
N423 G1 X.269 Y54. F1600.
N424 Z2. F1600.
N425 G0 Z10.2
N426 X-5. Y37.398
N427 Z2.
N428 G1 Z-1. F1600.
N429 X-2.5 Y37.901 F1600.
N430 G2 X.5 Y38.2 I3. J-14.901 F1600.
N431 G1 X2.535 F1600.
N432 G2 X1.143 Y51.5 I15.065 J8.3 F1600.
N433 G1 X1.902 Y54. F1600.
N434 Z2. F1600.
N435 G0 Z10.2
N436 X-5. Y35.806
N437 Z2.
N438 G1 Z-1. F1600.
N439 X-2.5 Y36.367 F1600.
N440 G2 X.5 Y36.7 I3. J-13.367 F1600.
N441 G1 X5.334 F1600.
N442 G2 X2.717 Y51.5 I12.266 J9.8 F1600.
N443 G1 X3.557 Y54. F1600.
N444 Z2. F1600.
N445 G0 Z10.2
N446 X-5. Y34.191
N447 Z2.
N448 G1 Z-1. F1600.
N449 X-2.5 Y34.825 F1600.
N450 G2 X.5 Y35.2 I3. J-11.825 F1600.
N451 G1 X9.001 F1600.
N452 G2 X4.309 Y51.5 I8.599 J11.3 F1600.
N453 G1 X5.25 Y54. F1600.
N454 Z2. F1600.
N455 G0 Z10.2
N456 X-5. Y32.541
N457 Z2.
N458 G1 Z-1. F1600.
N459 X-2.5 Y33.271 F1600.
N460 G2 X.5 Y33.7 I3. J-10.271 F1600.
N461 G1 X19.367 F1600.
N462 X19.786 Y33.771 F1600.
N463 X19.87 Y33.776 F1600.
N464 X20.241 Y33.8 F1600.
N465 X17.6 F1600.
N466 G2 X5.926 Y51.5 I0.0 J12.7 F1600.
N467 G1 X6.996 Y54. F1600.
N468 Z2. F1600.
N469 G0 Z10.2
N470 X-5. Y30.835
N471 Z2.
N472 G1 Z-1. F1600.
N473 X-2.5 Y31.697 F1600.
N474 G2 X.5 Y32.2 I3. J-8.697 F1600.
N475 G1 X19.493 F1600.
N476 X19.956 Y32.279 F1600.
N477 G3 X27.011 Y33.517 I-1.777 J30.842 F1600.
N478 X27.695 Y33.738 I-3.949 J13.391 F1600.
N479 X23.919 Y34.71 I-6.752 J-18.417 F1600.
N480 X22.081 Y35.019 I-3.52 J-15.291 F1600.
N481 G2 X20.749 Y35.3 I1.276 J9.357 F1600.
N482 G1 X17.6 F1600.
N483 G2 X7.578 Y51.5 I0.0 J11.2 F1600.
N484 G1 X8.825 Y54. F1600.
N485 Z2. F1600.
N486 G0 Z10.2
N487 X-5. Y29.034
N488 Z2.
N489 G1 Z-1. F1600.
N490 X-2.5 Y30.092 F1600.
N491 G2 X.5 Y30.7 I3. J-7.092 F1600.
N492 G1 X19.62 F1600.
N493 X20.127 Y30.786 F1600.
N494 G3 X27.438 Y32.079 I-1.948 J32.335 F1600.
N495 X31.201 Y33.762 I-4.375 J14.83 F1600.
N496 X30.64 Y34.079 I-2.612 J-3.975 F1600.
N497 X24.201 Y36.184 I-9.696 J-18.757 F1600.
N498 X22.265 Y36.508 I-3.802 J-16.765 F1600.
N499 G2 X20.97 Y36.8 I1.092 J7.869 F1600.
N500 G1 X17.6 F1600.
N501 G2 X9.288 Y51.5 I0.0 J9.7 F1600.
N502 G1 X10.792 Y54. F1600.
N503 Z2. F1600.
N504 G0 Z10.2
N505 X-5. Y27.044
N506 Z2.
N507 G1 Z-1. F1600.
N508 X-2.5 Y28.426 F1600.
N509 G2 X.5 Y29.2 I3. J-5.426 F1600.
N510 G1 X19.747 F1600.
N511 X20.301 Y29.294 F1600.
N512 G3 X27.864 Y30.641 I-2.121 J33.827 F1600.
N513 X32.008 Y32.498 I-4.802 J16.268 F1600.
N514 X33.434 Y33.746 I-2.834 J4.677 F1600.
N515 X31.31 Y35.421 I-4.845 J-3.959 F1600.
N516 X24.482 Y37.658 I-10.366 J-20.1 F1600.
N517 X22.453 Y37.997 I-4.084 J-18.239 F1600.
N518 G2 X21.213 Y38.3 I.904 J6.38 F1600.
N519 G1 X17.6 F1600.
N520 G2 X11.101 Y51.5 I0.0 J8.2 F1600.
N521 G1 X13.024 Y54. F1600.
N522 Z2. F1600.
N523 G0 Z10.2
N524 X-5. Y24.545
N525 Z2.
N526 G1 Z-1. F1600.
N527 X-2.5 Y26.618 F1600.
N528 G2 X.5 Y27.7 I3. J-3.618 F1600.
N529 G1 X19.873 F1600.
N530 X20.475 Y27.802 F1600.
N531 G3 X28.291 Y29.203 I-2.296 J35.319 F1600.
N532 X32.793 Y31.22 I-5.229 J17.706 F1600.
N533 X34.773 Y33.026 I-3.619 J5.956 F1600.
N534 X34.775 Y34.468 I-.903 J.722 F1600.
N535 X31.981 Y36.762 I-6.185 J-4.681 F1600.
N536 X24.763 Y39.132 I-11.037 J-21.441 F1600.
N537 X22.644 Y39.485 I-4.366 J-19.713 F1600.
N538 G2 X21.487 Y39.8 I.712 J4.892 F1600.
N539 G1 X17.6 F1600.
N540 G2 X13.14 Y51.5 I0.0 J6.7 F1600.
N541 G1 X15.972 Y54.026 F1600.
N542 Z2. F1600.
N543 G0 Z10.2
N544 X-5.2 Y21.77
N545 Z2.
N546 G1 Z-1. F1600.
N547 X-3.37 F1600.
N548 X-2.5 Y24.114 F1600.
N549 G2 X.5 Y26.2 I3. J-1.114 F1600.
N550 G1 X20. F1600.
N551 X20.652 Y26.311 F1600.
N552 G3 X28.717 Y27.765 I-2.472 J36.811 F1600.
N553 X33.578 Y29.941 I-5.655 J19.144 F1600.
N554 X35.967 Y32.118 I-4.404 J7.234 F1600.
N555 X35.963 Y35.383 I-2.097 J1.63 F1600.
N556 X32.654 Y38.104 I-7.374 J-5.596 F1600.
N557 X25.044 Y40.606 I-11.71 J-22.782 F1600.
N558 X22.841 Y40.972 I-4.647 J-21.187 F1600.
N559 G2 X21.809 Y41.3 I.515 J3.405 F1600.
N560 G1 X17.6 F1600.
N561 G2 X16.172 Y51.5 I0.0 J5.2 F1600.
N562 G1 X18.576 Y52.187 F1600.
N563 Y54.2 F1600.
N564 Z2. F1600.
N565 G0 Z10.2
N566 X-5. Y40.533
N567 Z1.
N568 G1 Z-2. F1600.
N569 X-2.5 Y40.951 F1600.
N570 G2 X-1.85 Y41.048 I3. J-17.951 F1600.
N571 X-2.5 Y44.493 I19.45 J5.452 F1600.
N572 G1 X-2.748 Y46.98 F1600.
N573 X-5. F1600.
N574 Z1. F1600.
N575 G0 Z10.2
N576 Y46.02
N577 Z1.
N578 G1 Z-2. F1600.
N579 X-2.748 F1600.
N580 X-2.5 Y48.507 F1600.
N581 G2 X-2.297 Y49.988 I20.1 J-2.007 F1600.
N582 G1 X-1.642 Y53.723 F1600.
N583 Z1. F1600.
N584 G0 Z10.2
N585 X-5. Y38.972
N586 Z1.
N587 G1 Z-2. F1600.
N588 X-2.5 Y39.428 F1600.
N589 G2 X.181 Y39.697 I3. J-16.428 F1600.
N590 X-.429 Y51.463 I17.419 J6.803 F1600.
N591 G1 X.269 Y54. F1600.
N592 Z1. F1600.
N593 G0 Z10.2
N594 X-5. Y37.398
N595 Z1.
N596 G1 Z-2. F1600.
N597 X-2.5 Y37.901 F1600.
N598 G2 X.5 Y38.2 I3. J-14.901 F1600.
N599 G1 X2.535 F1600.
N600 G2 X1.143 Y51.5 I15.065 J8.3 F1600.
N601 G1 X1.902 Y54. F1600.
N602 Z1. F1600.
N603 G0 Z10.2
N604 X-5. Y35.806
N605 Z1.
N606 G1 Z-2. F1600.
N607 X-2.5 Y36.367 F1600.
N608 G2 X.5 Y36.7 I3. J-13.367 F1600.
N609 G1 X5.334 F1600.
N610 G2 X2.717 Y51.5 I12.266 J9.8 F1600.
N611 G1 X3.557 Y54. F1600.
N612 Z1. F1600.
N613 G0 Z10.2
N614 X-5. Y34.191
N615 Z1.
N616 G1 Z-2. F1600.
N617 X-2.5 Y34.825 F1600.
N618 G2 X.5 Y35.2 I3. J-11.825 F1600.
N619 G1 X9.001 F1600.
N620 G2 X4.309 Y51.5 I8.599 J11.3 F1600.
N621 G1 X5.25 Y54. F1600.
N622 Z1. F1600.
N623 G0 Z10.2
N624 X-5. Y32.541
N625 Z1.
N626 G1 Z-2. F1600.
N627 X-2.5 Y33.271 F1600.
N628 G2 X.5 Y33.7 I3. J-10.271 F1600.
N629 G1 X18.682 F1600.
N630 G2 X19.066 Y33.8 I2.51 J-8.866 F1600.
N631 G1 X17.6 F1600.
N632 G2 X5.926 Y51.5 I0.0 J12.7 F1600.
N633 G1 X6.996 Y54. F1600.
N634 Z1. F1600.
N635 G0 Z10.2
N636 X-5. Y30.835
N637 Z1.
N638 G1 Z-2. F1600.
N639 X-2.5 Y31.697 F1600.
N640 G2 X.5 Y32.2 I3. J-8.697 F1600.
N641 G1 X18.899 F1600.
N642 G2 X20.573 Y32.524 I2.292 J-7.366 F1600.
N643 G3 X25.771 Y33.75 I-3.101 J24.775 F1600.
N644 X21.625 Y34.816 I-8.051 J-22.721 F1600.
N645 G2 X19.943 Y35.3 I1.886 J9.706 F1600.
N646 G1 X17.6 F1600.
N647 G2 X7.578 Y51.5 I0.0 J11.2 F1600.
N648 G1 X8.825 Y54. F1600.
N649 Z1. F1600.
N650 G0 Z10.2
N651 X-5. Y29.034
N652 Z1.
N653 G1 Z-2. F1600.
N654 X-2.5 Y30.092 F1600.
N655 G2 X.5 Y30.7 I3. J-7.092 F1600.
N656 G1 X19.14 F1600.
N657 G2 X20.725 Y31.031 I2.052 J-5.866 F1600.
N658 G3 X27.598 Y32.844 I-3.252 J26.268 F1600.
N659 X29.279 Y33.762 I-3.428 J8.28 F1600.
N660 X27.916 Y34.516 I-4.426 J-6.386 F1600.
N661 X21.892 Y36.292 I-10.196 J-23.487 F1600.
N662 G2 X20.235 Y36.8 I1.619 J8.23 F1600.
N663 G1 X17.6 F1600.
N664 G2 X9.288 Y51.5 I0.0 J9.7 F1600.
N665 G1 X10.792 Y54. F1600.
N666 Z1. F1600.
N667 G0 Z10.2
N668 X-5. Y27.044
N669 Z1.
N670 G1 Z-2. F1600.
N671 X-2.5 Y28.426 F1600.
N672 G2 X.5 Y29.2 I3. J-5.426 F1600.
N673 G1 X19.413 F1600.
N674 G2 X20.87 Y29.537 I1.779 J-4.366 F1600.
N675 G3 X28.172 Y31.458 I-3.398 J27.761 F1600.
N676 X31.587 Y33.746 I-4.002 J9.666 F1600.
N677 X28.511 Y35.893 I-6.733 J-6.371 F1600.
N678 X22.162 Y37.767 I-10.79 J-24.864 F1600.
N679 G2 X20.556 Y38.3 I1.349 J6.754 F1600.
N680 G1 X17.6 F1600.
N681 G2 X11.101 Y51.5 I0.0 J8.2 F1600.
N682 G1 X13.024 Y54. F1600.
N683 Z1. F1600.
N684 G0 Z10.2
N685 X-5. Y24.545
N686 Z1.
N687 G1 Z-2. F1600.
N688 X-2.5 Y26.618 F1600.
N689 G2 X.5 Y27.7 I3. J-3.618 F1600.
N690 G1 X19.736 F1600.
N691 G2 X21.008 Y28.043 I1.456 J-2.866 F1600.
N692 G3 X28.746 Y30.072 I-3.536 J29.256 F1600.
N693 X32.723 Y32.761 I-4.576 J11.052 F1600.
N694 X32.748 Y34.701 I-1.006 J.983 F1600.
N695 X29.105 Y37.271 I-7.894 J-7.326 F1600.
N696 X22.435 Y39.243 I-11.385 J-26.242 F1600.
N697 G2 X20.916 Y39.8 I1.075 J5.279 F1600.
N698 G1 X17.6 F1600.
N699 G2 X13.14 Y51.5 I0.0 J6.7 F1600.
N700 G1 X15.972 Y54.026 F1600.
N701 Z1. F1600.
N702 G0 Z10.2
N703 X-5.2 Y21.77
N704 Z1.
N705 G1 Z-2. F1600.
N706 X-3.37 F1600.
N707 X-2.5 Y24.114 F1600.
N708 G2 X.5 Y26.2 I3. J-1.114 F1600.
N709 G1 X20. F1600.
N710 X20.312 Y26.306 F1600.
N711 G2 X21.133 Y26.547 I.879 J-1.472 F1600.
N712 G3 X29.319 Y28.686 I-3.661 J30.751 F1600.
N713 X33.795 Y31.713 I-5.15 J12.438 F1600.
N714 X33.847 Y35.722 I-2.078 J2.032 F1600.
N715 X29.7 Y38.648 I-8.994 J-8.346 F1600.
N716 X22.713 Y40.717 I-11.98 J-27.619 F1600.
N717 G2 X21.335 Y41.3 I.797 J3.805 F1600.
N718 G1 X17.6 F1600.
N719 G2 X16.172 Y51.5 I0.0 J5.2 F1600.
N720 G1 X18.576 Y52.187 F1600.
N721 Y54.2 F1600.
N722 Z1. F1600.
N723 G0 Z10.2
N724 X-5. Y40.533
N725 Z0.0
N726 G1 Z-3. F1600.
N727 X-2.5 Y40.951 F1600.
N728 G2 X-1.85 Y41.048 I3. J-17.951 F1600.
N729 X-2.5 Y44.493 I19.45 J5.452 F1600.
N730 G1 X-2.748 Y46.98 F1600.
N731 X-5. F1600.
N732 Z0.0 F1600.
N733 G0 Z10.2
N734 Y46.02
N735 Z0.0
N736 G1 Z-3. F1600.
N737 X-2.748 F1600.
N738 X-2.5 Y48.507 F1600.
N739 G2 X-2.297 Y49.988 I20.1 J-2.007 F1600.
N740 G1 X-1.642 Y53.723 F1600.
N741 Z0.0 F1600.
N742 G0 Z10.2
N743 X-5. Y38.972
N744 Z0.0
N745 G1 Z-3. F1600.
N746 X-2.5 Y39.428 F1600.
N747 G2 X.181 Y39.697 I3. J-16.428 F1600.
N748 X-.429 Y51.463 I17.419 J6.803 F1600.
N749 G1 X.269 Y54. F1600.
N750 Z0.0 F1600.
N751 G0 Z10.2
N752 X-5. Y37.398
N753 Z0.0
N754 G1 Z-3. F1600.
N755 X-2.5 Y37.901 F1600.
N756 G2 X.5 Y38.2 I3. J-14.901 F1600.
N757 G1 X2.535 F1600.
N758 G2 X1.143 Y51.5 I15.065 J8.3 F1600.
N759 G1 X1.902 Y54. F1600.
N760 Z0.0 F1600.
N761 G0 Z10.2
N762 X-5. Y35.806
N763 Z0.0
N764 G1 Z-3. F1600.
N765 X-2.5 Y36.367 F1600.
N766 G2 X.5 Y36.7 I3. J-13.367 F1600.
N767 G1 X5.334 F1600.
N768 G2 X2.717 Y51.5 I12.266 J9.8 F1600.
N769 G1 X3.557 Y54. F1600.
N770 Z0.0 F1600.
N771 G0 Z10.2
N772 X-5. Y34.191
N773 Z0.0
N774 G1 Z-3. F1600.
N775 X-2.5 Y34.825 F1600.
N776 G2 X.5 Y35.2 I3. J-11.825 F1600.
N777 G1 X9.001 F1600.
N778 G2 X4.309 Y51.5 I8.599 J11.3 F1600.
N779 G1 X5.25 Y54. F1600.
N780 Z0.0 F1600.
N781 G0 Z10.2
N782 X-5. Y32.541
N783 Z0.0
N784 G1 Z-3. F1600.
N785 X-2.5 Y33.271 F1600.
N786 G2 X.5 Y33.7 I3. J-10.271 F1600.
N787 G1 X18.157 F1600.
N788 G2 X18.413 Y33.8 I3.9 J-9.596 F1600.
N789 G1 X17.6 F1600.
N790 G2 X5.926 Y51.5 I0.0 J12.7 F1600.
N791 G1 X6.996 Y54. F1600.
N792 Z0.0 F1600.
N793 G0 Z10.2
N794 X-5. Y30.835
N795 Z0.0
N796 G1 Z-3. F1600.
N797 X-2.5 Y31.697 F1600.
N798 G2 X.5 Y32.2 I3. J-8.697 F1600.
N799 G1 X18.462 F1600.
N800 G2 X20.455 Y32.816 I3.595 J-8.096 F1600.
N801 G3 X23.889 Y33.746 I-3.953 J21.413 F1600.
N802 X21.251 Y34.519 I-8.437 J-23.885 F1600.
N803 G2 X19.095 Y35.3 I1.91 J8.637 F1600.
N804 G1 X17.6 F1600.
N805 G2 X7.578 Y51.5 I0.0 J11.2 F1600.
N806 G1 X8.825 Y54. F1600.
N807 Z0.0 F1600.
N808 G0 Z10.2
N809 X-5. Y29.034
N810 Z0.0
N811 G1 Z-3. F1600.
N812 X-2.5 Y30.092 F1600.
N813 G2 X.5 Y30.7 I3. J-7.092 F1600.
N814 G1 X18.796 F1600.
N815 G2 X20.727 Y31.341 I3.261 J-6.596 F1600.
N816 G3 X26.244 Y33.091 I-4.225 J22.888 F1600.
N817 X27.408 Y33.753 I-3.288 J7.134 F1600.
N818 X26.041 Y34.514 I-4.434 J-6.359 F1600.
N819 X21.584 Y35.982 I-10.589 J-24.654 F1600.
N820 G2 X19.478 Y36.8 I1.577 J7.175 F1600.
N821 G1 X17.6 F1600.
N822 G2 X9.288 Y51.5 I0.0 J9.7 F1600.
N823 G1 X10.792 Y54. F1600.
N824 Z0.0 F1600.
N825 G0 Z10.2
N826 X-5. Y27.044
N827 Z0.0
N828 G1 Z-3. F1600.
N829 X-2.5 Y28.426 F1600.
N830 G2 X.5 Y29.2 I3. J-5.426 F1600.
N831 G1 X19.168 F1600.
N832 G2 X20.999 Y29.866 I2.89 J-5.096 F1600.
N833 G3 X26.872 Y31.729 I-4.497 J24.363 F1600.
N834 X29.703 Y33.744 I-3.916 J8.496 F1600.
N835 X26.634 Y35.892 I-6.729 J-6.35 F1600.
N836 X21.915 Y37.445 I-11.182 J-26.032 F1600.
N837 G2 X19.906 Y38.3 I1.245 J5.712 F1600.
N838 G1 X17.6 F1600.
N839 G2 X11.101 Y51.5 I0.0 J8.2 F1600.
N840 G1 X13.024 Y54. F1600.
N841 Z0.0 F1600.
N842 G0 Z10.2
N843 X-5. Y24.545
N844 Z0.0
N845 G1 Z-3. F1600.
N846 X-2.5 Y26.618 F1600.
N847 G2 X.5 Y27.7 I3. J-3.618 F1600.
N848 G1 X19.595 F1600.
N849 G2 X21.27 Y28.391 I2.462 J-3.596 F1600.
N850 G3 X27.5 Y30.367 I-4.768 J25.839 F1600.
N851 X30.859 Y32.783 I-4.544 J9.858 F1600.
N852 X30.868 Y34.694 I-1.02 J.96 F1600.
N853 X27.226 Y37.27 I-7.894 J-7.3 F1600.
N854 X22.245 Y38.908 I-11.775 J-27.409 F1600.
N855 G2 X20.4 Y39.8 I.915 J4.249 F1600.
N856 G1 X17.6 F1600.
N857 G2 X13.14 Y51.5 I0.0 J6.7 F1600.
N858 G1 X15.972 Y54.026 F1600.
N859 Z0.0 F1600.
N860 G0 Z10.2
N861 X-5.2 Y21.77
N862 Z0.0
N863 G1 Z-3. F1600.
N864 X-3.37 F1600.
N865 X-2.5 Y24.114 F1600.
N866 G2 X.5 Y26.2 I3. J-1.114 F1600.
N867 G1 X20. F1600.
N868 G3 X20.189 Y26.267 I0.0 J.3 F1600.
N869 G2 X21.542 Y26.915 I1.869 J-2.162 F1600.
N870 G3 X28.128 Y29.005 I-5.04 J27.314 F1600.
N871 X31.951 Y31.755 I-5.172 J11.221 F1600.
N872 X31.969 Y35.713 I-2.112 J1.989 F1600.
N873 X27.819 Y38.648 I-8.996 J-8.318 F1600.
N874 X22.572 Y40.372 I-12.368 J-28.787 F1600.
N875 G2 X21.003 Y41.3 I.588 J2.785 F1600.
N876 G1 X17.6 F1600.
N877 G2 X16.172 Y51.5 I0.0 J5.2 F1600.
N878 G1 X18.576 Y52.187 F1600.
N879 Y54.2 F1600.
N880 Z0.0 F1600.
N881 G0 Z10.2
N882 X-5. Y40.533
N883 Z-1.
N884 G1 Z-4. F1600.
N885 X-2.5 Y40.951 F1600.
N886 G2 X-2.084 Y41.016 I3. J-17.951 F1600.
N887 G1 X-2.5 Y41.567 F1600.
N888 X-5. Y44.881 F1600.
N889 Z-1. F1600.
N890 G0 Z10.2
N891 Y38.972
N892 Z-1.
N893 G1 Z-4. F1600.
N894 X-2.5 Y39.428 F1600.
N895 G2 X.181 Y39.697 I3. J-16.428 F1600.
N896 X-.326 Y41.175 I17.419 J6.803 F1600.
N897 G1 X-1.982 Y43.371 F1600.
N898 G2 X-2.5 Y44.108 I10.778 J8.129 F1600.
N899 G1 X-5. Y47.928 F1600.
N900 Z-1. F1600.
N901 G0 Z10.2
N902 Y37.398
N903 Z-1.
N904 G1 Z-4. F1600.
N905 X-2.5 Y37.901 F1600.
N906 G2 X.5 Y38.2 I3. J-14.901 F1600.
N907 G1 X2.535 F1600.
N908 G2 X2.36 Y38.525 I15.065 J8.299 F1600.
N909 X1.038 Y41.858 I15.24 J7.975 F1600.
N910 G1 X-.784 Y44.274 F1600.
N911 G2 X-2.5 Y47.451 I9.58 J7.226 F1600.
N912 G1 X-4.087 Y51.88 F1600.
N913 Z-1. F1600.
N914 G0 Z10.2
N915 X-5. Y35.806
N916 Z-1.
N917 G1 Z-4. F1600.
N918 X-2.5 Y36.367 F1600.
N919 G2 X.5 Y36.7 I3. J-13.367 F1600.
N920 G1 X5.334 F1600.
N921 G2 X3.689 Y39.221 I12.266 J9.799 F1600.
N922 X2.41 Y42.53 I13.911 J7.279 F1600.
N923 G1 X.413 Y45.177 F1600.
N924 G2 X-1.684 Y50.848 I8.383 J6.323 F1600.
N925 G1 X-1.857 Y53.642 F1600.
N926 Z-1. F1600.
N927 G0 Z10.2
N928 X-5. Y34.191
N929 Z-1.
N930 G1 Z-4. F1600.
N931 X-2.5 Y34.825 F1600.
N932 G2 X.5 Y35.2 I3. J-11.825 F1600.
N933 G1 X9. F1600.
N934 G2 X5.019 Y39.916 I8.6 J11.299 F1600.
N935 X3.791 Y43.19 I12.581 J6.584 F1600.
N936 G1 X1.611 Y46.081 F1600.
N937 G2 X-.204 Y51.492 I7.185 J5.419 F1600.
N938 G1 X-.206 Y53.996 F1600.
N939 Z-1. F1600.
N940 G0 Z10.2
N941 X-5. Y32.541
N942 Z-1.
N943 G1 Z-4. F1600.
N944 X-2.5 Y33.271 F1600.
N945 G2 X.5 Y33.7 I3. J-10.271 F1600.
N946 G1 X17.529 F1600.
N947 X17.713 Y33.8 F1600.
N948 G2 X6.348 Y40.612 I-.113 J12.699 F1600.
N949 X5.183 Y43.836 I11.252 J5.888 F1600.
N950 G1 X2.808 Y46.984 F1600.
N951 G2 X1.296 Y51.5 I5.988 J4.516 F1600.
N952 G1 Y54. F1600.
N953 Z-1. F1600.
N954 G0 Z10.2
N955 X-5. Y30.835
N956 Z-1.
N957 G1 Z-4. F1600.
N958 X-2.5 Y31.697 F1600.
N959 G2 X.5 Y32.2 I3. J-8.697 F1600.
N960 G1 X17.934 F1600.
N961 G2 X20.391 Y33.234 I4.634 J-7.573 F1600.
N962 G3 X22.066 Y33.752 I-4.353 J17.052 F1600.
N963 X20.819 Y34.134 I-4.946 J-13.911 F1600.
N964 G2 X18.291 Y35.3 I2.427 J8.588 F1600.
N965 G1 X17.6 F1600.
N966 G2 X6.586 Y44.466 I0.0 J11.2 F1600.
N967 G1 X4.006 Y47.887 F1600.
N968 G2 X2.796 Y51.5 I4.79 J3.613 F1600.
N969 G1 Y54. F1600.
N970 Z-1. F1600.
N971 G0 Z10.2
N972 X-5. Y29.034
N973 Z-1.
N974 G1 Z-4. F1600.
N975 X-2.5 Y30.092 F1600.
N976 G2 X.5 Y30.7 I3. J-7.092 F1600.
N977 G1 X18.378 F1600.
N978 G2 X20.761 Y31.78 I4.19 J-6.073 F1600.
N979 G3 X24.962 Y33.4 I-4.722 J18.506 F1600.
N980 X25.557 Y33.746 I-2.293 J4.638 F1600.
N981 X21.213 Y35.582 I-8.437 J-13.904 F1600.
N982 G2 X18.769 Y36.8 I2.033 J7.141 F1600.
N983 G1 X17.6 F1600.
N984 G2 X8.005 Y45.076 I0.0 J9.7 F1600.
N985 G1 X5.204 Y48.79 F1600.
N986 G2 X4.296 Y51.5 I3.593 J2.71 F1600.
N987 G1 Y54. F1600.
N988 Z-1. F1600.
N989 G0 Z10.2
N990 X-5. Y27.044
N991 Z-1.
N992 G1 Z-4. F1600.
N993 X-2.5 Y28.426 F1600.
N994 G2 X.5 Y29.2 I3. J-5.426 F1600.
N995 G1 X18.874 F1600.
N996 G2 X21.13 Y30.327 I3.693 J-4.573 F1600.
N997 G3 X25.646 Y32.065 I-5.091 J19.96 F1600.
N998 X27.788 Y33.757 I-2.977 J5.973 F1600.
N999 X26.335 Y35.028 I-4.189 J-3.322 F1600.
N1000 X21.61 Y37.028 I-9.215 J-15.187 F1600.
N1001 G2 X19.304 Y38.3 I1.636 J5.694 F1600.
N1002 G1 X17.6 F1600.
N1003 G2 X9.443 Y45.66 I0.0 J8.2 F1600.
N1004 G1 X6.401 Y49.694 F1600.
N1005 G2 X5.796 Y51.5 I2.395 J1.806 F1600.
N1006 G1 Y54. F1600.
N1007 Z-1. F1600.
N1008 G0 Z10.2
N1009 X-5. Y24.545
N1010 Z-1.
N1011 G1 Z-4. F1600.
N1012 X-2.5 Y26.618 F1600.
N1013 G2 X.5 Y27.7 I3. J-3.618 F1600.
N1014 G1 X19.449 F1600.
N1015 G2 X21.498 Y28.873 I3.119 J-3.073 F1600.
N1016 G3 X26.332 Y30.731 I-5.46 J21.414 F1600.
N1017 X29.133 Y33.036 I-3.663 J7.307 F1600.
N1018 X29.123 Y34.48 I-.925 J.715 F1600.
N1019 X27.165 Y36.279 I-5.523 J-4.045 F1600.
N1020 X22.01 Y38.474 I-10.045 J-16.438 F1600.
N1021 G2 X19.924 Y39.8 I1.236 J4.248 F1600.
N1022 G1 X17.6 F1600.
N1023 G2 X10.906 Y46.212 I0.0 J6.7 F1600.
N1024 G1 X7.599 Y50.597 F1600.
N1025 G2 X7.296 Y51.5 I1.198 J.903 F1600.
N1026 G1 Y54. F1600.
N1027 Z-1. F1600.
N1028 G0 Z10.2
N1029 X-5.2 Y21.77
N1030 Z-1.
N1031 G1 Z-4. F1600.
N1032 X-3.37 F1600.
N1033 X-2.5 Y24.114 F1600.
N1034 G2 X.5 Y26.2 I3. J-1.114 F1600.
N1035 G1 X20. F1600.
N1036 G3 X20.238 Y26.317 I0.0 J.3 F1600.
N1037 G2 X21.866 Y27.418 I2.33 J-1.69 F1600.
N1038 G3 X27.018 Y29.397 I-5.828 J22.868 F1600.
N1039 X30.32 Y32.118 I-4.349 J8.641 F1600.
N1040 X30.321 Y35.383 I-2.112 J1.633 F1600.
N1041 X27.947 Y37.559 I-6.721 J-4.948 F1600.
N1042 X22.415 Y39.919 I-10.826 J-17.718 F1600.
N1043 G2 X20.691 Y41.3 I.832 J2.804 F1600.
N1044 G1 X17.6 F1600.
N1045 G2 X16.172 Y51.5 I0.0 J5.2 F1600.
N1046 G1 X15.969 F1600.
N1047 G3 X12.349 Y46.789 I1.634 J-5.001 F1600.
N1048 G1 X8.796 Y51.5 F1600.
N1049 X6.911 Y54. F1600.
N1050 Z-1. F1600.
N1051 G0 Z10.2
N1052 X-5. Y40.533
N1053 Z-2.
N1054 G1 Z-5. F1600.
N1055 X-2.5 Y40.951 F1600.
N1056 G2 X-2.084 Y41.016 I3. J-17.951 F1600.
N1057 G1 X-2.5 Y41.567 F1600.
N1058 X-5. Y44.881 F1600.
N1059 Z-2. F1600.
N1060 G0 Z10.2
N1061 Y38.972
N1062 Z-2.
N1063 G1 Z-5. F1600.
N1064 X-2.5 Y39.428 F1600.
N1065 G2 X.181 Y39.697 I3. J-16.428 F1600.
N1066 X-.326 Y41.175 I17.419 J6.803 F1600.
N1067 G1 X-1.982 Y43.371 F1600.
N1068 G2 X-2.5 Y44.108 I10.778 J8.129 F1600.
N1069 G1 X-5. Y47.928 F1600.
N1070 Z-2. F1600.
N1071 G0 Z10.2
N1072 Y37.398
N1073 Z-2.
N1074 G1 Z-5. F1600.
N1075 X-2.5 Y37.901 F1600.
N1076 G2 X.5 Y38.2 I3. J-14.901 F1600.
N1077 G1 X2.535 F1600.
N1078 G2 X1.038 Y41.858 I15.065 J8.3 F1600.
N1079 G1 X-.784 Y44.274 F1600.
N1080 G2 X-2.5 Y47.451 I9.58 J7.226 F1600.
N1081 G1 X-4.087 Y51.88 F1600.
N1082 Z-2. F1600.
N1083 G0 Z10.2
N1084 X-5. Y35.806
N1085 Z-2.
N1086 G1 Z-5. F1600.
N1087 X-2.5 Y36.367 F1600.
N1088 G2 X.5 Y36.7 I3. J-13.367 F1600.
N1089 G1 X5.334 F1600.
N1090 G2 X2.41 Y42.53 I12.266 J9.8 F1600.
N1091 G1 X.413 Y45.177 F1600.
N1092 G2 X-1.684 Y50.848 I8.383 J6.323 F1600.
N1093 G1 X-1.857 Y53.642 F1600.
N1094 Z-2. F1600.
N1095 G0 Z10.2
N1096 X-5. Y34.191
N1097 Z-2.
N1098 G1 Z-5. F1600.
N1099 X-2.5 Y34.825 F1600.
N1100 G2 X.5 Y35.2 I3. J-11.825 F1600.
N1101 G1 X9.001 F1600.
N1102 G2 X3.791 Y43.19 I8.599 J11.3 F1600.
N1103 G1 X1.611 Y46.081 F1600.
N1104 G2 X-.204 Y51.492 I7.185 J5.419 F1600.
N1105 G1 X-.206 Y53.996 F1600.
N1106 Z-2. F1600.
N1107 G0 Z10.2
N1108 X-5. Y32.541
N1109 Z-2.
N1110 G1 Z-5. F1600.
N1111 X-2.5 Y33.271 F1600.
N1112 G2 X.5 Y33.7 I3. J-10.271 F1600.
N1113 G1 X16.859 F1600.
N1114 X16.989 Y33.792 F1600.
N1115 X16.957 Y33.816 F1600.
N1116 G2 X5.183 Y43.836 I.643 J12.684 F1600.
N1117 G1 X2.808 Y46.984 F1600.
N1118 G2 X1.296 Y51.5 I5.988 J4.516 F1600.
N1119 G1 Y54. F1600.
N1120 Z-2. F1600.
N1121 G0 Z10.2
N1122 X-5. Y30.835
N1123 Z-2.
N1124 G1 Z-5. F1600.
N1125 X-2.5 Y31.697 F1600.
N1126 G2 X.5 Y32.2 I3. J-8.697 F1600.
N1127 G1 X17.368 F1600.
N1128 G2 X17.852 Y32.566 I5.669 J-7.001 F1600.
N1129 X20.186 Y33.744 I5.184 J-7.368 F1600.
N1130 X17.501 Y35.3 I3.083 J8.416 F1600.
N1131 X6.586 Y44.466 I.099 J11.2 F1600.
N1132 G1 X4.006 Y47.887 F1600.
N1133 G2 X2.796 Y51.5 I4.79 J3.613 F1600.
N1134 G1 Y54. F1600.
N1135 Z-2. F1600.
N1136 G0 Z10.2
N1137 X-5. Y29.034
N1138 Z-2.
N1139 G1 Z-5. F1600.
N1140 X-2.5 Y30.092 F1600.
N1141 G2 X.5 Y30.7 I3. J-7.092 F1600.
N1142 G1 X17.927 F1600.
N1143 G2 X20.647 Y32.317 I5.11 J-5.501 F1600.
N1144 G3 X23.62 Y33.756 I-3.658 J11.351 F1600.
N1145 X20.779 Y35.125 I-6.341 J-9.522 F1600.
N1146 G2 X18.077 Y36.8 I2.49 J7.035 F1600.
N1147 G1 X17.6 F1600.
N1148 G2 X8.005 Y45.076 I0.0 J9.7 F1600.
N1149 G1 X5.204 Y48.79 F1600.
N1150 G2 X4.296 Y51.5 I3.593 J2.71 F1600.
N1151 G1 Y54. F1600.
N1152 Z-2. F1600.
N1153 G0 Z10.2
N1154 X-5. Y27.044
N1155 Z-2.
N1156 G1 Z-5. F1600.
N1157 X-2.5 Y28.426 F1600.
N1158 G2 X.5 Y29.2 I3. J-5.426 F1600.
N1159 G1 X18.555 F1600.
N1160 G2 X21.09 Y30.884 I4.483 J-4.001 F1600.
N1161 G3 X25.692 Y33.445 I-4.101 J12.784 F1600.
N1162 X25.924 Y33.738 I-.618 J.725 F1600.
N1163 X25.592 Y34.151 I-1.038 J-.496 F1600.
N1164 X21.263 Y36.545 I-8.312 J-9.917 F1600.
N1165 G2 X18.725 Y38.3 I2.007 J5.615 F1600.
N1166 G1 X17.6 F1600.
N1167 G2 X9.443 Y45.66 I0.0 J8.2 F1600.
N1168 G1 X6.401 Y49.694 F1600.
N1169 G2 X5.796 Y51.5 I2.395 J1.806 F1600.
N1170 G1 Y54. F1600.
N1171 Z-2. F1600.
N1172 G0 Z10.2
N1173 X-5. Y24.545
N1174 Z-2.
N1175 G1 Z-5. F1600.
N1176 X-2.5 Y26.618 F1600.
N1177 G2 X.5 Y27.7 I3. J-3.618 F1600.
N1178 G1 X19.286 F1600.
N1179 G2 X21.565 Y29.461 I3.752 J-2.501 F1600.
N1180 G3 X26.664 Y32.303 I-4.576 J14.207 F1600.
N1181 X27.489 Y33.739 I-1.59 J1.867 F1600.
N1182 X26.542 Y35.312 I-2.604 J-.497 F1600.
N1183 X21.75 Y37.964 I-9.262 J-11.078 F1600.
N1184 G2 X19.482 Y39.8 I1.519 J4.196 F1600.
N1185 G1 X17.6 F1600.
N1186 G2 X10.906 Y46.212 I0.0 J6.7 F1600.
N1187 G1 X7.599 Y50.597 F1600.
N1188 G2 X7.296 Y51.5 I1.198 J.903 F1600.
N1189 G1 Y54. F1600.
N1190 Z-2. F1600.
N1191 G0 Z10.2
N1192 X-5.2 Y21.77
N1193 Z-2.
N1194 G1 Z-5. F1600.
N1195 X-3.37 F1600.
N1196 X-2.5 Y24.114 F1600.
N1197 G2 X.5 Y26.2 I3. J-1.114 F1600.
N1198 G1 X20. F1600.
N1199 G3 X20.253 Y26.339 I0.0 J.3 F1600.
N1200 G2 X22.044 Y28.039 I2.784 J-1.14 F1600.
N1201 G3 X27.637 Y31.161 I-5.055 J15.628 F1600.
N1202 X29.005 Y33.75 I-2.562 J3.01 F1600.
N1203 X27.494 Y36.471 I-4.119 J-.508 F1600.
N1204 X22.244 Y39.381 I-10.214 J-12.238 F1600.
N1205 G2 X20.434 Y41.3 I1.026 J2.779 F1600.
N1206 G1 X17.6 F1600.
N1207 G2 X16.172 Y51.5 I0.0 J5.2 F1600.
N1208 G1 X15.969 F1600.
N1209 G3 X12.349 Y46.789 I1.634 J-5.001 F1600.
N1210 G1 X8.796 Y51.5 F1600.
N1211 X6.911 Y54. F1600.
N1212 Z-2. F1600.
N1213 G0 Z10.2
N1214 X-5. Y40.533
N1215 Z-3.
N1216 G1 Z-6. F1600.
N1217 X-2.5 Y40.951 F1600.
N1218 G2 X-2.084 Y41.016 I3. J-17.951 F1600.
N1219 G1 X-2.5 Y41.567 F1600.
N1220 X-5. Y44.881 F1600.
N1221 Z-3. F1600.
N1222 G0 Z10.2
N1223 Y38.972
N1224 Z-3.
N1225 G1 Z-6. F1600.
N1226 X-2.5 Y39.428 F1600.
N1227 G2 X.181 Y39.697 I3. J-16.428 F1600.
N1228 X-.326 Y41.175 I17.419 J6.803 F1600.
N1229 G1 X-1.982 Y43.371 F1600.
N1230 G2 X-2.5 Y44.108 I10.778 J8.129 F1600.
N1231 G1 X-5. Y47.928 F1600.
N1232 Z-3. F1600.
N1233 G0 Z10.2
N1234 Y37.398
N1235 Z-3.
N1236 G1 Z-6. F1600.
N1237 X-2.5 Y37.901 F1600.
N1238 G2 X.5 Y38.2 I3. J-14.901 F1600.
N1239 G1 X2.535 F1600.
N1240 G2 X2.36 Y38.525 I15.065 J8.3 F1600.
N1241 X1.038 Y41.858 I15.24 J7.975 F1600.
N1242 G1 X-.784 Y44.274 F1600.
N1243 G2 X-2.5 Y47.451 I9.58 J7.226 F1600.
N1244 G1 X-4.087 Y51.88 F1600.
N1245 Z-3. F1600.
N1246 G0 Z10.2
N1247 X-5. Y35.806
N1248 Z-3.
N1249 G1 Z-6. F1600.
N1250 X-2.5 Y36.367 F1600.
N1251 G2 X.5 Y36.7 I3. J-13.367 F1600.
N1252 G1 X5.334 F1600.
N1253 G2 X3.689 Y39.221 I12.266 J9.8 F1600.
N1254 X2.41 Y42.53 I13.911 J7.279 F1600.
N1255 G1 X.413 Y45.177 F1600.
N1256 G2 X-1.684 Y50.848 I8.383 J6.323 F1600.
N1257 G1 X-1.857 Y53.642 F1600.
N1258 Z-3. F1600.
N1259 G0 Z10.2
N1260 X-5. Y34.191
N1261 Z-3.
N1262 G1 Z-6. F1600.
N1263 X-2.5 Y34.825 F1600.
N1264 G2 X.5 Y35.2 I3. J-11.825 F1600.
N1265 G1 X9. F1600.
N1266 G2 X5.019 Y39.916 I8.6 J11.3 F1600.
N1267 X3.791 Y43.19 I12.581 J6.584 F1600.
N1268 G1 X1.611 Y46.081 F1600.
N1269 G2 X-.204 Y51.492 I7.185 J5.419 F1600.
N1270 G1 X-.206 Y53.996 F1600.
N1271 Z-3. F1600.
N1272 G0 Z10.2
N1273 X-5. Y32.541
N1274 Z-3.
N1275 G1 Z-6. F1600.
N1276 X-2.5 Y33.271 F1600.
N1277 G2 X.5 Y33.7 I3. J-10.271 F1600.
N1278 G1 X15.566 F1600.
N1279 G2 X15.206 Y34.028 I4.865 J5.708 F1600.
N1280 X6.348 Y40.612 I2.394 J12.472 F1600.
N1281 X5.183 Y43.836 I11.252 J5.888 F1600.
N1282 G1 X2.808 Y46.984 F1600.
N1283 G2 X1.296 Y51.5 I5.988 J4.516 F1600.
N1284 G1 Y54. F1600.
N1285 Z-3. F1600.
N1286 G0 Z10.2
N1287 X-5. Y30.835
N1288 Z-3.
N1289 G1 Z-6. F1600.
N1290 X-2.5 Y31.697 F1600.
N1291 G2 X.5 Y32.2 I3. J-8.697 F1600.
N1292 G1 X16.71 F1600.
N1293 G2 X18.539 Y33.698 I6.595 J-6.183 F1600.
N1294 G1 X18.147 Y33.86 F1600.
N1295 G2 X15.946 Y35.423 I2.284 J5.548 F1600.
N1296 X7.677 Y41.307 I1.654 J11.077 F1600.
N1297 X6.586 Y44.466 I9.923 J5.193 F1600.
N1298 G1 X4.006 Y47.887 F1600.
N1299 G2 X2.796 Y51.5 I4.79 J3.613 F1600.
N1300 G1 Y54. F1600.
N1301 Z-3. F1600.
N1302 G0 Z10.2
N1303 X-5. Y29.034
N1304 Z-3.
N1305 G1 Z-6. F1600.
N1306 X-2.5 Y30.092 F1600.
N1307 G2 X.5 Y30.7 I3. J-7.092 F1600.
N1308 G1 X17.396 F1600.
N1309 G2 X20.213 Y32.894 I5.91 J-4.683 F1600.
N1310 G3 X21.78 Y33.754 I-3.112 J7.522 F1600.
N1311 X20.271 Y34.575 I-4.276 J-6.066 F1600.
N1312 G2 X19.801 Y34.801 I2.998 J6.831 F1600.
N1313 G1 X18.718 Y35.247 F1600.
N1314 G2 X16.737 Y36.838 I1.713 J4.161 F1600.
N1315 X9.006 Y42.003 I.863 J9.662 F1600.
N1316 X8.005 Y45.076 I8.594 J4.497 F1600.
N1317 G1 X5.204 Y48.79 F1600.
N1318 G2 X4.296 Y51.5 I3.593 J2.71 F1600.
N1319 G1 Y54. F1600.
N1320 Z-3. F1600.
N1321 G0 Z10.2
N1322 X-5. Y27.044
N1323 Z-3.
N1324 G1 Z-6. F1600.
N1325 X-2.5 Y28.426 F1600.
N1326 G2 X.5 Y29.2 I3. J-5.426 F1600.
N1327 G1 X18.172 F1600.
N1328 G2 X20.812 Y31.518 I5.133 J-3.183 F1600.
N1329 G3 X24.058 Y33.742 I-3.71 J8.898 F1600.
N1330 X20.856 Y35.956 I-6.554 J-6.053 F1600.
N1331 G2 X20.44 Y36.16 I2.412 J5.45 F1600.
N1332 G1 X19.289 Y36.634 F1600.
N1333 G2 X17.643 Y38.3 I1.142 J2.774 F1600.
N1334 X10.335 Y42.698 I-.043 J8.2 F1600.
N1335 X9.443 Y45.66 I7.265 J3.802 F1600.
N1336 G1 X6.401 Y49.694 F1600.
N1337 G2 X5.796 Y51.5 I2.395 J1.806 F1600.
N1338 G1 Y54. F1600.
N1339 Z-3. F1600.
N1340 G0 Z10.2
N1341 X-5. Y24.545
N1342 Z-3.
N1343 G1 Z-6. F1600.
N1344 X-2.5 Y26.618 F1600.
N1345 G2 X.5 Y27.7 I3. J-3.618 F1600.
N1346 G1 X19.088 F1600.
N1347 G2 X21.415 Y30.145 I4.217 J-1.683 F1600.
N1348 G3 X25.221 Y32.788 I-4.313 J10.272 F1600.
N1349 X25.24 Y34.672 I-1.013 J.952 F1600.
N1350 X21.446 Y37.335 I-7.735 J-6.983 F1600.
N1351 G2 X21.089 Y37.515 I1.821 J4.071 F1600.
N1352 G1 X19.86 Y38.021 F1600.
N1353 G2 X18.933 Y39.335 I.571 J1.387 F1600.
N1354 G1 X18.91 Y39.8 F1600.
N1355 X17.6 F1600.
N1356 G2 X10.906 Y46.212 I0.0 J6.7 F1600.
N1357 G1 X7.599 Y50.597 F1600.
N1358 G2 X7.296 Y51.5 I1.198 J.903 F1600.
N1359 G1 Y54. F1600.
N1360 Z-3. F1600.
N1361 G0 Z10.2
N1362 X-5.2 Y21.77
N1363 Z-3.
N1364 G1 Z-6. F1600.
N1365 X-3.37 F1600.
N1366 X-2.5 Y24.114 F1600.
N1367 G2 X.5 Y26.2 I3. J-1.114 F1600.
N1368 G1 X20. F1600.
N1369 G3 X20.296 Y26.453 I0.0 J.3 F1600.
N1370 G2 X22.023 Y28.773 I3.009 J-.437 F1600.
N1371 G3 X26.314 Y31.761 I-4.921 J11.643 F1600.
N1372 X26.353 Y35.677 I-2.106 J1.979 F1600.
N1373 X22.042 Y38.712 I-8.849 J-7.988 F1600.
N1374 G2 X21.751 Y38.864 I1.224 J2.695 F1600.
N1375 G1 X20.431 Y39.408 F1600.
N1376 X20.408 Y39.873 F1600.
N1377 X20.391 Y40.28 F1600.
N1378 Y40.708 F1600.
N1379 G2 X20.309 Y41.3 I2.876 J.699 F1600.
N1380 G1 X17.6 F1600.
N1381 G2 X16.172 Y51.5 I0.0 J5.2 F1600.
N1382 G1 X15.969 F1600.
N1383 G3 X12.349 Y46.789 I1.634 J-5.001 F1600.
N1384 G1 X8.796 Y51.5 F1600.
N1385 X6.911 Y54. F1600.
N1386 Z-3. F1600.
N1387 G0 Z10.2
N1388 X-5. Y40.533
N1389 Z-4.
N1390 G1 Z-7. F1600.
N1391 X-2.5 Y40.951 F1600.
N1392 G2 X-2.084 Y41.016 I3. J-17.951 F1600.
N1393 G1 X-2.5 Y41.567 F1600.
N1394 X-5. Y44.881 F1600.
N1395 Z-4. F1600.
N1396 G0 Z10.2
N1397 Y38.972
N1398 Z-4.
N1399 G1 Z-7. F1600.
N1400 X-2.5 Y39.428 F1600.
N1401 G2 X.181 Y39.697 I3. J-16.428 F1600.
N1402 X-.326 Y41.175 I17.419 J6.803 F1600.
N1403 G1 X-1.982 Y43.371 F1600.
N1404 G2 X-2.5 Y44.108 I10.778 J8.129 F1600.
N1405 G1 X-5. Y47.928 F1600.
N1406 Z-4. F1600.
N1407 G0 Z10.2
N1408 Y37.398
N1409 Z-4.
N1410 G1 Z-7. F1600.
N1411 X-2.5 Y37.901 F1600.
N1412 G2 X.5 Y38.2 I3. J-14.901 F1600.
N1413 G1 X2.535 F1600.
N1414 G2 X1.038 Y41.858 I15.065 J8.3 F1600.
N1415 G1 X-.784 Y44.274 F1600.
N1416 G2 X-2.5 Y47.451 I9.58 J7.226 F1600.
N1417 G1 X-4.087 Y51.88 F1600.
N1418 Z-4. F1600.
N1419 G0 Z10.2
N1420 X-5. Y35.806
N1421 Z-4.
N1422 G1 Z-7. F1600.
N1423 X-2.5 Y36.367 F1600.
N1424 G2 X.5 Y36.7 I3. J-13.367 F1600.
N1425 G1 X5.334 F1600.
N1426 G2 X2.41 Y42.53 I12.266 J9.8 F1600.
N1427 G1 X.413 Y45.177 F1600.
N1428 G2 X-1.684 Y50.848 I8.383 J6.323 F1600.
N1429 G1 X-1.857 Y53.642 F1600.
N1430 Z-4. F1600.
N1431 G0 Z10.2
N1432 X-5. Y34.191
N1433 Z-4.
N1434 G1 Z-7. F1600.
N1435 X-2.5 Y34.825 F1600.
N1436 G2 X.5 Y35.2 I3. J-11.825 F1600.
N1437 G1 X9.001 F1600.
N1438 G2 X3.791 Y43.19 I8.599 J11.3 F1600.
N1439 G1 X1.611 Y46.081 F1600.
N1440 G2 X-.204 Y51.492 I7.185 J5.419 F1600.
N1441 G1 X-.206 Y53.996 F1600.
N1442 Z-4. F1600.
N1443 G0 Z10.2
N1444 X-5. Y32.541
N1445 Z-4.
N1446 G1 Z-7. F1600.
N1447 X-2.5 Y33.271 F1600.
N1448 G2 X.5 Y33.7 I3. J-10.271 F1600.
N1449 G1 X14.76 F1600.
N1450 G2 X14.337 Y34.226 I5.631 J4.955 F1600.
N1451 X5.183 Y43.836 I3.263 J12.274 F1600.
N1452 G1 X2.808 Y46.984 F1600.
N1453 G2 X1.296 Y51.5 I5.988 J4.516 F1600.
N1454 G1 Y54. F1600.
N1455 Z-4. F1600.
N1456 G0 Z10.2
N1457 X-5. Y30.835
N1458 Z-4.
N1459 G1 Z-7. F1600.
N1460 X-2.5 Y31.697 F1600.
N1461 G2 X.5 Y32.2 I3. J-8.697 F1600.
N1462 G1 X15.95 F1600.
N1463 G2 X17.16 Y33.598 I7.459 J-5.23 F1600.
N1464 X15.258 Y35.548 I3.23 J5.056 F1600.
N1465 X6.586 Y44.466 I2.342 J10.952 F1600.
N1466 G1 X4.006 Y47.887 F1600.
N1467 G2 X2.796 Y51.5 I4.79 J3.613 F1600.
N1468 G1 Y54. F1600.
N1469 Z-4. F1600.
N1470 G0 Z10.2
N1471 X-5. Y29.034
N1472 Z-4.
N1473 G1 Z-7. F1600.
N1474 X-2.5 Y30.092 F1600.
N1475 G2 X.5 Y30.7 I3. J-7.092 F1600.
N1476 G1 X16.776 F1600.
N1477 G2 X19.554 Y33.531 I6.633 J-3.73 F1600.
N1478 G3 X19.926 Y33.75 I-2.177 J4.121 F1600.
N1479 X19.57 Y33.952 I-2.317 J-3.656 F1600.
N1480 G2 X19.186 Y34.193 I3.86 J6.576 F1600.
N1481 G1 X18.262 Y34.69 F1600.
N1482 G2 X16.249 Y36.895 I2.129 J3.965 F1600.
N1483 X8.005 Y45.076 I1.351 J9.605 F1600.
N1484 G1 X5.204 Y48.79 F1600.
N1485 G2 X4.296 Y51.5 I3.593 J2.71 F1600.
N1486 G1 Y54. F1600.
N1487 Z-4. F1600.
N1488 G0 Z10.2
N1489 X-5. Y27.044
N1490 Z-4.
N1491 G1 Z-7. F1600.
N1492 X-2.5 Y28.426 F1600.
N1493 G2 X.5 Y29.2 I3. J-5.426 F1600.
N1494 G1 X17.721 F1600.
N1495 G2 X20.292 Y32.225 I5.688 J-2.23 F1600.
N1496 G3 X22.147 Y33.752 I-2.914 J5.428 F1600.
N1497 X20.3 Y35.264 I-4.536 J-3.659 F1600.
N1498 G2 X19.964 Y35.478 I3.129 J5.265 F1600.
N1499 G1 X18.971 Y36.012 F1600.
N1500 G2 X17.411 Y38.302 I1.419 J2.643 F1600.
N1501 X9.443 Y45.66 I.189 J8.198 F1600.
N1502 G1 X6.401 Y49.694 F1600.
N1503 G2 X5.796 Y51.5 I2.395 J1.806 F1600.
N1504 G1 Y54. F1600.
N1505 Z-4. F1600.
N1506 G0 Z10.2
N1507 X-5. Y24.545
N1508 Z-4.
N1509 G1 Z-7. F1600.
N1510 X-2.5 Y26.618 F1600.
N1511 G2 X.5 Y27.7 I3. J-3.618 F1600.
N1512 G1 X18.858 F1600.
N1513 G2 X21.037 Y30.922 I4.552 J-.73 F1600.
N1514 G3 X23.487 Y33.03 I-3.658 J6.731 F1600.
N1515 X23.484 Y34.475 I-.922 J.721 F1600.
N1516 X21.039 Y36.57 I-5.873 J-4.382 F1600.
N1517 G2 X20.75 Y36.759 I2.388 J3.96 F1600.
N1518 G1 X19.681 Y37.333 F1600.
N1519 G2 X18.891 Y38.655 I.71 J1.322 F1600.
N1520 G1 Y39.619 F1600.
N1521 X18.858 Y39.8 F1600.
N1522 X17.6 F1600.
N1523 G2 X10.906 Y46.212 I0.0 J6.7 F1600.
N1524 G1 X7.599 Y50.597 F1600.
N1525 G2 X7.296 Y51.5 I1.198 J.903 F1600.
N1526 G1 Y54. F1600.
N1527 Z-4. F1600.
N1528 G0 Z10.2
N1529 X-5.2 Y21.77
N1530 Z-4.
N1531 G1 Z-7. F1600.
N1532 X-3.37 F1600.
N1533 X-2.5 Y24.114 F1600.
N1534 G2 X.5 Y26.2 I3. J-1.114 F1600.
N1535 G1 X20. F1600.
N1536 G3 X20.3 Y26.5 I0.0 J.3 F1600.
N1537 G1 Y26.921 F1600.
N1538 G2 X21.789 Y29.624 I3.11 J.048 F1600.
N1539 G3 X24.678 Y32.118 I-4.411 J8.029 F1600.
N1540 X24.679 Y35.383 I-2.113 J1.633 F1600.
N1541 X21.787 Y37.871 I-7.067 J-5.29 F1600.
N1542 G2 X21.55 Y38.032 I1.637 J2.661 F1600.
N1543 G1 X20.391 Y38.655 F1600.
N1544 Y39.784 F1600.
N1545 G2 X20.3 Y40.576 I3.034 J.748 F1600.
N1546 G1 Y41.3 F1600.
N1547 X17.6 F1600.
N1548 G2 X16.172 Y51.5 I0.0 J5.2 F1600.
N1549 G1 X15.969 F1600.
N1550 G3 X12.349 Y46.789 I1.634 J-5.001 F1600.
N1551 G1 X8.796 Y51.5 F1600.
N1552 X6.911 Y54. F1600.
N1553 Z-4. F1600.
N1554 G0 Z10.2
N1555 X-5. Y40.533
N1556 Z-5.
N1557 G1 Z-8. F1600.
N1558 X-2.5 Y40.951 F1600.
N1559 G2 X-2.084 Y41.016 I3. J-17.951 F1600.
N1560 G1 X-2.5 Y41.567 F1600.
N1561 X-5. Y44.881 F1600.
N1562 Z-5. F1600.
N1563 G0 Z10.2
N1564 Y38.972
N1565 Z-5.
N1566 G1 Z-8. F1600.
N1567 X-2.5 Y39.428 F1600.
N1568 G2 X.181 Y39.697 I3. J-16.428 F1600.
N1569 X-.326 Y41.175 I17.419 J6.803 F1600.
N1570 G1 X-1.982 Y43.371 F1600.
N1571 G2 X-2.5 Y44.108 I10.778 J8.129 F1600.
N1572 G1 X-5. Y47.928 F1600.
N1573 Z-5. F1600.
N1574 G0 Z10.2
N1575 Y37.398
N1576 Z-5.
N1577 G1 Z-8. F1600.
N1578 X-2.5 Y37.901 F1600.
N1579 G2 X.5 Y38.2 I3. J-14.901 F1600.
N1580 G1 X2.535 F1600.
N1581 G2 X1.038 Y41.858 I15.065 J8.3 F1600.
N1582 G1 X-.784 Y44.274 F1600.
N1583 G2 X-2.5 Y47.451 I9.58 J7.226 F1600.
N1584 G1 X-4.087 Y51.88 F1600.
N1585 Z-5. F1600.
N1586 G0 Z10.2
N1587 X-5. Y35.806
N1588 Z-5.
N1589 G1 Z-8. F1600.
N1590 X-2.5 Y36.367 F1600.
N1591 G2 X.5 Y36.7 I3. J-13.367 F1600.
N1592 G1 X5.334 F1600.
N1593 G2 X2.41 Y42.53 I12.266 J9.8 F1600.
N1594 G1 X.413 Y45.177 F1600.
N1595 G2 X-1.684 Y50.848 I8.383 J6.323 F1600.
N1596 G1 X-1.857 Y53.642 F1600.
N1597 Z-5. F1600.
N1598 G0 Z10.2
N1599 X-5. Y34.191
N1600 Z-5.
N1601 G1 Z-8. F1600.
N1602 X-2.5 Y34.825 F1600.
N1603 G2 X.5 Y35.2 I3. J-11.825 F1600.
N1604 G1 X9.001 F1600.
N1605 G2 X3.791 Y43.19 I8.599 J11.3 F1600.
N1606 G1 X1.611 Y46.081 F1600.
N1607 G2 X-.204 Y51.492 I7.185 J5.419 F1600.
N1608 G1 X-.206 Y53.996 F1600.
N1609 Z-5. F1600.
N1610 G0 Z10.2
N1611 X-5. Y32.541
N1612 Z-5.
N1613 G1 Z-8. F1600.
N1614 X-2.5 Y33.271 F1600.
N1615 G2 X.5 Y33.7 I3. J-10.271 F1600.
N1616 G1 X13.967 F1600.
N1617 G2 X13.568 Y34.457 I6.423 J3.872 F1600.
N1618 X5.183 Y43.836 I4.032 J12.043 F1600.
N1619 G1 X2.808 Y46.984 F1600.
N1620 G2 X1.296 Y51.5 I5.988 J4.516 F1600.
N1621 G1 Y54. F1600.
N1622 Z-5. F1600.
N1623 G0 Z10.2
N1624 X-5. Y30.835
N1625 Z-5.
N1626 G1 Z-8. F1600.
N1627 X-2.5 Y31.697 F1600.
N1628 G2 X.5 Y32.2 I3. J-8.697 F1600.
N1629 G1 X15.217 F1600.
N1630 G2 X15.979 Y33.505 I8.41 J-4.034 F1600.
N1631 X14.695 Y35.683 I4.412 J4.067 F1600.
N1632 X6.586 Y44.466 I2.905 J10.817 F1600.
N1633 G1 X4.006 Y47.887 F1600.
N1634 G2 X2.796 Y51.5 I4.79 J3.613 F1600.
N1635 G1 Y54. F1600.
N1636 Z-5. F1600.
N1637 G0 Z10.2
N1638 X-5. Y29.034
N1639 Z-5.
N1640 G1 Z-8. F1600.
N1641 X-2.5 Y30.092 F1600.
N1642 G2 X.5 Y30.7 I3. J-7.092 F1600.
N1643 G1 X16.221 F1600.
N1644 G2 X18.088 Y33.696 I7.406 J-2.534 F1600.
N1645 G1 X17.866 Y33.847 F1600.
N1646 G2 X15.934 Y36.944 I2.525 J3.725 F1600.
N1647 X8.005 Y45.076 I1.666 J9.556 F1600.
N1648 G1 X5.204 Y48.79 F1600.
N1649 G2 X4.296 Y51.5 I3.593 J2.71 F1600.
N1650 G1 Y54. F1600.
N1651 Z-5. F1600.
N1652 G0 Z10.2
N1653 X-5. Y27.044
N1654 Z-5.
N1655 G1 Z-8. F1600.
N1656 X-2.5 Y28.426 F1600.
N1657 G2 X.5 Y29.2 I3. J-5.426 F1600.
N1658 G1 X17.385 F1600.
N1659 G2 X19.644 Y33.083 I6.242 J-1.034 F1600.
N1660 G3 X20.265 Y33.761 I-.788 J1.346 F1600.
N1661 X19.736 Y34.355 I-1.309 J-.631 F1600.
N1662 G1 X19.645 Y34.413 F1600.
N1663 X19.498 Y34.54 F1600.
N1664 X19.435 Y34.595 F1600.
N1665 X18.707 Y35.088 F1600.
N1666 G2 X17.391 Y37.572 I1.683 J2.483 F1600.
N1667 G1 X17.384 Y38.303 F1600.
N1668 G2 X9.443 Y45.66 I.216 J8.197 F1600.
N1669 G1 X6.401 Y49.694 F1600.
N1670 G2 X5.796 Y51.5 I2.395 J1.806 F1600.
N1671 G1 Y54. F1600.
N1672 Z-5. F1600.
N1673 G0 Z10.2
N1674 X-5. Y24.545
N1675 Z-5.
N1676 G1 Z-8. F1600.
N1677 X-2.5 Y26.618 F1600.
N1678 G2 X.5 Y27.7 I3. J-3.618 F1600.
N1679 G1 X18.8 F1600.
N1680 Y28.098 F1600.
N1681 G2 X20.539 Y31.876 I4.826 J.068 F1600.
N1682 G3 X21.842 Y33.757 I-1.681 J2.556 F1600.
N1683 X20.542 Y35.621 I-2.886 J-.628 F1600.
N1684 G1 X20.476 Y35.677 F1600.
N1685 X20.361 Y35.779 F1600.
N1686 X19.549 Y36.33 F1600.
N1687 G2 X18.891 Y37.572 I.842 J1.242 F1600.
N1688 G1 Y38.4 F1600.
N1689 G2 X18.8 Y39.405 I4.733 J.933 F1600.
N1690 G1 Y39.8 F1600.
N1691 X17.6 F1600.
N1692 G2 X10.906 Y46.212 I0.0 J6.7 F1600.
N1693 G1 X7.599 Y50.597 F1600.
N1694 G2 X7.296 Y51.5 I1.198 J.903 F1600.
N1695 G1 Y54. F1600.
N1696 Z-5. F1600.
N1697 G0 Z10.2
N1698 X-5.2 Y21.77
N1699 Z-5.
N1700 G1 Z-8. F1600.
N1701 X-3.37 F1600.
N1702 X-2.5 Y24.114 F1600.
N1703 G2 X.5 Y26.2 I3. J-1.114 F1600.
N1704 G1 X20. F1600.
N1705 G3 X20.3 Y26.5 I0.0 J.3 F1600.
N1706 G1 Y28.109 F1600.
N1707 G2 X21.458 Y30.688 I3.326 J.055 F1600.
N1708 G3 X23.366 Y33.75 I-2.6 J3.746 F1600.
N1709 X21.455 Y36.814 I-4.409 J-.623 F1600.
N1710 G2 X21.303 Y36.953 I2.168 J2.519 F1600.
N1711 G1 X20.391 Y37.572 F1600.
N1712 Y38.103 F1600.
N1713 Y38.56 F1600.
N1714 G2 X20.3 Y39.393 I3.233 J.773 F1600.
N1715 G1 Y41.3 F1600.
N1716 X17.6 F1600.
N1717 G2 X16.172 Y51.5 I0.0 J5.2 F1600.
N1718 G1 X15.969 F1600.
N1719 G3 X12.349 Y46.789 I1.634 J-5.001 F1600.
N1720 G1 X8.796 Y51.5 F1600.
N1721 X6.911 Y54. F1600.
N1722 Z-5. F1600.
N1723 G0 Z10.2
N1724 X-5. Y40.533
N1725 Z-6.
N1726 G1 Z-9. F1600.
N1727 X-2.5 Y40.951 F1600.
N1728 G2 X-2.084 Y41.016 I3. J-17.951 F1600.
N1729 G1 X-2.5 Y41.567 F1600.
N1730 X-5. Y44.881 F1600.
N1731 Z-6. F1600.
N1732 G0 Z10.2
N1733 Y38.972
N1734 Z-6.
N1735 G1 Z-9. F1600.
N1736 X-2.5 Y39.428 F1600.
N1737 G2 X.181 Y39.697 I3. J-16.428 F1600.
N1738 X-.326 Y41.175 I17.419 J6.803 F1600.
N1739 G1 X-1.982 Y43.371 F1600.
N1740 G2 X-2.5 Y44.108 I10.778 J8.129 F1600.
N1741 G1 X-5. Y47.928 F1600.
N1742 Z-6. F1600.
N1743 G0 Z10.2
N1744 Y37.398
N1745 Z-6.
N1746 G1 Z-9. F1600.
N1747 X-2.5 Y37.901 F1600.
N1748 G2 X.5 Y38.2 I3. J-14.901 F1600.
N1749 G1 X2.535 F1600.
N1750 G2 X1.038 Y41.858 I15.065 J8.3 F1600.
N1751 G1 X-.784 Y44.274 F1600.
N1752 G2 X-2.5 Y47.451 I9.58 J7.226 F1600.
N1753 G1 X-4.087 Y51.88 F1600.
N1754 Z-6. F1600.
N1755 G0 Z10.2
N1756 X-5. Y35.806
N1757 Z-6.
N1758 G1 Z-9. F1600.
N1759 X-2.5 Y36.367 F1600.
N1760 G2 X.5 Y36.7 I3. J-13.367 F1600.
N1761 G1 X5.334 F1600.
N1762 G2 X2.41 Y42.53 I12.266 J9.8 F1600.
N1763 G1 X.413 Y45.177 F1600.
N1764 G2 X-1.684 Y50.848 I8.383 J6.323 F1600.
N1765 G1 X-1.857 Y53.642 F1600.
N1766 Z-6. F1600.
N1767 G0 Z10.2
N1768 X-5. Y34.191
N1769 Z-6.
N1770 G1 Z-9. F1600.
N1771 X-2.5 Y34.825 F1600.
N1772 G2 X.5 Y35.2 I3. J-11.825 F1600.
N1773 G1 X9.001 F1600.
N1774 G2 X3.791 Y43.19 I8.599 J11.3 F1600.
N1775 G1 X1.611 Y46.081 F1600.
N1776 G2 X-.204 Y51.492 I7.185 J5.419 F1600.
N1777 G1 X-.206 Y53.996 F1600.
N1778 Z-6. F1600.
N1779 G0 Z10.2
N1780 X-5. Y32.541
N1781 Z-6.
N1782 G1 Z-9. F1600.
N1783 X-2.5 Y33.271 F1600.
N1784 G2 X.5 Y33.7 I3. J-10.271 F1600.
N1785 G1 X13.294 F1600.
N1786 G2 X13.038 Y34.648 I7.096 J2.428 F1600.
N1787 X5.183 Y43.836 I4.562 J11.852 F1600.
N1788 G1 X2.808 Y46.984 F1600.
N1789 G2 X1.296 Y51.5 I5.988 J4.516 F1600.
N1790 G1 Y54. F1600.
N1791 Z-6. F1600.
N1792 G0 Z10.2
N1793 X-5. Y30.835
N1794 Z-6.
N1795 G1 Z-9. F1600.
N1796 X-2.5 Y31.697 F1600.
N1797 G2 X.5 Y32.2 I3. J-8.697 F1600.
N1798 G1 X14.558 F1600.
N1799 G2 X14.97 Y33.556 I9.971 J-2.288 F1600.
N1800 X14.401 Y35.766 I5.421 J2.572 F1600.
N1801 X6.586 Y44.466 I3.199 J10.734 F1600.
N1802 G1 X4.006 Y47.887 F1600.
N1803 G2 X2.796 Y51.5 I4.79 J3.613 F1600.
N1804 G1 Y54. F1600.
N1805 Z-6. F1600.
N1806 G0 Z10.2
N1807 X-5. Y29.034
N1808 Z-6.
N1809 G1 Z-9. F1600.
N1810 X-2.5 Y30.092 F1600.
N1811 G2 X.5 Y30.7 I3. J-7.092 F1600.
N1812 G1 X15.834 F1600.
N1813 G2 X16.637 Y33.645 I8.695 J-.788 F1600.
N1814 X15.89 Y36.128 I3.753 J2.483 F1600.
N1815 G1 Y36.331 F1600.
N1816 G2 X15.822 Y36.964 I8.661 J1.263 F1600.
N1817 X8.005 Y45.076 I1.778 J9.536 F1600.
N1818 G1 X5.204 Y48.79 F1600.
N1819 G2 X4.296 Y51.5 I3.593 J2.71 F1600.
N1820 G1 Y54. F1600.
N1821 Z-6. F1600.
N1822 G0 Z10.2
N1823 X-5. Y27.044
N1824 Z-6.
N1825 G1 Z-9. F1600.
N1826 X-2.5 Y28.426 F1600.
N1827 G2 X.5 Y29.2 I3. J-5.426 F1600.
N1828 G1 X17.3 F1600.
N1829 Y29.773 F1600.
N1830 G2 X18.402 Y33.75 I7.229 J.139 F1600.
N1831 G1 X18.3 Y33.917 F1600.
N1832 X17.995 Y34.322 F1600.
N1833 G2 X17.39 Y36.128 I2.395 J1.806 F1600.
N1834 G1 Y36.445 F1600.
N1835 G2 X17.3 Y37.727 I7.161 J1.149 F1600.
N1836 G1 Y38.305 F1600.
N1837 G2 X9.443 Y45.66 I.3 J8.195 F1600.
N1838 G1 X6.401 Y49.694 F1600.
N1839 G2 X5.796 Y51.5 I2.395 J1.806 F1600.
N1840 G1 Y54. F1600.
N1841 Z-6. F1600.
N1842 G0 Z10.2
N1843 X-5. Y24.545
N1844 Z-6.
N1845 G1 Z-9. F1600.
N1846 X-2.5 Y26.618 F1600.
N1847 G2 X.5 Y27.7 I3. J-3.618 F1600.
N1848 G1 X18.8 F1600.
N1849 Y29.788 F1600.
N1850 G2 X19.7 Y32.998 I5.729 J.124 F1600.
N1851 G3 Y34.502 I-.878 J.752 F1600.
N1852 G1 X19.664 Y34.561 F1600.
N1853 G2 X19.552 Y34.748 I4.888 J3.034 F1600.
N1854 G1 X19.193 Y35.225 F1600.
N1855 G2 X18.89 Y36.128 I1.198 J.903 F1600.
N1856 G1 Y36.572 F1600.
N1857 G2 X18.8 Y37.712 I5.661 J1.023 F1600.
N1858 G1 Y39.8 F1600.
N1859 X17.6 F1600.
N1860 G2 X10.906 Y46.212 I0.0 J6.7 F1600.
N1861 G1 X7.599 Y50.597 F1600.
N1862 G2 X7.296 Y51.5 I1.198 J.903 F1600.
N1863 G1 Y54. F1600.
N1864 Z-6. F1600.
N1865 G0 Z10.2
N1866 X-5.2 Y21.77
N1867 Z-6.
N1868 G1 Z-9. F1600.
N1869 X-3.37 F1600.
N1870 X-2.5 Y24.114 F1600.
N1871 G2 X.5 Y26.2 I3. J-1.114 F1600.
N1872 G1 X20. F1600.
N1873 G3 X20.3 Y26.5 I0.0 J.3 F1600.
N1874 G1 Y29.805 F1600.
N1875 G2 X20.938 Y32.147 I4.229 J.106 F1600.
N1876 G3 Y35.352 I-2.118 J1.603 F1600.
N1877 G2 X20.813 Y35.568 I3.613 J2.243 F1600.
N1878 G1 X20.39 Y36.128 F1600.
N1879 Y36.716 F1600.
N1880 G2 X20.3 Y37.696 I4.161 J.878 F1600.
N1881 G1 Y41.3 F1600.
N1882 X17.6 F1600.
N1883 G2 X16.172 Y51.5 I0.0 J5.2 F1600.
N1884 G1 X15.969 F1600.
N1885 G3 X12.349 Y46.789 I1.634 J-5.001 F1600.
N1886 G1 X8.796 Y51.5 F1600.
N1887 X6.911 Y54. F1600.
N1888 Z-6. F1600.
N1889 G0 Z10.2
N1890 X-5. Y32.541
N1891 Z-7.
N1892 G1 Z-10. F1600.
N1893 X-2.5 Y33.271 F1600.
N1894 G2 X.5 Y33.7 I3. J-10.271 F1600.
N1895 G1 X12.8 F1600.
N1896 Y33.83 F1600.
N1897 X-.304 F1600.
N1898 G2 X-2.5 Y34.159 I0.0 J7.5 F1600.
N1899 G1 X-5. Y34.924 F1600.
N1900 Z-7. F1600.
N1901 G0 Z10.2
N1902 Y30.835
N1903 Z-7.
N1904 G1 Z-10. F1600.
N1905 X-2.5 Y31.697 F1600.
N1906 G2 X.5 Y32.2 I3. J-8.697 F1600.
N1907 G1 X14.3 F1600.
N1908 Y35.33 F1600.
N1909 X-.304 F1600.
N1910 G2 X-2.5 Y35.746 I0.0 J6. F1600.
N1911 G1 X-5. Y36.73 F1600.
N1912 Z-7. F1600.
N1913 G0 Z10.2
N1914 Y29.034
N1915 Z-7.
N1916 G1 Z-10. F1600.
N1917 X-2.5 Y30.092 F1600.
N1918 G2 X.5 Y30.7 I3. J-7.092 F1600.
N1919 G1 X15.8 F1600.
N1920 Y36.83 F1600.
N1921 X-.304 F1600.
N1922 G2 X-2.5 Y37.402 I0.0 J4.5 F1600.
N1923 G1 X-5. Y38.8 F1600.
N1924 Z-7. F1600.
N1925 G0 Z10.2
N1926 Y27.044
N1927 Z-7.
N1928 G1 Z-10. F1600.
N1929 X-2.5 Y28.426 F1600.
N1930 G2 X.5 Y29.2 I3. J-5.426 F1600.
N1931 G1 X17.3 F1600.
N1932 Y38.305 F1600.
N1933 G2 X16.867 Y38.333 I.3 J8.195 F1600.
N1934 G1 X16.736 Y38.33 F1600.
N1935 X-.304 F1600.
N1936 G2 X-2.5 Y39.286 I0.0 J3. F1600.
N1937 G1 X-5. Y41.972 F1600.
N1938 Z-7. F1600.
N1939 G0 Z10.2
N1940 Y24.545
N1941 Z-7.
N1942 G1 Z-10. F1600.
N1943 X-2.5 Y26.618 F1600.
N1944 G2 X.5 Y27.7 I3. J-3.618 F1600.
N1945 G1 X18.8 F1600.
N1946 Y39.8 F1600.
N1947 X17.6 F1600.
N1948 G2 X16.889 Y39.838 I0.0 J6.7 F1600.
N1949 G1 X16.736 Y39.83 F1600.
N1950 X-.304 F1600.
N1951 G2 X-1.802 Y41.25 I0.0 J1.5 F1600.
N1952 G1 X-2.274 Y50.039 F1600.
N1953 X-2.452 Y53.358 F1600.
N1954 Z-7. F1600.
N1955 G0 Z10.2
N1956 X-5.2 Y21.77
N1957 Z-7.
N1958 G1 Z-10. F1600.
N1959 X-3.37 F1600.
N1960 X-2.5 Y24.114 F1600.
N1961 G2 X.5 Y26.2 I3. J-1.114 F1600.
N1962 G1 X20. F1600.
N1963 G3 X20.3 Y26.5 I0.0 J.3 F1600.
N1964 G1 Y41.3 F1600.
N1965 X17.6 F1600.
N1966 G2 X16.172 Y51.5 I0.0 J5.2 F1600.
N1967 G1 X15.969 F1600.
N1968 G3 X13.273 Y43.509 I1.634 J-5.001 F1600.
N1969 X16.736 Y41.33 I4.482 J3.28 F1600.
N1970 G1 X-.304 F1600.
N1971 X-.832 Y51.168 F1600.
N1972 X-.979 Y53.903 F1600.
N1973 Z-7. F1600.
N1974 G0 Z10.2
N1975 X-5. Y32.541
N1976 Z-8.
N1977 G1 Z-11. F1600.
N1978 X-2.5 Y33.271 F1600.
N1979 G2 X.5 Y33.7 I3. J-10.271 F1600.
N1980 G1 X12.8 F1600.
N1981 Y33.83 F1600.
N1982 X-.305 F1600.
N1983 G2 X-2.5 Y34.158 I0.0 J7.5 F1600.
N1984 G1 X-5. Y34.924 F1600.
N1985 Z-8. F1600.
N1986 G0 Z10.2
N1987 Y30.835
N1988 Z-8.
N1989 G1 Z-11. F1600.
N1990 X-2.5 Y31.697 F1600.
N1991 G2 X.5 Y32.2 I3. J-8.697 F1600.
N1992 G1 X14.3 F1600.
N1993 Y35.33 F1600.
N1994 X-.305 F1600.
N1995 G2 X-2.5 Y35.746 I0.0 J6. F1600.
N1996 G1 X-5. Y36.729 F1600.
N1997 Z-8. F1600.
N1998 G0 Z10.2
N1999 Y29.034
N2000 Z-8.
N2001 G1 Z-11. F1600.
N2002 X-2.5 Y30.092 F1600.
N2003 G2 X.5 Y30.7 I3. J-7.092 F1600.
N2004 G1 X15.8 F1600.
N2005 Y36.83 F1600.
N2006 X-.305 F1600.
N2007 G2 X-2.5 Y37.402 I0.0 J4.5 F1600.
N2008 G1 X-5. Y38.799 F1600.
N2009 Z-8. F1600.
N2010 G0 Z10.2
N2011 Y27.044
N2012 Z-8.
N2013 G1 Z-11. F1600.
N2014 X-2.5 Y28.426 F1600.
N2015 G2 X.5 Y29.2 I3. J-5.426 F1600.
N2016 G1 X17.3 F1600.
N2017 Y38.305 F1600.
N2018 G2 X16.867 Y38.333 I.3 J8.195 F1600.
N2019 G1 X16.736 Y38.33 F1600.
N2020 X-.305 F1600.
N2021 G2 X-2.5 Y39.285 I0.0 J3. F1600.
N2022 G1 X-5. Y41.969 F1600.
N2023 Z-8. F1600.
N2024 G0 Z10.2
N2025 Y24.545
N2026 Z-8.
N2027 G1 Z-11. F1600.
N2028 X-2.5 Y26.618 F1600.
N2029 G2 X.5 Y27.7 I3. J-3.618 F1600.
N2030 G1 X18.8 F1600.
N2031 Y39.8 F1600.
N2032 X17.6 F1600.
N2033 G2 X16.889 Y39.838 I0.0 J6.7 F1600.
N2034 G1 X16.736 Y39.83 F1600.
N2035 X-.305 F1600.
N2036 G2 X-1.803 Y41.25 I0.0 J1.5 F1600.
N2037 G1 X-2.274 Y50.039 F1600.
N2038 X-2.452 Y53.358 F1600.
N2039 Z-8. F1600.
N2040 G0 Z10.2
N2041 X-5.2 Y21.77
N2042 Z-8.
N2043 G1 Z-11. F1600.
N2044 X-3.37 F1600.
N2045 X-2.5 Y24.114 F1600.
N2046 G2 X.5 Y26.2 I3. J-1.114 F1600.
N2047 G1 X20. F1600.
N2048 G3 X20.3 Y26.5 I0.0 J.3 F1600.
N2049 G1 Y41.3 F1600.
N2050 X17.6 F1600.
N2051 G2 X16.172 Y51.5 I0.0 J5.2 F1600.
N2052 G1 X15.969 F1600.
N2053 G3 X13.273 Y43.509 I1.634 J-5.001 F1600.
N2054 X16.736 Y41.33 I4.482 J3.28 F1600.
N2055 G1 X-.305 F1600.
N2056 X-.832 Y51.168 F1600.
N2057 X-.979 Y53.903 F1600.
N2058 Z-8. F1600.
N2059 G0 Z10.2
N2060 X-5. Y32.541
N2061 Z-9.
N2062 G1 Z-12. F1600.
N2063 X-2.5 Y33.271 F1600.
N2064 G2 X.5 Y33.7 I3. J-10.271 F1600.
N2065 G1 X12.8 F1600.
N2066 Y33.83 F1600.
N2067 X-.306 F1600.
N2068 G2 X-2.5 Y34.158 I0.0 J7.5 F1600.
N2069 G1 X-5. Y34.923 F1600.
N2070 Z-9. F1600.
N2071 G0 Z10.2
N2072 Y30.835
N2073 Z-9.
N2074 G1 Z-12. F1600.
N2075 X-2.5 Y31.697 F1600.
N2076 G2 X.5 Y32.2 I3. J-8.697 F1600.
N2077 G1 X14.3 F1600.
N2078 Y35.33 F1600.
N2079 X-.306 F1600.
N2080 G2 X-2.5 Y35.746 I0.0 J6. F1600.
N2081 G1 X-5. Y36.728 F1600.
N2082 Z-9. F1600.
N2083 G0 Z10.2
N2084 Y29.034
N2085 Z-9.
N2086 G1 Z-12. F1600.
N2087 X-2.5 Y30.092 F1600.
N2088 G2 X.5 Y30.7 I3. J-7.092 F1600.
N2089 G1 X15.8 F1600.
N2090 Y36.83 F1600.
N2091 X-.306 F1600.
N2092 G2 X-2.5 Y37.401 I0.0 J4.5 F1600.
N2093 G1 X-5. Y38.798 F1600.
N2094 Z-9. F1600.
N2095 G0 Z10.2
N2096 Y27.044
N2097 Z-9.
N2098 G1 Z-12. F1600.
N2099 X-2.5 Y28.426 F1600.
N2100 G2 X.5 Y29.2 I3. J-5.426 F1600.
N2101 G1 X17.3 F1600.
N2102 Y38.305 F1600.
N2103 G2 X16.867 Y38.333 I.3 J8.195 F1600.
N2104 G1 X16.736 Y38.33 F1600.
N2105 X-.306 F1600.
N2106 G2 X-2.5 Y39.284 I0.0 J3. F1600.
N2107 G1 X-5. Y41.966 F1600.
N2108 Z-9. F1600.
N2109 G0 Z10.2
N2110 Y24.545
N2111 Z-9.
N2112 G1 Z-12. F1600.
N2113 X-2.5 Y26.618 F1600.
N2114 G2 X.5 Y27.7 I3. J-3.618 F1600.
N2115 G1 X18.8 F1600.
N2116 Y39.8 F1600.
N2117 X17.6 F1600.
N2118 G2 X16.889 Y39.838 I0.0 J6.7 F1600.
N2119 G1 X16.736 Y39.83 F1600.
N2120 X-.306 F1600.
N2121 G2 X-1.803 Y41.25 I0.0 J1.5 F1600.
N2122 G1 X-2.274 Y50.039 F1600.
N2123 X-2.451 Y53.358 F1600.
N2124 Z-9. F1600.
N2125 G0 Z10.2
N2126 X-5.2 Y21.77
N2127 Z-9.
N2128 G1 Z-12. F1600.
N2129 X-3.37 F1600.
N2130 X-2.5 Y24.114 F1600.
N2131 G2 X.5 Y26.2 I3. J-1.114 F1600.
N2132 G1 X20. F1600.
N2133 G3 X20.3 Y26.5 I0.0 J.3 F1600.
N2134 G1 Y41.3 F1600.
N2135 X17.6 F1600.
N2136 G2 X16.172 Y51.5 I0.0 J5.2 F1600.
N2137 G1 X15.969 F1600.
N2138 G3 X13.273 Y43.509 I1.634 J-5.001 F1600.
N2139 X16.736 Y41.33 I4.482 J3.28 F1600.
N2140 G1 X-.306 F1600.
N2141 X-.832 Y51.168 F1600.
N2142 X-.979 Y53.903 F1600.
N2143 Z-9. F1600.
N2144 G0 Z10.2
N2145 M1
;(****************************************************************)
;      END OPERATION: CAVITY_MILL
;(****************************************************************)
;    START OPERATION: ZLEVEL_PROFILE
;     TYPE OPERATION: Z-Level Milling
;(****************************************************************)
N2146 G0 X21.432 Y38.426
N2147 Z12.258
N2148 Z.25
N2149 G1 Z-2.75 F1600.
N2150 G3 X21.22 Y41.5 I-2.07 J1.401 F1600.
N2151 G1 X20.813 F1600.
N2152 X20.503 Y41.497 F1600.
N2153 X20.502 Y41.501 F1600.
N2154 X20.403 Y41.5 F1600.
N2155 X17.6 F1600.
N2156 G2 Y51.5 I0.0 J5. F1600.
N2157 G1 X38.886 F1600.
N2158 G2 X41.361 Y50.475 I0.0 J-3.5 F1600.
N2159 G1 X50.475 Y41.361 F1600.
N2160 G2 X51.5 Y38.886 I-2.475 J-2.475 F1600.
N2161 G1 Y10.114 F1600.
N2162 G2 X50.475 Y7.639 I-3.5 J0.0 F1600.
N2163 G1 X41.361 Y-1.475 F1600.
N2164 G2 X38.886 Y-2.5 I-2.475 J2.475 F1600.
N2165 G1 X10.114 F1600.
N2166 G2 X7.639 Y-1.475 I0.0 J3.5 F1600.
N2167 G1 X-1.475 Y7.639 F1600.
N2168 G2 X-2.5 Y10.114 I2.475 J2.475 F1600.
N2169 G1 Y23. F1600.
N2170 G2 X.5 Y26. I3. J0.0 F1600.
N2171 G1 X20. F1600.
N2172 G3 X20.5 Y26.48 I0.0 J.5 F1600.
N2173 G1 X20.506 Y27.216 F1600.
N2174 G3 X18.713 Y29.636 I-2.5 J.022 F1600.
N2175 G1 Z.25 F1600.
N2176 G0 Z12.258
N2177 X19.558 Y38.103
N2178 Z-2.5
N2179 G1 Z-5.5 F1600.
N2180 G3 X20.618 Y41.06 I-1.301 J2.135 F1600.
N2181 G1 X20.608 Y41.09 F1600.
N2182 X20.54 Y41.399 F1600.
N2183 X20.53 Y41.467 F1600.
N2184 X20.519 Y41.477 F1600.
N2185 X20.508 Y41.467 F1600.
N2186 X20.502 Y41.5 F1600.
N2187 X17.6 F1600.
N2188 G2 Y51.5 I0.0 J5. F1600.
N2189 G1 X38.886 F1600.
N2190 G2 X41.361 Y50.475 I0.0 J-3.5 F1600.
N2191 G1 X50.475 Y41.361 F1600.
N2192 G2 X51.5 Y38.886 I-2.475 J-2.475 F1600.
N2193 G1 Y10.114 F1600.
N2194 G2 X50.475 Y7.639 I-3.5 J0.0 F1600.
N2195 G1 X41.361 Y-1.475 F1600.
N2196 G2 X38.886 Y-2.5 I-2.475 J2.475 F1600.
N2197 G1 X10.114 F1600.
N2198 G2 X7.639 Y-1.475 I0.0 J3.5 F1600.
N2199 G1 X-1.475 Y7.639 F1600.
N2200 G2 X-2.5 Y10.114 I2.475 J2.475 F1600.
N2201 G1 Y23. F1600.
N2202 G2 X.5 Y26. I3. J0.0 F1600.
N2203 G1 X20. F1600.
N2204 G3 X20.5 Y26.48 I0.0 J.5 F1600.
N2205 G1 X20.504 Y29.143 F1600.
N2206 G3 X18.612 Y31.572 I-2.5 J.004 F1600.
N2207 G1 Z-2.5 F1600.
N2208 G0 Z12.258
N2209 M1
;(****************************************************************)
;      END OPERATION: ZLEVEL_PROFILE
;(****************************************************************)
;    START OPERATION: FIXED_CONTOUR
;     TYPE OPERATION: Fixed-axis Surface Contouring
;(****************************************************************)
N2210 M9
N2211 M5
N2212 T="FR 6" M6
N2213 D1
;(****************************************************************)
; TOOL PARAMETRS: NAME: FR_6_R3 D = 6.00 mm  L = 50.40 mm R = 3.0 mm
;(****************************************************************)
N2214 S4500 M3
N2215 G0 X41.244 Y38.256
N2216 Z10. ;M8
N2217 Z3.01
N2218 G1 Y38.156 Z2.233 F1800.
N2219 X41.243 Y37.859 Z1.508 F1800.
N2220 X41.242 Y37.384 Z.886 F1800.
N2221 X41.241 Y36.765 Z.407 F1800.
N2222 X41.24 Y36.042 Z.105 F1800.
N2223 X41.239 Y35.266 Z0.0 F1800.
N2224 X41.236 Y33.468 Z-.009 F1800.
N2225 X41.234 Y32.253 Z0.0 F1800.
N2226 X41.167 Y32.005 F1800.
N2227 X41.035 Y31.696 F1800.
N2228 X41.037 Y33.468 Z-.029 F1800.
N2229 X41.04 Y35.268 Z-.006 F1800.
N2230 X41.041 Y35.794 Z0.0 F1800.
N2231 X40.843 Y36.199 F1800.
N2232 X40.842 Y35.269 Z-.024 F1800.
N2233 X40.839 Y33.469 Z-.057 F1800.
N2234 X40.836 Y31.669 Z-.006 F1800.
N2235 X40.835 Y31.295 Z0.0 F1800.
N2236 X40.636 Y30.915 F1800.
N2237 X40.637 Y31.669 Z-.019 F1800.
N2238 X40.64 Y33.469 Z-.098 F1800.
N2239 X40.643 Y35.269 Z-.049 F1800.
N2240 X40.645 Y36.468 Z-.001 F1800.
N2241 Y36.597 Z0.0 F1800.
N2242 X40.508 Y36.832 F1800.
N2243 X40.447 Y36.922 F1800.
N2244 Y36.814 Z-.001 F1800.
N2245 X40.445 Y35.269 Z-.084 F1800.
N2246 X40.442 Y33.469 Z-.152 F1800.
N2247 X40.439 Y31.669 Z-.043 F1800.
N2248 X40.437 Y30.571 Z0.0 F1800.
N2249 X40.333 Y30.405 F1800.
N2250 X40.238 Y30.282 F1800.
N2251 Y30.381 Z-.001 F1800.
N2252 X40.24 Y31.67 Z-.077 F1800.
N2253 X40.243 Y33.47 Z-.218 F1800.
N2254 X40.245 Y34.37 Z-.205 F1800.
N2255 X40.246 Y35.27 Z-.13 F1800.
N2256 X40.249 Y37.07 Z-.001 F1800.
N2257 Y37.209 Z0.0 F1800.
N2258 X40.051 Y37.469 F1800.
N2259 X40.05 Y37.07 Z-.01 F1800.
N2260 X40.048 Y35.27 Z-.188 F1800.
N2261 X40.046 Y34.37 Z-.282 F1800.
N2262 X40.045 Y33.47 Z-.299 F1800.
N2263 X40.042 Y31.67 Z-.119 F1800.
N2264 X40.039 Y30.121 Z-.001 F1800.
N2265 Y30.023 Z0.0 F1800.
N2266 X39.962 Y29.922 F1800.
N2267 X39.84 Y29.781 F1800.
N2268 Y29.87 Z-.001 F1800.
N2269 X39.842 Y30.772 Z-.054 F1800.
N2270 X39.843 Y31.67 Z-.173 F1800.
N2271 X39.846 Y33.47 Z-.394 F1800.
N2272 X39.848 Y34.37 Z-.373 F1800.
N2273 X39.849 Y35.27 Z-.255 F1800.
N2274 X39.85 Y36.17 Z-.12 F1800.
N2275 X39.852 Y37.07 Z-.028 F1800.
N2276 X39.853 Y37.711 Z0.0 F1800.
N2277 X39.655 Y37.939 F1800.
N2278 Y37.848 Z-.001 F1800.
N2279 X39.653 Y37.071 Z-.051 F1800.
N2280 X39.65 Y35.271 Z-.337 F1800.
N2281 Y34.821 Z-.414 F1800.
N2282 X39.649 Y34.596 Z-.45 F1800.
N2283 Y34.371 Z-.477 F1800.
N2284 X39.647 Y33.471 Z-.499 F1800.
N2285 Y33.021 Z-.465 F1800.
N2286 X39.646 Y32.796 Z-.436 F1800.
N2287 Y32.571 Z-.398 F1800.
N2288 X39.645 Y31.671 Z-.234 F1800.
N2289 X39.643 Y30.771 Z-.089 F1800.
N2290 X39.642 Y29.871 Z-.008 F1800.
N2291 X39.641 Y29.552 Z0.0 F1800.
N2292 X39.498 Y29.386 F1800.
N2293 X39.442 Y29.33 F1800.
N2294 X39.443 Y29.871 Z-.02 F1800.
N2295 X39.445 Y30.771 Z-.128 F1800.
N2296 X39.446 Y31.671 Z-.305 F1800.
N2297 X39.447 Y32.121 Z-.409 F1800.
N2298 Y32.346 Z-.454 F1800.
N2299 Y32.571 Z-.501 F1800.
N2300 X39.449 Y33.471 Z-.604 F1800.
N2301 X39.45 Y34.371 Z-.582 F1800.
N2302 X39.451 Y34.821 Z-.519 F1800.
N2303 Y35.046 Z-.478 F1800.
N2304 X39.452 Y35.271 Z-.43 F1800.
N2305 X39.453 Y36.171 Z-.231 F1800.
N2306 X39.455 Y37.071 Z-.077 F1800.
N2307 X39.456 Y38.074 Z-.001 F1800.
N2308 X39.457 Y38.158 Z0.0 F1800.
N2309 X39.258 Y38.351 F1800.
N2310 Y38.267 Z-.001 F1800.
N2311 X39.256 Y37.071 Z-.111 F1800.
N2312 X39.255 Y36.171 Z-.299 F1800.
N2313 X39.253 Y35.271 Z-.534 F1800.
N2314 X39.252 Y34.371 Z-.688 F1800.
N2315 X39.25 Y33.471 Z-.71 F1800.
N2316 X39.249 Y32.571 Z-.606 F1800.
N2317 X39.248 Y32.121 Z-.509 F1800.
N2318 X39.247 Y31.671 Z-.389 F1800.
N2319 X39.246 Y30.771 Z-.176 F1800.
N2320 X39.245 Y29.871 Z-.038 F1800.
N2321 X39.243 Y29.129 Z0.0 F1800.
N2322 X39.044 Y28.944 F1800.
N2323 X39.045 Y29.025 Z-.001 F1800.
N2324 X39.046 Y29.872 Z-.064 F1800.
N2325 X39.047 Y30.772 Z-.232 F1800.
N2326 X39.049 Y31.672 Z-.482 F1800.
N2327 X39.05 Y32.122 Z-.615 F1800.
N2328 Y32.572 Z-.712 F1800.
N2329 X39.052 Y33.472 Z-.815 F1800.
N2330 X39.053 Y34.372 Z-.793 F1800.
N2331 X39.055 Y35.272 Z-.639 F1800.
N2332 Y35.722 Z-.505 F1800.
N2333 X39.056 Y36.172 Z-.375 F1800.
N2334 X39.058 Y37.072 Z-.154 F1800.
N2335 X39.059 Y37.766 Z-.052 F1800.
N2336 X39.06 Y38.46 Z-.001 F1800.
N2337 Y38.544 Z0.0 F1800.
N2338 X38.862 Y38.726 F1800.
N2339 Y38.645 Z-.001 F1800.
N2340 X38.86 Y37.859 Z-.065 F1800.
N2341 X38.859 Y37.072 Z-.205 F1800.
N2342 X38.858 Y36.172 Z-.463 F1800.
N2343 X38.857 Y35.722 Z-.61 F1800.
N2344 X38.856 Y35.272 Z-.745 F1800.
N2345 X38.855 Y34.372 Z-.899 F1800.
N2346 X38.853 Y33.472 Z-.92 F1800.
N2347 X38.852 Y32.572 Z-.818 F1800.
N2348 X38.85 Y31.672 Z-.586 F1800.
N2349 X38.849 Y30.772 Z-.296 F1800.
N2350 X38.847 Y29.872 Z-.096 F1800.
N2351 X38.846 Y28.843 Z-.001 F1800.
N2352 Y28.762 Z0.0 F1800.
N2353 X38.647 Y28.582 F1800.
N2354 Y28.662 Z-.001 F1800.
N2355 X38.649 Y29.872 Z-.132 F1800.
N2356 X38.65 Y30.772 Z-.367 F1800.
N2357 X38.651 Y31.222 Z-.525 F1800.
N2358 X38.652 Y31.672 Z-.692 F1800.
N2359 X38.653 Y32.572 Z-.923 F1800.
N2360 X38.655 Y33.472 Z-1.026 F1800.
N2361 X38.656 Y34.372 Z-1.005 F1800.
N2362 X38.658 Y35.272 Z-.85 F1800.
N2363 Y35.722 Z-.716 F1800.
N2364 X38.659 Y36.172 Z-.556 F1800.
N2365 X38.66 Y37.072 Z-.261 F1800.
N2366 X38.662 Y37.949 Z-.077 F1800.
N2367 X38.663 Y38.872 Z0.0 F1800.
N2368 Y38.907 F1800.
N2369 X38.465 Y39.071 F1800.
N2370 Y38.873 Z-.004 F1800.
N2371 X38.463 Y37.973 Z-.102 F1800.
N2372 X38.462 Y37.073 Z-.323 F1800.
N2373 X38.46 Y36.173 Z-.659 F1800.
N2374 X38.459 Y35.273 Z-.955 F1800.
N2375 X38.458 Y34.373 Z-1.11 F1800.
N2376 X38.456 Y33.473 Z-1.131 F1800.
N2377 X38.455 Y32.573 Z-1.029 F1800.
N2378 X38.453 Y31.673 Z-.797 F1800.
N2379 X38.452 Y30.773 Z-.445 F1800.
N2380 X38.45 Y29.873 Z-.174 F1800.
N2381 X38.449 Y29.183 Z-.049 F1800.
N2382 X38.448 Y28.494 Z-.001 F1800.
N2383 Y28.416 Z0.0 F1800.
N2384 X38.249 Y28.251 F1800.
N2385 Y28.328 Z-.001 F1800.
N2386 X38.25 Y29.101 Z-.062 F1800.
N2387 X38.252 Y29.873 Z-.223 F1800.
N2388 X38.253 Y30.773 Z-.529 F1800.
N2389 X38.255 Y31.673 Z-.903 F1800.
N2390 X38.256 Y32.573 Z-1.135 F1800.
N2391 X38.257 Y33.473 Z-1.236 F1800.
N2392 X38.259 Y34.373 Z-1.216 F1800.
N2393 X38.26 Y35.273 Z-1.061 F1800.
N2394 X38.262 Y36.173 Z-.765 F1800.
N2395 X38.263 Y37.073 Z-.394 F1800.
N2396 X38.265 Y37.973 Z-.137 F1800.
N2397 X38.266 Y38.873 Z-.013 F1800.
N2398 X38.267 Y39.224 Z0.0 F1800.
N2399 X38.068 Y39.378 F1800.
N2400 Y38.873 Z-.028 F1800.
N2401 X38.066 Y37.973 Z-.177 F1800.
N2402 X38.065 Y37.073 Z-.471 F1800.
N2403 X38.063 Y36.173 Z-.87 F1800.
N2404 X38.062 Y35.273 Z-1.166 F1800.
N2405 X38.06 Y34.373 Z-1.321 F1800.
N2406 X38.059 Y33.473 Z-1.342 F1800.
N2407 X38.057 Y32.573 Z-1.24 F1800.
N2408 X38.056 Y31.673 Z-1.008 F1800.
N2409 X38.055 Y31.223 Z-.838 F1800.
N2410 Y30.773 Z-.625 F1800.
N2411 X38.053 Y29.873 Z-.278 F1800.
N2412 X38.052 Y29.025 Z-.077 F1800.
N2413 X38.05 Y28.178 Z-.001 F1800.
N2414 Y28.103 Z0.0 F1800.
N2415 X37.851 Y27.954 F1800.
N2416 X37.852 Y28.074 Z-.002 F1800.
N2417 X37.853 Y28.974 Z-.096 F1800.
N2418 X37.855 Y29.874 Z-.337 F1800.
N2419 X37.856 Y30.774 Z-.73 F1800.
N2420 X37.857 Y31.674 Z-1.114 F1800.
N2421 X37.859 Y32.574 Z-1.346 F1800.
N2422 X37.86 Y33.474 Z-1.447 F1800.
N2423 X37.862 Y34.374 Z-1.427 F1800.
N2424 X37.863 Y35.274 Z-1.271 F1800.
N2425 X37.865 Y36.174 Z-.975 F1800.
N2426 X37.866 Y37.074 Z-.554 F1800.
N2427 X37.868 Y37.974 Z-.222 F1800.
N2428 X37.869 Y38.874 Z-.047 F1800.
N2429 X37.87 Y39.455 Z-.001 F1800.
N2430 Y39.531 Z0.0 F1800.
N2431 X37.672 Y39.674 F1800.
N2432 Y39.601 Z-.001 F1800.
N2433 X37.671 Y38.874 Z-.069 F1800.
N2434 X37.669 Y37.974 Z-.274 F1800.
N2435 X37.668 Y37.074 Z-.648 F1800.
N2436 X37.667 Y36.624 Z-.883 F1800.
N2437 X37.666 Y36.174 Z-1.08 F1800.
N2438 X37.665 Y35.274 Z-1.377 F1800.
N2439 X37.663 Y34.374 Z-1.532 F1800.
N2440 X37.662 Y33.474 Z-1.553 F1800.
N2441 X37.66 Y32.574 Z-1.452 F1800.
N2442 X37.659 Y31.674 Z-1.219 F1800.
N2443 X37.657 Y30.774 Z-.835 F1800.
N2444 X37.656 Y29.874 Z-.402 F1800.
N2445 X37.655 Y28.974 Z-.129 F1800.
N2446 X37.653 Y28.074 Z-.008 F1800.
N2447 Y27.815 Z0.0 F1800.
N2448 X37.454 Y27.678 F1800.
N2449 Y28.074 Z-.018 F1800.
N2450 X37.456 Y28.974 Z-.165 F1800.
N2451 X37.457 Y29.874 Z-.474 F1800.
N2452 X37.459 Y30.774 Z-.941 F1800.
N2453 X37.46 Y31.674 Z-1.325 F1800.
N2454 X37.462 Y32.574 Z-1.557 F1800.
N2455 X37.463 Y33.474 Z-1.658 F1800.
N2456 X37.465 Y34.374 Z-1.638 F1800.
N2457 X37.466 Y35.274 Z-1.482 F1800.
N2458 X37.468 Y36.174 Z-1.185 F1800.
N2459 Y36.624 Z-.988 F1800.
N2460 X37.469 Y36.849 Z-.87 F1800.
N2461 Y37.074 Z-.749 F1800.
N2462 X37.471 Y37.974 Z-.332 F1800.
N2463 X37.472 Y38.874 Z-.092 F1800.
N2464 X37.473 Y39.742 Z-.001 F1800.
N2465 Y39.815 Z0.0 F1800.
N2466 X37.275 Y39.949 F1800.
N2467 Y39.878 Z-.001 F1800.
N2468 X37.273 Y38.875 Z-.118 F1800.
N2469 X37.272 Y37.975 Z-.391 F1800.
N2470 X37.27 Y37.075 Z-.853 F1800.
N2471 X37.269 Y36.175 Z-1.29 F1800.
N2472 X37.268 Y35.275 Z-1.587 F1800.
N2473 X37.266 Y34.375 Z-1.743 F1800.
N2474 X37.265 Y33.475 Z-1.763 F1800.
N2475 X37.263 Y32.575 Z-1.663 F1800.
N2476 X37.262 Y31.675 Z-1.43 F1800.
N2477 X37.26 Y30.775 Z-1.047 F1800.
N2478 X37.259 Y29.875 Z-.552 F1800.
N2479 X37.257 Y28.975 Z-.205 F1800.
N2480 X37.256 Y28.075 Z-.03 F1800.
N2481 X37.255 Y27.541 Z0.0 F1800.
N2482 X37.056 Y27.407 F1800.
N2483 Y27.477 Z-.001 F1800.
N2484 X37.057 Y28.075 Z-.045 F1800.
N2485 X37.059 Y28.975 Z-.248 F1800.
N2486 X37.06 Y29.875 Z-.635 F1800.
N2487 X37.062 Y30.775 Z-1.153 F1800.
N2488 X37.063 Y31.675 Z-1.536 F1800.
N2489 X37.065 Y32.575 Z-1.769 F1800.
N2490 X37.066 Y33.475 Z-1.869 F1800.
N2491 X37.068 Y34.375 Z-1.849 F1800.
N2492 X37.069 Y35.275 Z-1.693 F1800.
N2493 X37.07 Y36.175 Z-1.395 F1800.
N2494 X37.072 Y37.075 Z-.959 F1800.
N2495 X37.073 Y37.975 Z-.455 F1800.
N2496 X37.075 Y38.875 Z-.148 F1800.
N2497 X37.076 Y39.44 Z-.049 F1800.
N2498 X37.077 Y40.005 Z-.001 F1800.
N2499 Y40.077 Z0.0 F1800.
N2500 X36.878 Y40.2 F1800.
N2501 Y40.13 Z-.001 F1800.
N2502 X36.877 Y39.502 Z-.06 F1800.
N2503 X36.876 Y38.875 Z-.183 F1800.
N2504 X36.875 Y37.975 Z-.527 F1800.
N2505 X36.874 Y37.525 Z-.779 F1800.
N2506 X36.873 Y37.075 Z-1.064 F1800.
N2507 X36.872 Y36.175 Z-1.5 F1800.
N2508 X36.87 Y35.275 Z-1.798 F1800.
N2509 X36.869 Y34.375 Z-1.955 F1800.
N2510 X36.868 Y33.475 Z-1.974 F1800.
N2511 X36.866 Y32.575 Z-1.874 F1800.
N2512 X36.865 Y31.675 Z-1.641 F1800.
N2513 X36.863 Y30.775 Z-1.258 F1800.
N2514 X36.862 Y29.875 Z-.721 F1800.
N2515 X36.86 Y28.975 Z-.298 F1800.
N2516 X36.859 Y28.075 Z-.064 F1800.
N2517 X36.858 Y27.358 Z-.001 F1800.
N2518 X36.857 Y27.288 Z0.0 F1800.
N2519 X36.659 Y27.169 F1800.
N2520 Y27.239 Z-.001 F1800.
N2521 X36.66 Y28.076 Z-.088 F1800.
N2522 X36.662 Y28.976 Z-.352 F1800.
N2523 X36.663 Y29.876 Z-.816 F1800.
N2524 X36.664 Y30.326 Z-1.112 F1800.
N2525 X36.665 Y30.776 Z-1.364 F1800.
N2526 X36.666 Y31.676 Z-1.747 F1800.
N2527 X36.667 Y32.576 Z-1.98 F1800.
N2528 X36.669 Y33.476 Z-2.079 F1800.
N2529 X36.67 Y34.376 Z-2.06 F1800.
N2530 X36.672 Y35.276 Z-1.904 F1800.
N2531 X36.673 Y36.176 Z-1.606 F1800.
N2532 X36.675 Y37.076 Z-1.17 F1800.
N2533 X36.676 Y37.976 Z-.606 F1800.
N2534 X36.678 Y38.876 Z-.222 F1800.
N2535 X36.679 Y39.562 Z-.071 F1800.
N2536 X36.68 Y40.249 Z-.001 F1800.
N2537 Y40.319 Z0.0 F1800.
N2538 X36.482 Y40.439 F1800.
N2539 Y40.369 Z-.001 F1800.
N2540 X36.48 Y39.623 Z-.082 F1800.
N2541 X36.479 Y38.876 Z-.266 F1800.
N2542 X36.478 Y37.976 Z-.684 F1800.
N2543 X36.476 Y37.076 Z-1.275 F1800.
N2544 X36.475 Y36.176 Z-1.711 F1800.
N2545 X36.473 Y35.276 Z-2.009 F1800.
N2546 X36.472 Y34.376 Z-2.166 F1800.
N2547 X36.47 Y33.476 Z-2.185 F1800.
N2548 X36.469 Y32.576 Z-2.085 F1800.
N2549 X36.467 Y31.676 Z-1.853 F1800.
N2550 X36.466 Y30.776 Z-1.47 F1800.
N2551 X36.465 Y29.876 Z-.92 F1800.
N2552 X36.463 Y28.976 Z-.41 F1800.
N2553 X36.462 Y28.076 Z-.115 F1800.
N2554 X36.46 Y27.12 Z-.001 F1800.
N2555 Y27.05 Z0.0 F1800.
N2556 X36.261 Y26.931 F1800.
N2557 Y27.001 Z-.001 F1800.
N2558 X36.262 Y27.539 Z-.041 F1800.
N2559 X36.263 Y28.076 Z-.146 F1800.
N2560 X36.265 Y28.976 Z-.469 F1800.
N2561 X36.266 Y29.876 Z-1.026 F1800.
N2562 X36.267 Y30.776 Z-1.576 F1800.
N2563 X36.269 Y31.676 Z-1.958 F1800.
N2564 X36.27 Y32.576 Z-2.191 F1800.
N2565 X36.272 Y33.476 Z-2.29 F1800.
N2566 X36.273 Y34.376 Z-2.271 F1800.
N2567 X36.275 Y35.276 Z-2.114 F1800.
N2568 X36.276 Y36.176 Z-1.816 F1800.
N2569 X36.278 Y37.076 Z-1.38 F1800.
N2570 X36.279 Y37.976 Z-.77 F1800.
N2571 X36.281 Y38.876 Z-.312 F1800.
N2572 X36.282 Y39.683 Z-.085 F1800.
N2573 X36.283 Y40.489 Z-.001 F1800.
N2574 Y40.559 Z0.0 F1800.
N2575 X36.085 Y40.673 F1800.
N2576 Y40.605 Z-.001 F1800.
N2577 X36.083 Y39.741 Z-.096 F1800.
N2578 X36.082 Y38.877 Z-.363 F1800.
N2579 X36.081 Y37.977 Z-.864 F1800.
N2580 X36.079 Y37.077 Z-1.486 F1800.
N2581 X36.078 Y36.177 Z-1.921 F1800.
N2582 X36.076 Y35.277 Z-2.22 F1800.
N2583 X36.075 Y34.377 Z-2.377 F1800.
N2584 X36.073 Y33.477 Z-2.396 F1800.
N2585 X36.072 Y32.577 Z-2.297 F1800.
N2586 X36.07 Y31.677 Z-2.064 F1800.
N2587 X36.069 Y30.777 Z-1.681 F1800.
N2588 X36.067 Y29.877 Z-1.132 F1800.
N2589 X36.066 Y28.977 Z-.533 F1800.
N2590 X36.064 Y28.077 Z-.177 F1800.
N2591 Y27.481 Z-.049 F1800.
N2592 X36.063 Y26.885 Z-.001 F1800.
N2593 X36.062 Y26.816 Z0.0 F1800.
N2594 X35.864 Y26.706 F1800.
N2595 Y26.775 Z-.001 F1800.
N2596 X35.865 Y27.426 Z-.058 F1800.
N2597 X35.866 Y28.077 Z-.211 F1800.
N2598 X35.867 Y28.977 Z-.604 F1800.
N2599 X35.869 Y29.877 Z-1.238 F1800.
N2600 X35.87 Y30.777 Z-1.787 F1800.
N2601 X35.872 Y31.677 Z-2.17 F1800.
N2602 X35.873 Y32.577 Z-2.402 F1800.
N2603 X35.875 Y33.477 Z-2.5 F1800.
N2604 X35.876 Y34.377 Z-2.482 F1800.
N2605 X35.878 Y35.277 Z-2.325 F1800.
N2606 X35.879 Y36.177 Z-2.026 F1800.
N2607 X35.88 Y37.077 Z-1.591 F1800.
N2608 X35.881 Y37.527 Z-1.305 F1800.
N2609 X35.882 Y37.977 Z-.967 F1800.
N2610 X35.883 Y38.427 Z-.654 F1800.
N2611 Y38.877 Z-.419 F1800.
N2612 X35.885 Y39.777 Z-.113 F1800.
N2613 X35.886 Y40.677 Z-.001 F1800.
N2614 Y40.777 Z0.0 F1800.
N2615 X35.688 Y40.881 F1800.
N2616 Y40.677 Z-.006 F1800.
N2617 X35.686 Y39.777 Z-.141 F1800.
N2618 X35.685 Y38.877 Z-.476 F1800.
N2619 X35.684 Y38.427 Z-.734 F1800.
N2620 X35.683 Y37.977 Z-1.072 F1800.
N2621 X35.682 Y37.077 Z-1.696 F1800.
N2622 X35.68 Y36.177 Z-2.131 F1800.
N2623 X35.679 Y35.277 Z-2.43 F1800.
N2624 X35.678 Y34.377 Z-2.588 F1800.
N2625 X35.676 Y33.477 Z-2.605 F1800.
N2626 X35.675 Y32.577 Z-2.508 F1800.
N2627 X35.673 Y31.677 Z-2.275 F1800.
N2628 X35.672 Y30.777 Z-1.893 F1800.
N2629 X35.67 Y29.877 Z-1.344 F1800.
N2630 Y29.652 Z-1.18 F1800.
N2631 Y29.427 Z-.994 F1800.
N2632 X35.669 Y28.977 Z-.678 F1800.
N2633 X35.667 Y28.077 Z-.249 F1800.
N2634 X35.666 Y27.371 Z-.066 F1800.
N2635 X35.665 Y26.665 Z-.001 F1800.
N2636 Y26.597 Z0.0 F1800.
N2637 X35.466 Y26.496 F1800.
N2638 Y26.564 Z-.001 F1800.
N2639 X35.468 Y27.321 Z-.075 F1800.
N2640 X35.469 Y28.077 Z-.29 F1800.
N2641 X35.47 Y28.977 Z-.757 F1800.
N2642 X35.472 Y29.877 Z-1.45 F1800.
N2643 X35.473 Y30.777 Z-1.998 F1800.
N2644 X35.475 Y31.677 Z-2.381 F1800.
N2645 X35.476 Y32.577 Z-2.613 F1800.
N2646 X35.478 Y33.477 Z-2.71 F1800.
N2647 X35.479 Y34.377 Z-2.693 F1800.
N2648 X35.48 Y35.277 Z-2.536 F1800.
N2649 X35.482 Y36.177 Z-2.236 F1800.
N2650 X35.483 Y37.077 Z-1.802 F1800.
N2651 X35.485 Y37.977 Z-1.178 F1800.
N2652 X35.486 Y38.877 Z-.535 F1800.
N2653 X35.488 Y39.777 Z-.173 F1800.
N2654 X35.489 Y40.677 Z-.013 F1800.
N2655 X35.49 Y40.985 Z0.0 F1800.
N2656 X35.291 Y41.087 F1800.
N2657 Y40.678 Z-.023 F1800.
N2658 X35.289 Y39.778 Z-.203 F1800.
N2659 X35.288 Y38.878 Z-.598 F1800.
N2660 X35.286 Y37.978 Z-1.283 F1800.
N2661 X35.285 Y37.078 Z-1.907 F1800.
N2662 X35.283 Y36.178 Z-2.341 F1800.
N2663 X35.282 Y35.278 Z-2.641 F1800.
N2664 X35.28 Y34.378 Z-2.799 F1800.
N2665 X35.279 Y33.478 Z-2.815 F1800.
N2666 X35.277 Y32.578 Z-2.718 F1800.
N2667 X35.276 Y31.678 Z-2.487 F1800.
N2668 X35.275 Y30.778 Z-2.104 F1800.
N2669 X35.273 Y29.878 Z-1.555 F1800.
N2670 X35.272 Y28.978 Z-.842 F1800.
N2671 X35.271 Y28.528 Z-.552 F1800.
N2672 X35.27 Y28.078 Z-.331 F1800.
N2673 X35.269 Y27.271 Z-.086 F1800.
N2674 X35.268 Y26.464 Z-.001 F1800.
N2675 X35.267 Y26.398 Z0.0 F1800.
N2676 X35.069 Y26.303 F1800.
N2677 Y26.37 Z-.001 F1800.
N2678 X35.07 Y27.224 Z-.097 F1800.
N2679 X35.072 Y28.078 Z-.376 F1800.
N2680 Y28.528 Z-.612 F1800.
N2681 X35.073 Y28.978 Z-.932 F1800.
N2682 X35.075 Y29.878 Z-1.661 F1800.
N2683 X35.076 Y30.778 Z-2.21 F1800.
N2684 X35.077 Y31.678 Z-2.592 F1800.
N2685 X35.079 Y32.578 Z-2.824 F1800.
N2686 X35.08 Y33.478 Z-2.92 F1800.
N2687 X35.082 Y34.378 Z-2.904 F1800.
N2688 X35.083 Y35.278 Z-2.746 F1800.
N2689 X35.085 Y36.178 Z-2.446 F1800.
N2690 X35.086 Y37.078 Z-2.013 F1800.
N2691 X35.088 Y37.978 Z-1.388 F1800.
N2692 X35.089 Y38.878 Z-.667 F1800.
N2693 X35.091 Y39.778 Z-.237 F1800.
N2694 X35.092 Y40.678 Z-.033 F1800.
N2695 X35.093 Y41.183 Z0.0 F1800.
N2696 X34.894 Y41.279 F1800.
N2697 Y41.212 Z-.001 F1800.
N2698 X34.893 Y40.678 Z-.044 F1800.
N2699 X34.892 Y39.778 Z-.273 F1800.
N2700 X34.891 Y38.878 Z-.74 F1800.
N2701 X34.89 Y38.428 Z-1.097 F1800.
N2702 X34.889 Y37.978 Z-1.494 F1800.
N2703 X34.888 Y37.078 Z-2.118 F1800.
N2704 X34.886 Y36.178 Z-2.552 F1800.
N2705 X34.885 Y35.278 Z-2.852 F1800.
N2706 X34.883 Y34.378 Z-3.01 F1800.
N2707 X34.882 Y33.478 Z-3.025 F1800.
N2708 X34.88 Y32.578 Z-2.929 F1800.
N2709 X34.879 Y31.678 Z-2.698 F1800.
N2710 X34.877 Y30.778 Z-2.316 F1800.
N2711 X34.876 Y29.878 Z-1.767 F1800.
N2712 X34.875 Y28.978 Z-1.022 F1800.
N2713 X34.874 Y28.528 Z-.676 F1800.
N2714 X34.873 Y28.078 Z-.425 F1800.
N2715 X34.872 Y27.178 Z-.11 F1800.
N2716 X34.87 Y26.278 Z-.001 F1800.
N2717 Y26.208 Z0.0 F1800.
N2718 X34.671 Y26.114 F1800.
N2719 X34.672 Y26.279 Z-.004 F1800.
N2720 X34.673 Y27.179 Z-.136 F1800.
N2721 X34.675 Y28.079 Z-.477 F1800.
N2722 Y28.529 Z-.746 F1800.
N2723 X34.676 Y28.979 Z-1.119 F1800.
N2724 X34.677 Y29.429 Z-1.523 F1800.
N2725 Y29.879 Z-1.873 F1800.
N2726 X34.679 Y30.779 Z-2.421 F1800.
N2727 X34.68 Y31.679 Z-2.804 F1800.
N2728 X34.682 Y32.579 Z-3.034 F1800.
N2729 X34.683 Y33.479 Z-3.13 F1800.
N2730 X34.685 Y34.379 Z-3.116 F1800.
N2731 X34.686 Y35.279 Z-2.957 F1800.
N2732 X34.688 Y36.179 Z-2.657 F1800.
N2733 X34.689 Y37.079 Z-2.223 F1800.
N2734 X34.691 Y37.979 Z-1.599 F1800.
N2735 X34.692 Y38.879 Z-.815 F1800.
N2736 X34.693 Y39.329 Z-.528 F1800.
N2737 Y39.779 Z-.313 F1800.
N2738 X34.695 Y40.679 Z-.058 F1800.
N2739 X34.696 Y41.308 Z-.001 F1800.
N2740 Y41.375 Z0.0 F1800.
N2741 X34.498 Y41.471 F1800.
N2742 Y41.404 Z-.001 F1800.
N2743 X34.496 Y40.679 Z-.073 F1800.
N2744 X34.495 Y39.779 Z-.353 F1800.
N2745 X34.494 Y39.329 Z-.586 F1800.
N2746 X34.493 Y38.879 Z-.897 F1800.
N2747 X34.492 Y37.979 Z-1.704 F1800.
N2748 X34.491 Y37.079 Z-2.329 F1800.
N2749 X34.489 Y36.179 Z-2.762 F1800.
N2750 X34.488 Y35.279 Z-3.062 F1800.
N2751 X34.486 Y34.379 Z-3.221 F1800.
N2752 X34.485 Y33.479 Z-3.235 F1800.
N2753 X34.483 Y32.579 Z-3.14 F1800.
N2754 X34.482 Y31.679 Z-2.91 F1800.
N2755 X34.48 Y30.779 Z-2.527 F1800.
N2756 X34.479 Y29.879 Z-1.979 F1800.
N2757 X34.477 Y28.979 Z-1.223 F1800.
N2758 Y28.529 Z-.821 F1800.
N2759 X34.476 Y28.079 Z-.533 F1800.
N2760 X34.475 Y27.629 Z-.316 F1800.
N2761 X34.474 Y27.179 Z-.164 F1800.
N2762 X34.473 Y26.279 Z-.01 F1800.
N2763 Y26.02 Z0.0 F1800.
N2764 X34.274 Y25.933 F1800.
N2765 Y26.279 Z-.018 F1800.
N2766 X34.276 Y27.179 Z-.194 F1800.
N2767 X34.277 Y27.629 Z-.359 F1800.
N2768 Y28.079 Z-.591 F1800.
N2769 X34.278 Y28.529 Z-.903 F1800.
N2770 X34.279 Y28.979 Z-1.329 F1800.
N2771 X34.28 Y29.879 Z-2.084 F1800.
N2772 X34.282 Y30.779 Z-2.633 F1800.
N2773 X34.283 Y31.679 Z-3.015 F1800.
N2774 X34.285 Y32.579 Z-3.245 F1800.
N2775 X34.286 Y33.479 Z-3.34 F1800.
N2776 X34.288 Y34.379 Z-3.327 F1800.
N2777 X34.289 Y35.279 Z-3.168 F1800.
N2778 X34.29 Y36.179 Z-2.867 F1800.
N2779 X34.292 Y37.079 Z-2.434 F1800.
N2780 X34.293 Y37.979 Z-1.81 F1800.
N2781 X34.295 Y38.879 Z-.982 F1800.
N2782 X34.296 Y39.329 Z-.645 F1800.
N2783 Y39.779 Z-.395 F1800.
N2784 X34.298 Y40.679 Z-.091 F1800.
N2785 X34.299 Y41.498 Z-.001 F1800.
N2786 Y41.564 Z0.0 F1800.
N2787 X34.101 Y41.647 F1800.
N2788 Y41.582 Z-.001 F1800.
N2789 X34.099 Y40.68 Z-.112 F1800.
N2790 X34.098 Y39.78 Z-.439 F1800.
N2791 X34.097 Y39.33 Z-.704 F1800.
N2792 X34.096 Y38.88 Z-1.071 F1800.
N2793 X34.095 Y37.98 Z-1.915 F1800.
N2794 X34.093 Y37.08 Z-2.539 F1800.
N2795 X34.092 Y36.18 Z-2.972 F1800.
N2796 X34.09 Y35.28 Z-3.273 F1800.
N2797 X34.089 Y34.38 Z-3.432 F1800.
N2798 X34.088 Y33.48 Z-3.445 F1800.
N2799 X34.086 Y32.58 Z-3.35 F1800.
N2800 X34.085 Y31.68 Z-3.121 F1800.
N2801 X34.083 Y30.78 Z-2.739 F1800.
N2802 X34.082 Y29.88 Z-2.19 F1800.
N2803 X34.08 Y28.98 Z-1.435 F1800.
N2804 Y28.53 Z-.991 F1800.
N2805 X34.079 Y28.08 Z-.653 F1800.
N2806 X34.078 Y27.63 Z-.404 F1800.
N2807 X34.077 Y27.18 Z-.222 F1800.
N2808 X34.076 Y26.28 Z-.026 F1800.
N2809 X34.075 Y25.846 Z0.0 F1800.
N2810 X33.876 Y25.759 F1800.
N2811 X33.877 Y26.28 Z-.035 F1800.
N2812 X33.879 Y27.18 Z-.251 F1800.
N2813 Y27.63 Z-.448 F1800.
N2814 X33.88 Y28.08 Z-.718 F1800.
N2815 X33.881 Y28.53 Z-1.084 F1800.
N2816 X33.882 Y28.98 Z-1.54 F1800.
N2817 X33.883 Y29.88 Z-2.296 F1800.
N2818 X33.885 Y30.78 Z-2.844 F1800.
N2819 X33.886 Y31.68 Z-3.227 F1800.
N2820 X33.888 Y32.58 Z-3.456 F1800.
N2821 X33.889 Y33.48 Z-3.55 F1800.
N2822 X33.89 Y34.38 Z-3.538 F1800.
N2823 X33.892 Y35.28 Z-3.378 F1800.
N2824 X33.893 Y36.18 Z-3.078 F1800.
N2825 X33.895 Y37.08 Z-2.645 F1800.
N2826 X33.896 Y37.98 Z-2.02 F1800.
N2827 X33.898 Y38.88 Z-1.163 F1800.
N2828 Y39.33 Z-.768 F1800.
N2829 X33.899 Y39.78 Z-.488 F1800.
N2830 X33.901 Y40.68 Z-.135 F1800.
N2831 X33.902 Y41.665 Z-.001 F1800.
N2832 Y41.73 Z0.0 F1800.
N2833 X33.704 Y41.814 F1800.
N2834 Y41.749 Z-.001 F1800.
N2835 X33.703 Y41.215 Z-.046 F1800.
N2836 X33.702 Y40.68 Z-.16 F1800.
N2837 X33.701 Y40.23 Z-.315 F1800.
N2838 Y39.78 Z-.538 F1800.
N2839 X33.7 Y39.33 Z-.837 F1800.
N2840 X33.699 Y38.88 Z-1.26 F1800.
N2841 X33.698 Y38.43 Z-1.723 F1800.
N2842 Y37.98 Z-2.126 F1800.
N2843 X33.696 Y37.08 Z-2.75 F1800.
N2844 X33.695 Y36.18 Z-3.183 F1800.
N2845 X33.693 Y35.28 Z-3.484 F1800.
N2846 X33.692 Y34.38 Z-3.643 F1800.
N2847 X33.69 Y33.48 Z-3.655 F1800.
N2848 X33.689 Y32.58 Z-3.561 F1800.
N2849 X33.687 Y31.68 Z-3.332 F1800.
N2850 X33.686 Y30.78 Z-2.95 F1800.
N2851 X33.685 Y29.88 Z-2.402 F1800.
N2852 X33.683 Y28.98 Z-1.646 F1800.
N2853 X33.682 Y28.53 Z-1.177 F1800.
N2854 Y28.08 Z-.78 F1800.
N2855 X33.681 Y27.63 Z-.494 F1800.
N2856 X33.68 Y27.18 Z-.283 F1800.
N2857 X33.679 Y26.28 Z-.045 F1800.
N2858 X33.678 Y25.738 Z-.001 F1800.
N2859 Y25.673 Z0.0 F1800.
N2860 X33.479 Y25.595 F1800.
N2861 Y25.659 Z-.001 F1800.
N2862 X33.48 Y26.281 Z-.058 F1800.
N2863 X33.482 Y27.181 Z-.318 F1800.
N2864 Y27.631 Z-.544 F1800.
N2865 X33.483 Y28.081 Z-.846 F1800.
N2866 X33.484 Y28.531 Z-1.273 F1800.
N2867 X33.485 Y28.981 Z-1.752 F1800.
N2868 X33.486 Y29.881 Z-2.508 F1800.
N2869 X33.487 Y30.781 Z-3.056 F1800.
N2870 X33.489 Y31.681 Z-3.438 F1800.
N2871 X33.49 Y32.581 Z-3.667 F1800.
N2872 X33.492 Y33.481 Z-3.76 F1800.
N2873 X33.493 Y34.381 Z-3.749 F1800.
N2874 X33.495 Y35.281 Z-3.589 F1800.
N2875 X33.496 Y36.181 Z-3.289 F1800.
N2876 X33.498 Y37.081 Z-2.856 F1800.
N2877 X33.499 Y37.981 Z-2.231 F1800.
N2878 X33.501 Y38.881 Z-1.36 F1800.
N2879 Y39.331 Z-.91 F1800.
N2880 X33.502 Y39.781 Z-.592 F1800.
N2881 X33.503 Y40.231 Z-.354 F1800.
N2882 Y40.681 Z-.188 F1800.
N2883 X33.504 Y41.255 Z-.052 F1800.
N2884 X33.505 Y41.829 Z-.001 F1800.
N2885 Y41.893 Z0.0 F1800.
N2886 X33.307 Y41.971 F1800.
N2887 Y41.907 Z-.001 F1800.
N2888 X33.306 Y41.294 Z-.058 F1800.
N2889 X33.305 Y40.681 Z-.217 F1800.
N2890 X33.304 Y40.231 Z-.395 F1800.
N2891 X33.303 Y39.781 Z-.648 F1800.
N2892 Y39.331 Z-.989 F1800.
N2893 X33.302 Y38.881 Z-1.466 F1800.
N2894 X33.301 Y37.981 Z-2.336 F1800.
N2895 X33.299 Y37.081 Z-2.961 F1800.
N2896 X33.298 Y36.181 Z-3.395 F1800.
N2897 X33.296 Y35.281 Z-3.694 F1800.
N2898 X33.295 Y34.381 Z-3.854 F1800.
N2899 X33.293 Y33.481 Z-3.865 F1800.
N2900 X33.292 Y32.581 Z-3.772 F1800.
N2901 X33.29 Y31.681 Z-3.544 F1800.
N2902 X33.289 Y30.781 Z-3.162 F1800.
N2903 X33.287 Y29.881 Z-2.613 F1800.
N2904 X33.286 Y28.981 Z-1.857 F1800.
N2905 X33.285 Y28.081 Z-.917 F1800.
N2906 X33.284 Y27.631 Z-.595 F1800.
N2907 X33.283 Y27.181 Z-.355 F1800.
N2908 X33.282 Y26.281 Z-.073 F1800.
N2909 X33.28 Y25.582 Z-.001 F1800.
N2910 Y25.518 Z0.0 F1800.
N2911 X33.082 Y25.441 F1800.
N2912 Y25.506 Z-.001 F1800.
N2913 X33.083 Y26.281 Z-.09 F1800.
N2914 X33.084 Y27.181 Z-.395 F1800.
N2915 X33.085 Y27.631 Z-.65 F1800.
N2916 X33.086 Y28.081 Z-.993 F1800.
N2917 X33.087 Y28.981 Z-1.963 F1800.
N2918 X33.089 Y29.881 Z-2.719 F1800.
N2919 X33.09 Y30.781 Z-3.267 F1800.
N2920 X33.092 Y31.681 Z-3.65 F1800.
N2921 X33.093 Y32.581 Z-3.878 F1800.
N2922 X33.095 Y33.481 Z-3.97 F1800.
N2923 X33.096 Y34.381 Z-3.96 F1800.
N2924 X33.098 Y35.281 Z-3.8 F1800.
N2925 X33.099 Y36.181 Z-3.5 F1800.
N2926 X33.101 Y37.081 Z-3.066 F1800.
N2927 X33.102 Y37.981 Z-2.442 F1800.
N2928 X33.103 Y38.881 Z-1.571 F1800.
N2929 X33.104 Y39.331 Z-1.073 F1800.
N2930 X33.105 Y39.781 Z-.707 F1800.
N2931 X33.106 Y40.231 Z-.438 F1800.
N2932 Y40.681 Z-.243 F1800.
N2933 X33.107 Y41.333 Z-.065 F1800.
N2934 X33.108 Y41.984 Z-.001 F1800.
N2935 X33.109 Y42.049 Z0.0 F1800.
N2936 X32.91 Y42.127 F1800.
N2937 Y42.062 Z-.001 F1800.
N2938 X32.909 Y41.372 Z-.071 F1800.
N2939 X32.908 Y40.682 Z-.271 F1800.
N2940 X32.907 Y40.232 Z-.479 F1800.
N2941 X32.906 Y39.782 Z-.767 F1800.
N2942 Y39.332 Z-1.162 F1800.
N2943 X32.905 Y39.107 Z-1.408 F1800.
N2944 Y38.882 Z-1.676 F1800.
N2945 X32.903 Y37.982 Z-2.547 F1800.
N2946 X32.902 Y37.082 Z-3.172 F1800.
N2947 X32.9 Y36.182 Z-3.606 F1800.
N2948 X32.899 Y35.282 Z-3.905 F1800.
N2949 X32.898 Y34.382 Z-4.065 F1800.
N2950 X32.896 Y33.482 Z-4.075 F1800.
N2951 X32.895 Y32.582 Z-3.983 F1800.
N2952 X32.893 Y31.682 Z-3.755 F1800.
N2953 X32.892 Y30.782 Z-3.373 F1800.
N2954 X32.89 Y29.882 Z-2.825 F1800.
N2955 X32.889 Y28.982 Z-2.069 F1800.
N2956 X32.887 Y28.082 Z-1.074 F1800.
N2957 Y27.632 Z-.706 F1800.
N2958 X32.886 Y27.182 Z-.437 F1800.
N2959 X32.884 Y26.282 Z-.107 F1800.
N2960 X32.883 Y25.429 Z-.001 F1800.
N2961 Y25.364 Z0.0 F1800.
N2962 X32.684 Y25.291 F1800.
N2963 Y25.355 Z-.001 F1800.
N2964 X32.686 Y26.282 Z-.125 F1800.
N2965 X32.687 Y27.182 Z-.483 F1800.
N2966 X32.688 Y27.632 Z-.767 F1800.
N2967 X32.689 Y28.082 Z-1.162 F1800.
N2968 X32.69 Y28.982 Z-2.174 F1800.
N2969 X32.692 Y29.882 Z-2.931 F1800.
N2970 X32.693 Y30.782 Z-3.479 F1800.
N2971 X32.695 Y31.682 Z-3.861 F1800.
N2972 X32.696 Y32.582 Z-4.089 F1800.
N2973 X32.698 Y33.482 Z-4.18 F1800.
N2974 X32.699 Y34.382 Z-4.171 F1800.
N2975 X32.7 Y35.282 Z-4.01 F1800.
N2976 X32.702 Y36.182 Z-3.712 F1800.
N2977 X32.703 Y37.082 Z-3.277 F1800.
N2978 X32.705 Y37.982 Z-2.652 F1800.
N2979 X32.706 Y38.882 Z-1.781 F1800.
N2980 X32.707 Y39.332 Z-1.252 F1800.
N2981 X32.708 Y39.782 Z-.825 F1800.
N2982 Y40.232 Z-.522 F1800.
N2983 X32.709 Y40.682 Z-.3 F1800.
N2984 X32.71 Y41.41 Z-.078 F1800.
N2985 X32.712 Y42.138 Z-.001 F1800.
N2986 Y42.202 Z0.0 F1800.
N2987 X32.513 Y42.276 F1800.
N2988 Y42.212 Z-.001 F1800.
N2989 X32.512 Y41.447 Z-.086 F1800.
N2990 X32.511 Y40.682 Z-.332 F1800.
N2991 X32.51 Y40.232 Z-.568 F1800.
N2992 X32.509 Y39.782 Z-.886 F1800.
N2993 X32.508 Y39.332 Z-1.339 F1800.
N2994 Y38.882 Z-1.886 F1800.
N2995 X32.506 Y37.982 Z-2.758 F1800.
N2996 X32.505 Y37.082 Z-3.382 F1800.
N2997 X32.503 Y36.182 Z-3.818 F1800.
N2998 X32.502 Y35.282 Z-4.116 F1800.
N2999 X32.5 Y34.382 Z-4.276 F1800.
N3000 X32.499 Y33.482 Z-4.285 F1800.
N3001 X32.498 Y32.582 Z-4.195 F1800.
N3002 X32.496 Y31.682 Z-3.967 F1800.
N3003 X32.495 Y30.782 Z-3.585 F1800.
N3004 X32.493 Y29.882 Z-3.037 F1800.
N3005 X32.492 Y28.982 Z-2.28 F1800.
N3006 X32.49 Y28.082 Z-1.253 F1800.
N3007 Y27.632 Z-.831 F1800.
N3008 X32.489 Y27.182 Z-.525 F1800.
N3009 X32.488 Y26.732 Z-.302 F1800.
N3010 X32.487 Y26.282 Z-.145 F1800.
N3011 Y25.783 Z-.043 F1800.
N3012 X32.486 Y25.283 Z-.001 F1800.
N3013 Y25.219 Z0.0 F1800.
N3014 X32.287 Y25.148 F1800.
N3015 Y25.211 Z-.001 F1800.
N3016 X32.288 Y25.747 Z-.047 F1800.
N3017 X32.289 Y26.283 Z-.166 F1800.
N3018 Y26.733 Z-.332 F1800.
N3019 X32.29 Y27.183 Z-.569 F1800.
N3020 X32.291 Y27.633 Z-.891 F1800.
N3021 X32.292 Y28.083 Z-1.345 F1800.
N3022 X32.293 Y28.983 Z-2.386 F1800.
N3023 X32.295 Y29.883 Z-3.142 F1800.
N3024 X32.296 Y30.783 Z-3.69 F1800.
N3025 X32.297 Y31.683 Z-4.072 F1800.
N3026 X32.299 Y32.583 Z-4.3 F1800.
N3027 X32.3 Y33.483 Z-4.39 F1800.
N3028 X32.302 Y34.383 Z-4.381 F1800.
N3029 X32.303 Y35.283 Z-4.221 F1800.
N3030 X32.305 Y36.183 Z-3.924 F1800.
N3031 X32.306 Y37.083 Z-3.488 F1800.
N3032 X32.308 Y37.983 Z-2.863 F1800.
N3033 X32.309 Y38.883 Z-1.992 F1800.
N3034 X32.31 Y39.333 Z-1.431 F1800.
N3035 X32.311 Y39.783 Z-.951 F1800.
N3036 Y40.233 Z-.615 F1800.
N3037 X32.312 Y40.683 Z-.365 F1800.
N3038 X32.313 Y41.484 Z-.094 F1800.
N3039 X32.315 Y42.285 Z-.001 F1800.
N3040 Y42.349 Z0.0 F1800.
N3041 X32.116 Y42.416 F1800.
N3042 Y42.353 Z-.001 F1800.
N3043 X32.115 Y41.518 Z-.104 F1800.
N3044 X32.113 Y40.683 Z-.401 F1800.
N3045 Y40.233 Z-.665 F1800.
N3046 X32.112 Y39.783 Z-1.02 F1800.
N3047 X32.111 Y39.333 Z-1.53 F1800.
N3048 Y39.108 Z-1.829 F1800.
N3049 Y38.883 Z-2.097 F1800.
N3050 X32.109 Y37.983 Z-2.968 F1800.
N3051 X32.108 Y37.083 Z-3.593 F1800.
N3052 X32.106 Y36.183 Z-4.03 F1800.
N3053 X32.105 Y35.283 Z-4.326 F1800.
N3054 X32.103 Y34.383 Z-4.487 F1800.
N3055 X32.102 Y33.483 Z-4.496 F1800.
N3056 X32.1 Y32.583 Z-4.406 F1800.
N3057 X32.099 Y31.683 Z-4.178 F1800.
N3058 X32.097 Y30.783 Z-3.796 F1800.
N3059 X32.096 Y29.883 Z-3.248 F1800.
N3060 X32.095 Y28.983 Z-2.492 F1800.
N3061 X32.094 Y28.533 Z-2.01 F1800.
N3062 X32.093 Y28.083 Z-1.439 F1800.
N3063 X32.092 Y27.633 Z-.953 F1800.
N3064 Y27.183 Z-.615 F1800.
N3065 X32.091 Y26.733 Z-.364 F1800.
N3066 X32.09 Y26.283 Z-.189 F1800.
N3067 X32.089 Y25.711 Z-.053 F1800.
N3068 X32.088 Y25.14 Z-.001 F1800.
N3069 Y25.076 Z0.0 F1800.
N3070 X31.89 Y25.006 F1800.
N3071 Y25.069 Z-.001 F1800.
N3072 X31.891 Y25.676 Z-.058 F1800.
N3073 X31.892 Y26.283 Z-.214 F1800.
N3074 Y26.733 Z-.398 F1800.
N3075 X31.893 Y27.183 Z-.662 F1800.
N3076 X31.894 Y27.633 Z-1.019 F1800.
N3077 X31.895 Y28.083 Z-1.541 F1800.
N3078 Y28.308 Z-1.839 F1800.
N3079 Y28.533 Z-2.115 F1800.
N3080 X31.896 Y28.983 Z-2.597 F1800.
N3081 X31.897 Y29.883 Z-3.354 F1800.
N3082 X31.899 Y30.783 Z-3.902 F1800.
N3083 X31.9 Y31.683 Z-4.284 F1800.
N3084 X31.902 Y32.583 Z-4.512 F1800.
N3085 X31.903 Y33.483 Z-4.601 F1800.
N3086 X31.905 Y34.383 Z-4.592 F1800.
N3087 X31.906 Y35.283 Z-4.432 F1800.
N3088 X31.908 Y36.183 Z-4.136 F1800.
N3089 X31.909 Y37.083 Z-3.699 F1800.
N3090 X31.911 Y37.983 Z-3.074 F1800.
N3091 X31.912 Y38.883 Z-2.202 F1800.
N3092 X31.913 Y39.783 Z-1.093 F1800.
N3093 X31.914 Y40.233 Z-.717 F1800.
N3094 X31.915 Y40.683 Z-.439 F1800.
N3095 X31.916 Y41.55 Z-.114 F1800.
N3096 X31.918 Y42.417 Z-.001 F1800.
N3097 Y42.48 Z0.0 F1800.
N3098 X31.719 Y42.544 F1800.
N3099 Y42.484 Z-.001 F1800.
N3100 X31.718 Y41.582 Z-.122 F1800.
N3101 X31.716 Y40.684 Z-.479 F1800.
N3102 Y40.234 Z-.771 F1800.
N3103 X31.715 Y39.784 Z-1.171 F1800.
N3104 X31.713 Y38.884 Z-2.307 F1800.
N3105 X31.712 Y37.984 Z-3.179 F1800.
N3106 X31.711 Y37.084 Z-3.804 F1800.
N3107 X31.709 Y36.184 Z-4.242 F1800.
N3108 X31.708 Y35.284 Z-4.537 F1800.
N3109 X31.706 Y34.384 Z-4.698 F1800.
N3110 X31.705 Y33.484 Z-4.707 F1800.
N3111 X31.703 Y32.584 Z-4.617 F1800.
N3112 X31.702 Y31.684 Z-4.389 F1800.
N3113 X31.7 Y30.784 Z-4.007 F1800.
N3114 X31.699 Y29.884 Z-3.46 F1800.
N3115 X31.697 Y28.984 Z-2.703 F1800.
N3116 Y28.534 Z-2.221 F1800.
N3117 X31.696 Y28.084 Z-1.643 F1800.
N3118 X31.695 Y27.634 Z-1.089 F1800.
N3119 Y27.184 Z-.713 F1800.
N3120 X31.694 Y26.734 Z-.434 F1800.
N3121 X31.693 Y26.284 Z-.24 F1800.
N3122 X31.692 Y25.642 Z-.065 F1800.
N3123 X31.691 Y25.001 Z-.001 F1800.
N3124 Y24.938 Z0.0 F1800.
N3125 X31.492 Y24.877 F1800.
N3126 Y24.94 Z-.001 F1800.
N3127 X31.493 Y25.612 Z-.072 F1800.
N3128 X31.494 Y26.284 Z-.268 F1800.
N3129 X31.495 Y26.734 Z-.473 F1800.
N3130 X31.496 Y27.184 Z-.765 F1800.
N3131 X31.497 Y27.634 Z-1.163 F1800.
N3132 Y28.084 Z-1.749 F1800.
N3133 X31.498 Y28.534 Z-2.327 F1800.
N3134 X31.499 Y28.984 Z-2.809 F1800.
N3135 X31.5 Y29.884 Z-3.566 F1800.
N3136 X31.502 Y30.784 Z-4.113 F1800.
N3137 X31.503 Y31.684 Z-4.495 F1800.
N3138 X31.505 Y32.584 Z-4.723 F1800.
N3139 X31.506 Y33.484 Z-4.812 F1800.
N3140 X31.508 Y34.384 Z-4.803 F1800.
N3141 X31.509 Y35.284 Z-4.643 F1800.
N3142 X31.51 Y36.184 Z-4.348 F1800.
N3143 X31.512 Y37.084 Z-3.909 F1800.
N3144 X31.513 Y37.984 Z-3.284 F1800.
N3145 X31.515 Y38.884 Z-2.412 F1800.
N3146 X31.516 Y39.784 Z-1.254 F1800.
N3147 X31.517 Y40.234 Z-.828 F1800.
N3148 X31.518 Y40.684 Z-.519 F1800.
N3149 X31.519 Y41.584 Z-.139 F1800.
N3150 X31.521 Y42.484 Z-.003 F1800.
N3151 Y42.608 Z0.0 F1800.
N3152 X31.322 Y42.671 F1800.
N3153 Y42.484 Z-.006 F1800.
N3154 X31.321 Y41.584 Z-.157 F1800.
N3155 X31.32 Y41.134 Z-.323 F1800.
N3156 X31.319 Y40.684 Z-.557 F1800.
N3157 X31.318 Y40.234 Z-.882 F1800.
N3158 Y39.784 Z-1.34 F1800.
N3159 X31.316 Y38.884 Z-2.518 F1800.
N3160 X31.315 Y37.984 Z-3.39 F1800.
N3161 X31.313 Y37.084 Z-4.015 F1800.
N3162 X31.312 Y36.184 Z-4.454 F1800.
N3163 X31.31 Y35.284 Z-4.748 F1800.
N3164 X31.309 Y34.384 Z-4.909 F1800.
N3165 X31.308 Y33.484 Z-4.918 F1800.
N3166 X31.306 Y32.584 Z-4.829 F1800.
N3167 X31.305 Y31.684 Z-4.601 F1800.
N3168 X31.303 Y30.784 Z-4.219 F1800.
N3169 X31.302 Y29.884 Z-3.671 F1800.
N3170 X31.3 Y28.984 Z-2.914 F1800.
N3171 Y28.534 Z-2.432 F1800.
N3172 X31.299 Y28.084 Z-1.854 F1800.
N3173 X31.298 Y27.634 Z-1.242 F1800.
N3174 X31.297 Y27.184 Z-.819 F1800.
N3175 Y26.734 Z-.513 F1800.
N3176 X31.296 Y26.284 Z-.296 F1800.
N3177 X31.295 Y25.581 Z-.078 F1800.
N3178 X31.294 Y24.878 Z-.001 F1800.
N3179 Y24.815 Z0.0 F1800.
N3180 X31.095 Y24.755 F1800.
N3181 Y24.817 Z-.001 F1800.
N3182 X31.096 Y25.551 Z-.084 F1800.
N3183 X31.097 Y26.285 Z-.322 F1800.
N3184 X31.098 Y26.735 Z-.556 F1800.
N3185 X31.099 Y27.185 Z-.876 F1800.
N3186 X31.1 Y27.635 Z-1.328 F1800.
N3187 Y28.085 Z-1.959 F1800.
N3188 X31.101 Y28.535 Z-2.537 F1800.
N3189 X31.102 Y28.985 Z-3.02 F1800.
N3190 X31.103 Y29.885 Z-3.777 F1800.
N3191 X31.105 Y30.785 Z-4.325 F1800.
N3192 X31.106 Y31.685 Z-4.707 F1800.
N3193 X31.108 Y32.585 Z-4.934 F1800.
N3194 X31.109 Y33.485 Z-5.023 F1800.
N3195 X31.11 Y34.385 Z-5.014 F1800.
N3196 X31.112 Y35.285 Z-4.853 F1800.
N3197 X31.113 Y36.185 Z-4.56 F1800.
N3198 X31.115 Y37.085 Z-4.12 F1800.
N3199 X31.116 Y37.985 Z-3.495 F1800.
N3200 X31.118 Y38.885 Z-2.623 F1800.
N3201 X31.119 Y39.785 Z-1.418 F1800.
N3202 X31.12 Y40.235 Z-.936 F1800.
N3203 X31.121 Y40.685 Z-.597 F1800.
N3204 Y41.135 Z-.35 F1800.
N3205 X31.122 Y41.585 Z-.176 F1800.
N3206 X31.124 Y42.485 Z-.01 F1800.
N3207 Y42.735 Z0.0 F1800.
N3208 X30.925 Y42.793 F1800.
N3209 Y42.485 Z-.015 F1800.
N3210 X30.924 Y41.585 Z-.197 F1800.
N3211 X30.923 Y41.135 Z-.379 F1800.
N3212 X30.922 Y40.685 Z-.639 F1800.
N3213 X30.921 Y40.235 Z-.992 F1800.
N3214 Y39.785 Z-1.501 F1800.
N3215 X30.919 Y38.885 Z-2.728 F1800.
N3216 X30.918 Y37.985 Z-3.6 F1800.
N3217 X30.916 Y37.085 Z-4.225 F1800.
N3218 X30.915 Y36.185 Z-4.666 F1800.
N3219 X30.913 Y35.285 Z-4.959 F1800.
N3220 X30.912 Y34.385 Z-5.12 F1800.
N3221 X30.91 Y33.485 Z-5.129 F1800.
N3222 X30.909 Y32.585 Z-5.04 F1800.
N3223 X30.908 Y31.685 Z-4.812 F1800.
N3224 X30.906 Y30.785 Z-4.43 F1800.
N3225 X30.905 Y29.885 Z-3.883 F1800.
N3226 X30.903 Y28.985 Z-3.126 F1800.
N3227 X30.902 Y28.535 Z-2.642 F1800.
N3228 Y28.085 Z-2.065 F1800.
N3229 X30.901 Y27.635 Z-1.414 F1800.
N3230 X30.9 Y27.185 Z-.935 F1800.
N3231 X30.899 Y26.735 Z-.594 F1800.
N3232 Y26.285 Z-.348 F1800.
N3233 X30.898 Y25.522 Z-.09 F1800.
N3234 X30.896 Y24.759 Z-.001 F1800.
