;         PROGRAMM: UST_4
;(****************************************************************)
;        PART NAME: D:\!Work\Models\MY\hren'_dlya_stula\hren'_dlya_stula_v0.2.prt
;    Creation Date: Wed Jul  8 14:46:44 2020
;(****************************************************************)
;    POSTPROCESSOR: TMT Sinumerik 828D 3-x axes (version 1.01_07.07.2020)
;(****************************************************************)
N1 G40 G17 G90
N2 G55
;(****************************************************************)
;    START OPERATION: CAVITY_MILL_1_COPY_1
;     TYPE OPERATION: Cavity Milling
;(****************************************************************)
N3 T="FR 5" M6
N4 D1
;(****************************************************************)
; TOOL PARAMETRS: NAME: FR_5 D = 5.00 mm  L = 58.00 mm R = 0.0 mm
;(****************************************************************)
N5 S4000 M3
N6 G94
N7 G0 X54. Y-44.17
N8 Z31. ;M8
N9 Z22.844
N10 G1 Z19.844 F1600.
N11 X51.5 F1600.
N12 X50.2 F1600.
N13 Y-45.08 F1600.
N14 G2 X50.136 Y-46.956 I-22.156 J-.187 F1600.
N15 G1 X50.133 Y-47.907 F1600.
N16 G2 X50.17 Y-49.06 I-17.963 J-1.153 F1600.
N17 G1 Y-51.209 F1600.
N18 Y-53.861 F1600.
N19 Z22.844 F1600.
N20 G0 Z31.
N21 X54. Y-42.67
N22 Z22.844
N23 G1 Z19.844 F1600.
N24 X51.5 F1600.
N25 X49.06 F1600.
N26 G2 X48.7 Y-42.666 I0.0 J16.5 F1600.
N27 G1 Y-45.087 F1600.
N28 G2 X48.637 Y-46.895 I-20.656 J-.181 F1600.
N29 G1 X48.633 Y-47.954 F1600.
N30 G2 X48.67 Y-49.06 I-16.463 J-1.106 F1600.
N31 G1 Y-51.5 F1600.
N32 Y-54. F1600.
N33 Z22.844 F1600.
N34 G0 Z31.
N35 X54. Y-41.17
N36 Z22.844
N37 G1 Z19.844 F1600.
N38 X51.5 F1600.
N39 X49.06 F1600.
N40 G2 X48.105 Y-41.14 I0.0 J15. F1600.
N41 G1 X47.519 F1600.
N42 X47.2 F1600.
N43 Y-45.093 F1600.
N44 G2 X47.137 Y-46.832 I-19.156 J-.174 F1600.
N45 G1 X47.133 Y-48.002 F1600.
N46 G2 X47.17 Y-49.06 I-14.963 J-1.058 F1600.
N47 G1 Y-51.5 F1600.
N48 Y-54. F1600.
N49 Z22.844 F1600.
N50 G0 Z31.
N51 X54. Y-39.67
N52 Z22.844
N53 G1 Z19.844 F1600.
N54 X51.5 F1600.
N55 X49.06 F1600.
N56 G2 X48.154 Y-39.64 I0.0 J13.5 F1600.
N57 G1 X47.519 F1600.
N58 X46.684 F1600.
N59 G2 X45.7 Y-39.693 I-1.481 J18.106 F1600.
N60 G1 Y-45.1 F1600.
N61 G2 X45.637 Y-46.767 I-17.656 J-.167 F1600.
N62 G1 X45.632 Y-48.054 F1600.
N63 G2 X45.67 Y-49.06 I-13.462 J-1.006 F1600.
N64 G1 Y-51.5 F1600.
N65 Y-54. F1600.
N66 Z22.844 F1600.
N67 G0 Z31.
N68 X54. Y-38.17
N69 Z22.844
N70 G1 Z19.844 F1600.
N71 X51.5 F1600.
N72 X49.06 F1600.
N73 G2 X48.206 Y-38.14 I0.0 J12. F1600.
N74 G1 X47.519 F1600.
N75 X46.621 F1600.
N76 G2 X45.171 Y-38.2 I-1.418 J16.606 F1600.
N77 G1 X44.2 F1600.
N78 Y-45.108 F1600.
N79 G2 X44.137 Y-46.699 I-16.156 J-.16 F1600.
N80 G1 X44.132 Y-48.109 F1600.
N81 G2 X44.17 Y-49.06 I-11.962 J-.951 F1600.
N82 G1 Y-51.5 F1600.
N83 Y-54. F1600.
N84 Z22.844 F1600.
N85 G0 Z31.
N86 X54. Y-36.67
N87 Z22.844
N88 G1 Z19.844 F1600.
N89 X51.5 F1600.
N90 X49.06 F1600.
N91 G2 X48.261 Y-36.64 I0.0 J10.5 F1600.
N92 G1 X47.519 F1600.
N93 X46.556 F1600.
N94 G2 X45.173 Y-36.7 I-1.353 J15.106 F1600.
N95 G1 X42.7 F1600.
N96 Y-45.115 F1600.
N97 G2 X42.637 Y-46.628 I-14.656 J-.152 F1600.
N98 G1 X42.632 Y-48.168 F1600.
N99 G2 X42.67 Y-49.06 I-10.462 J-.892 F1600.
N100 G1 Y-51.5 F1600.
N101 Y-54. F1600.
N102 Z22.844 F1600.
N103 G0 Z31.
N104 X54. Y-35.17
N105 Z22.844
N106 G1 Z19.844 F1600.
N107 X51.5 F1600.
N108 X49.06 F1600.
N109 G2 X48.32 Y-35.14 I0.0 J9. F1600.
N110 G1 X47.519 F1600.
N111 X46.487 F1600.
N112 G2 X45.174 Y-35.2 I-1.284 J13.606 F1600.
N113 G1 X41.2 F1600.
N114 Y-45.123 F1600.
N115 G2 X41.138 Y-46.554 I-13.156 J-.144 F1600.
N116 G1 X41.132 Y-48.232 F1600.
N117 G2 X41.17 Y-49.06 I-8.962 J-.828 F1600.
N118 G1 Y-51.5 F1600.
N119 Y-54. F1600.
N120 Z22.844 F1600.
N121 G0 Z31.
N122 X54. Y-33.67
N123 Z22.844
N124 G1 Z19.844 F1600.
N125 X51.5 F1600.
N126 X49.06 F1600.
N127 G2 X48.385 Y-33.64 I0.0 J7.5 F1600.
N128 G1 X47.519 F1600.
N129 X46.414 F1600.
N130 G2 X45.176 Y-33.7 I-1.211 J12.106 F1600.
N131 G1 X39.7 F1600.
N132 Y-45.132 F1600.
N133 G2 X39.638 Y-46.476 I-11.656 J-.136 F1600.
N134 G1 X39.632 Y-48.302 F1600.
N135 G2 X39.67 Y-49.06 I-7.462 J-.758 F1600.
N136 G1 Y-51.5 F1600.
N137 Y-54. F1600.
N138 Z22.844 F1600.
N139 G0 Z31.
N140 X54. Y-32.17
N141 Z22.844
N142 G1 Z19.844 F1600.
N143 X51.5 F1600.
N144 X49.06 F1600.
N145 G2 X48.464 Y-32.14 I0.0 J6. F1600.
N146 G1 X48.385 F1600.
N147 X47.519 F1600.
N148 X46.337 F1600.
N149 G2 X45.178 Y-32.2 I-1.134 J10.606 F1600.
N150 G1 X38.2 F1600.
N151 Y-45.141 F1600.
N152 G2 X38.138 Y-46.393 I-10.156 J-.127 F1600.
N153 G1 X38.131 Y-48.38 F1600.
N154 G2 X38.17 Y-49.06 I-5.961 J-.68 F1600.
N155 G1 Y-51.5 F1600.
N156 Y-54. F1600.
N157 Z22.844 F1600.
N158 G0 Z31.
N159 X54. Y-30.67
N160 Z22.844
N161 G1 Z19.844 F1600.
N162 X51.5 F1600.
N163 X49.06 F1600.
N164 G2 X48.554 Y-30.641 I0.0 J4.5 F1600.
N165 G1 X48.414 Y-30.64 F1600.
N166 X47.519 F1600.
N167 X46.254 F1600.
N168 G2 X45.18 Y-30.7 I-1.051 J9.106 F1600.
N169 G1 X36.7 F1600.
N170 Y-45.15 F1600.
N171 G2 X36.639 Y-46.303 I-8.656 J-.117 F1600.
N172 G1 X36.631 Y-48.469 F1600.
N173 G2 X36.67 Y-49.06 I-4.461 J-.591 F1600.
N174 G1 Y-51.5 F1600.
N175 Y-54. F1600.
N176 Z22.844 F1600.
N177 G0 Z31.
N178 X54. Y-29.17
N179 Z22.844
N180 G1 Z19.844 F1600.
N181 X51.5 F1600.
N182 X49.06 F1600.
N183 G2 X48.623 Y-29.138 I0.0 J3. F1600.
N184 G1 X48.425 Y-29.14 F1600.
N185 X47.519 F1600.
N186 X46.164 F1600.
N187 G2 X45.182 Y-29.2 I-.961 J7.606 F1600.
N188 G1 X35.2 F1600.
N189 Y-45.161 F1600.
N190 G2 X35.139 Y-46.206 I-7.156 J-.106 F1600.
N191 G1 X35.131 Y-48.575 F1600.
N192 G2 X35.17 Y-49.06 I-2.961 J-.485 F1600.
N193 G1 Y-51.5 F1600.
N194 Y-54. F1600.
N195 Z22.844 F1600.
N196 G0 Z31.
N197 X54. Y-27.67
N198 Z22.844
N199 G1 Z19.844 F1600.
N200 X51.5 F1600.
N201 X49.06 F1600.
N202 G2 X48.717 Y-27.63 I0.0 J1.5 F1600.
N203 G1 X48.531 Y-27.641 F1600.
N204 X48.435 Y-27.64 F1600.
N205 X47.519 F1600.
N206 X46.064 F1600.
N207 G2 X45.184 Y-27.7 I-.861 J6.106 F1600.
N208 G1 X33.7 F1600.
N209 Y-45.173 F1600.
N210 G2 X33.639 Y-46.099 I-5.656 J-.095 F1600.
N211 G1 X33.63 Y-48.716 F1600.
N212 G2 X33.67 Y-49.06 I-1.46 J-.344 F1600.
N213 G1 Y-51.5 F1600.
N214 Y-54. F1600.
N215 Z22.844 F1600.
N216 G0 Z31.
N217 X54. Y-26.17
N218 Z22.844
N219 G1 Z19.844 F1600.
N220 X51.5 F1600.
N221 X49.06 F1600.
N222 Y-26.164 F1600.
N223 X49.076 Y-26.116 F1600.
N224 X49.039 Y-26.083 F1600.
N225 X48.993 Y-26.105 F1600.
N226 X48.866 Y-26.119 F1600.
N227 X48.499 Y-26.14 F1600.
N228 X47.519 F1600.
N229 X45.952 F1600.
N230 G2 X45.186 Y-26.2 I-.748 J4.606 F1600.
N231 G1 X32.5 F1600.
N232 X32.435 Y-26.207 F1600.
N233 X32.2 Y-26.5 F1600.
N234 Y-45.186 F1600.
N235 G2 X32.139 Y-45.98 I-4.156 J-.081 F1600.
N236 G1 Y-46.604 F1600.
N237 Y-47.171 F1600.
N238 Y-47.519 F1600.
N239 Y-47.737 F1600.
N240 Y-48.048 F1600.
N241 X32.14 Y-48.499 F1600.
N242 X32.119 Y-48.866 F1600.
N243 X32.104 Y-48.993 F1600.
N244 X32.084 Y-49.042 F1600.
N245 X32.121 Y-49.079 F1600.
N246 X32.17 Y-49.06 F1600.
N247 Y-51.5 F1600.
N248 Y-54. F1600.
N249 Z22.844 F1600.
N250 G0 Z31.
N251 X5.33
N252 Z22.844
N253 G1 Z19.844 F1600.
N254 Y-49.413 F1600.
N255 Y-48.51 F1600.
N256 G2 X5.378 Y-47.308 I15. J0.0 F1600.
N257 G1 X5.375 Y-46.931 F1600.
N258 G2 X5.3 Y-45.151 I19.469 J1.711 F1600.
N259 G1 Y-41.2 F1600.
N260 X3.912 F1600.
N261 G2 X2.25 Y-41.139 I-.107 J19.686 F1600.
N262 G1 X1.463 F1600.
N263 G2 X.496 Y-41.17 I-.967 J14.969 F1600.
N264 G1 X-.687 F1600.
N265 X-5. F1600.
N266 Z22.844 F1600.
N267 G0 Z31.
N268 X6.83 Y-54.
N269 Z22.844
N270 G1 Z19.844 F1600.
N271 Y-51.5 F1600.
N272 Y-48.51 F1600.
N273 G2 X6.879 Y-47.363 I13.5 J0.0 F1600.
N274 G1 X6.874 Y-46.857 F1600.
N275 G2 X6.8 Y-45.153 I17.97 J1.638 F1600.
N276 G1 Y-39.7 F1600.
N277 X3.908 F1600.
N278 G2 X2.311 Y-39.639 I-.103 J18.186 F1600.
N279 G1 X1.413 F1600.
N280 G2 X.496 Y-39.67 I-.917 J13.469 F1600.
N281 G1 X-2.5 F1600.
N282 X-5. F1600.
N283 Z22.844 F1600.
N284 G0 Z31.
N285 X8.33 Y-54.
N286 Z22.844
N287 G1 Z19.844 F1600.
N288 Y-51.5 F1600.
N289 Y-48.51 F1600.
N290 G2 X8.379 Y-47.422 I12. J0.0 F1600.
N291 G1 X8.374 Y-46.781 F1600.
N292 G2 X8.3 Y-45.156 I16.471 J1.561 F1600.
N293 G1 Y-38.2 F1600.
N294 X3.904 F1600.
N295 G2 X2.374 Y-38.139 I-.099 J16.686 F1600.
N296 G1 X1.361 F1600.
N297 G2 X.496 Y-38.17 I-.865 J11.969 F1600.
N298 G1 X-2.5 F1600.
N299 X-5. F1600.
N300 Z22.844 F1600.
N301 G0 Z31.
N302 X9.83 Y-54.
N303 Z22.844
N304 G1 Z19.844 F1600.
N305 Y-51.5 F1600.
N306 Y-48.51 F1600.
N307 G2 X9.88 Y-47.486 I10.5 J0.0 F1600.
N308 G1 X9.873 Y-46.702 F1600.
N309 G2 X9.8 Y-45.159 I14.971 J1.482 F1600.
N310 G1 Y-36.7 F1600.
N311 X3.899 F1600.
N312 G2 X2.44 Y-36.639 I-.094 J15.186 F1600.
N313 G1 X1.305 F1600.
N314 G2 X.496 Y-36.67 I-.809 J10.469 F1600.
N315 G1 X-2.5 F1600.
N316 X-5. F1600.
N317 Z22.844 F1600.
N318 G0 Z31.
N319 X11.33 Y-54.
N320 Z22.844
N321 G1 Z19.844 F1600.
N322 Y-51.5 F1600.
N323 Y-48.51 F1600.
N324 G2 X11.381 Y-47.556 I9. J0.0 F1600.
N325 G1 X11.372 Y-46.619 F1600.
N326 G2 X11.3 Y-45.162 I13.472 J1.4 F1600.
N327 G1 Y-35.2 F1600.
N328 X3.894 F1600.
N329 G2 X2.509 Y-35.139 I-.089 J13.686 F1600.
N330 G1 X1.245 F1600.
N331 G2 X.496 Y-35.17 I-.749 J8.969 F1600.
N332 G1 X-2.5 F1600.
N333 X-5. F1600.
N334 Z22.844 F1600.
N335 G0 Z31.
N336 X12.83 Y-54.
N337 Z22.844
N338 G1 Z19.844 F1600.
N339 Y-51.5 F1600.
N340 Y-48.51 F1600.
N341 G2 X12.881 Y-47.633 I7.5 J0.0 F1600.
N342 G1 X12.872 Y-46.533 F1600.
N343 G2 X12.8 Y-45.166 I11.973 J1.313 F1600.
N344 G1 Y-33.7 F1600.
N345 X3.889 F1600.
N346 G2 X2.582 Y-33.639 I-.084 J12.186 F1600.
N347 G1 X1.179 F1600.
N348 G2 X.496 Y-33.67 I-.683 J7.469 F1600.
N349 G1 X-2.5 F1600.
N350 X-5. F1600.
N351 Z22.844 F1600.
N352 G0 Z31.
N353 X14.33 Y-54.
N354 Z22.844
N355 G1 Z19.844 F1600.
N356 Y-51.5 F1600.
N357 Y-48.51 F1600.
N358 G2 X14.382 Y-47.72 I6. J0.0 F1600.
N359 G1 X14.371 Y-46.442 F1600.
N360 G2 X14.3 Y-45.169 I10.473 J1.222 F1600.
N361 G1 Y-32.2 F1600.
N362 X3.884 F1600.
N363 G2 X2.66 Y-32.139 I-.079 J10.686 F1600.
N364 G1 X1.107 F1600.
N365 G2 X.496 Y-32.17 I-.611 J5.969 F1600.
N366 G1 X-2.5 F1600.
N367 X-5. F1600.
N368 Z22.844 F1600.
N369 G0 Z31.
N370 X15.83 Y-54.
N371 Z22.844
N372 G1 Z19.844 F1600.
N373 Y-51.5 F1600.
N374 Y-48.51 F1600.
N375 G2 X15.883 Y-47.82 I4.5 J0.0 F1600.
N376 G1 X15.87 Y-46.345 F1600.
N377 G2 X15.8 Y-45.173 I8.974 J1.125 F1600.
N378 G1 Y-30.7 F1600.
N379 X3.878 F1600.
N380 G2 X2.744 Y-30.639 I-.073 J9.186 F1600.
N381 G1 X1.025 F1600.
N382 G2 X.496 Y-30.67 I-.529 J4.469 F1600.
N383 G1 X-2.5 F1600.
N384 X-5. F1600.
N385 Z22.844 F1600.
N386 G0 Z31.
N387 X17.33 Y-54.
N388 Z22.844
N389 G1 Z19.844 F1600.
N390 Y-51.5 F1600.
N391 Y-48.51 F1600.
N392 G2 X17.384 Y-47.941 I3. J0.0 F1600.
N393 G1 X17.369 Y-46.24 F1600.
N394 G2 X17.3 Y-45.177 I7.475 J1.021 F1600.
N395 G1 Y-29.2 F1600.
N396 X3.872 F1600.
N397 G2 X2.835 Y-29.139 I-.067 J7.686 F1600.
N398 G1 X.927 F1600.
N399 G2 X.496 Y-29.17 I-.432 J2.969 F1600.
N400 G1 X-2.5 F1600.
N401 X-5. F1600.
N402 Z22.844 F1600.
N403 G0 Z31.
N404 X18.83 Y-54.
N405 Z22.844
N406 G1 Z19.844 F1600.
N407 Y-51.5 F1600.
N408 Y-48.51 F1600.
N409 G2 X18.886 Y-48.105 I1.5 J0.0 F1600.
N410 G1 X18.868 Y-46.126 F1600.
N411 G2 X18.8 Y-45.181 I5.976 J.907 F1600.
N412 G1 Y-27.7 F1600.
N413 X3.865 F1600.
N414 G2 X2.935 Y-27.639 I-.06 J6.186 F1600.
N415 G1 X.8 F1600.
N416 G2 X.496 Y-27.67 I-.304 J1.469 F1600.
N417 G1 X-2.5 F1600.
N418 X-5. F1600.
N419 Z22.844 F1600.
N420 G0 Z31.
N421 X20.33 Y-54.
N422 Z22.844
N423 G1 Z19.844 F1600.
N424 Y-51.5 F1600.
N425 Y-48.51 F1600.
N426 X20.393 Y-48.513 F1600.
N427 X20.389 Y-48.45 F1600.
N428 X20.383 Y-47.737 F1600.
N429 X20.378 Y-47.17 F1600.
N430 X20.373 Y-46.603 F1600.
N431 X20.37 Y-46.279 F1600.
N432 X20.367 Y-45.999 F1600.
N433 G2 X20.3 Y-45.186 I4.477 J.78 F1600.
N434 G1 Y-26.5 F1600.
N435 G3 X20. Y-26.2 I-.3 J0.0 F1600.
N436 G1 X3.857 F1600.
N437 G2 X3.048 Y-26.139 I-.052 J4.686 F1600.
N438 G1 X.65 Y-26.138 F1600.
N439 X.577 Y-26.114 F1600.
N440 X.531 Y-26.085 F1600.
N441 X.485 Y-26.117 F1600.
N442 X.496 Y-26.17 F1600.
N443 X-2.5 F1600.
N444 X-5. F1600.
N445 Z22.844 F1600.
N446 G0 Z31.
N447 X-4.505 Y2.17
N448 Z22.844
N449 G1 Z19.844 F1600.
N450 X-1.241 F1600.
N451 X-.06 F1600.
N452 G2 X.936 Y2.14 I0.0 J-16.5 F1600.
N453 G1 X2.202 F1600.
N454 G2 X3.834 Y2.2 I1.594 J-21.098 F1600.
N455 G1 X10.733 F1600.
N456 G2 X10.73 Y2.5 I16.497 J.3 F1600.
N457 G1 Y5. F1600.
N458 Z22.844 F1600.
N459 G0 Z31.
N460 X-4.955 Y.67
N461 Z22.844
N462 G1 Z19.844 F1600.
N463 X-2.409 F1600.
N464 X-.06 F1600.
N465 G2 X.89 Y.64 I0.0 J-15. F1600.
N466 G1 X2.259 F1600.
N467 G2 X3.833 Y.7 I1.536 J-19.598 F1600.
N468 G1 X12.231 F1600.
N469 X12.233 Y2.5 F1600.
N470 X12.236 Y5. F1600.
N471 Z22.844 F1600.
N472 G0 Z31.
N473 X-5. Y-.83
N474 Z22.844
N475 G1 Z19.844 F1600.
N476 X-2.5 F1600.
N477 X-.06 F1600.
N478 G2 X.841 Y-.86 I0.0 J-13.5 F1600.
N479 G1 X2.319 F1600.
N480 G2 X3.831 Y-.8 I1.476 J-18.098 F1600.
N481 G1 X13.758 F1600.
N482 G2 X13.731 Y.076 I13.473 J.86 F1600.
N483 G1 X13.733 Y2.5 F1600.
N484 X13.736 Y5. F1600.
N485 Z22.844 F1600.
N486 G0 Z31.
N487 X-5. Y-2.33
N488 Z22.844
N489 G1 Z19.844 F1600.
N490 X-2.5 F1600.
N491 X-.06 F1600.
N492 G2 X.789 Y-2.36 I0.0 J-12. F1600.
N493 G1 X2.382 F1600.
N494 G2 X3.83 Y-2.3 I1.414 J-16.598 F1600.
N495 G1 X15.263 F1600.
N496 X15.268 Y-.884 F1600.
N497 G2 X15.231 Y.074 I11.963 J.944 F1600.
N498 G1 X15.233 Y2.5 F1600.
N499 X15.236 Y5. F1600.
N500 Z22.844 F1600.
N501 G0 Z31.
N502 X-5. Y-3.83
N503 Z22.844
N504 G1 Z19.844 F1600.
N505 X-2.5 F1600.
N506 X-.06 F1600.
N507 G2 X.742 Y-3.86 I.007 J-10.501 F1600.
N508 G1 X2.447 F1600.
N509 G2 X3.828 Y-3.8 I1.349 J-15.098 F1600.
N510 G1 X16.7 F1600.
N511 G2 X16.762 Y-2.408 I15.017 J.023 F1600.
N512 G1 X16.768 Y-.826 F1600.
N513 G2 X16.731 Y.072 I10.463 J.886 F1600.
N514 G1 X16.733 Y2.5 F1600.
N515 X16.736 Y5. F1600.
N516 Z22.844 F1600.
N517 G0 Z31.
N518 X-5. Y-5.33
N519 Z22.844
N520 G1 Z19.844 F1600.
N521 X-2.5 F1600.
N522 X-.06 F1600.
N523 G2 X.709 Y-5.36 I.033 J-9.003 F1600.
N524 G1 X2.515 F1600.
N525 G2 X3.827 Y-5.3 I1.28 J-13.598 F1600.
N526 G1 X18.2 F1600.
N527 Y-3.798 F1600.
N528 G2 X18.262 Y-2.48 I13.517 J.021 F1600.
N529 G1 X18.268 Y-.762 F1600.
N530 G2 X18.231 Y.07 I8.962 J.822 F1600.
N531 G1 X18.233 Y2.5 F1600.
N532 X18.236 Y5. F1600.
N533 Z22.844 F1600.
N534 G0 Z31.
N535 X-5. Y-6.83
N536 Z22.844
N537 G1 Z19.844 F1600.
N538 X-2.5 F1600.
N539 X-.06 F1600.
N540 G2 X.545 Y-6.854 I0.0 J-7.5 F1600.
N541 G1 X.677 Y-6.86 F1600.
N542 X2.588 F1600.
N543 G2 X3.825 Y-6.8 I1.208 J-12.098 F1600.
N544 G1 X19.7 F1600.
N545 Y-3.837 F1600.
N546 G2 X19.762 Y-2.557 I12.017 J.06 F1600.
N547 G1 X19.768 Y-.693 F1600.
N548 G2 X19.731 Y.069 I7.462 J.753 F1600.
N549 G1 X19.733 Y2.5 F1600.
N550 X19.736 Y5. F1600.
N551 Z22.844 F1600.
N552 G0 Z31.
N553 X-5. Y-8.33
N554 Z22.844
N555 G1 Z19.844 F1600.
N556 X-2.5 F1600.
N557 X-.06 F1600.
N558 G2 X.45 Y-8.352 I0.0 J-6. F1600.
N559 G1 X.645 Y-8.36 F1600.
N560 X2.665 F1600.
N561 G2 X3.823 Y-8.3 I1.13 J-10.598 F1600.
N562 G1 X21.2 F1600.
N563 Y-3.833 F1600.
N564 G2 X21.262 Y-2.639 I10.517 J.056 F1600.
N565 G1 X21.269 Y-.616 F1600.
N566 G2 X21.231 Y.067 I5.962 J.676 F1600.
N567 G1 X21.233 Y2.5 F1600.
N568 X21.236 Y5. F1600.
N569 Z22.844 F1600.
N570 G0 Z31.
N571 X-5. Y-9.83
N572 Z22.844
N573 G1 Z19.844 F1600.
N574 X-2.5 F1600.
N575 X-.06 F1600.
N576 G2 X.423 Y-9.856 I0.0 J-4.5 F1600.
N577 G1 X.463 Y-9.854 F1600.
N578 X.613 Y-9.86 F1600.
N579 X2.748 F1600.
N580 G2 X3.821 Y-9.8 I1.048 J-9.098 F1600.
N581 G1 X22.7 F1600.
N582 Y-3.829 F1600.
N583 G2 X22.761 Y-2.726 I9.017 J.052 F1600.
N584 G1 X22.769 Y-.527 F1600.
N585 G2 X22.731 Y.065 I4.461 J.587 F1600.
N586 G1 X22.733 Y2.5 F1600.
N587 X22.736 Y5. F1600.
N588 Z22.844 F1600.
N589 G0 Z31.
N590 X-5. Y-11.33
N591 Z22.844
N592 G1 Z19.844 F1600.
N593 X-2.5 F1600.
N594 X-.06 F1600.
N595 G2 X.374 Y-11.362 I0.0 J-3. F1600.
N596 G1 X.475 Y-11.356 F1600.
N597 X.581 Y-11.36 F1600.
N598 X2.838 F1600.
N599 G2 X3.819 Y-11.3 I.958 J-7.598 F1600.
N600 G1 X24.2 F1600.
N601 Y-3.824 F1600.
N602 G2 X24.261 Y-2.82 I7.517 J.048 F1600.
N603 G1 X24.269 Y-.421 F1600.
N604 G2 X24.231 Y.063 I2.961 J.481 F1600.
N605 G1 X24.233 Y2.5 F1600.
N606 X24.236 Y5. F1600.
N607 Z22.844 F1600.
N608 G0 Z31.
N609 X-5. Y-12.83
N610 Z22.844
N611 G1 Z19.844 F1600.
N612 X-2.5 F1600.
N613 X-.06 F1600.
N614 G2 X.283 Y-12.87 I0.0 J-1.5 F1600.
N615 G1 X.581 Y-12.86 F1600.
N616 X2.937 F1600.
N617 G2 X3.816 Y-12.8 I.858 J-6.098 F1600.
N618 G1 X25.7 F1600.
N619 Y-3.819 F1600.
N620 G2 X25.761 Y-2.924 I6.017 J.043 F1600.
N621 G1 X25.77 Y-.282 F1600.
N622 G2 X25.731 Y.062 I1.461 J.342 F1600.
N623 G1 X25.733 Y2.5 F1600.
N624 X25.736 Y5. F1600.
N625 Z22.844 F1600.
N626 G0 Z31.
N627 X-5. Y-14.33
N628 Z22.844
N629 G1 Z19.844 F1600.
N630 X-2.5 F1600.
N631 X-.06 F1600.
N632 Y-14.339 F1600.
N633 X-.076 Y-14.387 F1600.
N634 X-.038 Y-14.42 F1600.
N635 X.008 Y-14.398 F1600.
N636 X.135 Y-14.381 F1600.
N637 X.5 Y-14.359 F1600.
N638 X3.05 Y-14.36 F1600.
N639 G2 X3.814 Y-14.3 I.746 J-4.598 F1600.
N640 G1 X26.9 F1600.
N641 G3 X27.2 Y-14. I0.0 J.3 F1600.
N642 G1 Y-3.814 F1600.
N643 G2 X27.261 Y-3.038 I4.517 J.037 F1600.
N644 G1 Y-2.396 F1600.
N645 Y-1.829 F1600.
N646 Y-1.481 F1600.
N647 Y-1.263 F1600.
N648 Y-.952 F1600.
N649 X27.26 Y-.501 F1600.
N650 X27.281 Y-.134 F1600.
N651 X27.295 Y-.007 F1600.
N652 X27.316 Y.041 F1600.
N653 X27.279 Y.079 F1600.
N654 X27.231 Y.06 F1600.
N655 X27.233 Y2.5 F1600.
N656 X27.236 Y5. F1600.
N657 Z22.844 F1600.
N658 G0 Z31.
N659 X51.07 Y4.551
N660 Z22.844
N661 G1 Z19.844 F1600.
N662 Y1.402 F1600.
N663 Y.094 F1600.
N664 G2 X51.04 Y-.756 I-12. J-.002 F1600.
N665 G1 Y-2.334 F1600.
N666 X51.5 F1600.
N667 X54. Y-2.338 F1600.
N668 Z22.844 F1600.
N669 G0 Z31.
N670 X49.57 Y4.967
N671 Z22.844
N672 G1 Z19.844 F1600.
N673 Y2.434 F1600.
N674 Y.094 F1600.
N675 G2 X49.54 Y-.701 I-10.5 J-.002 F1600.
N676 G1 Y-2.435 F1600.
N677 G2 X49.6 Y-3.832 I-14.817 J-1.337 F1600.
N678 G1 X51.5 Y-3.834 F1600.
N679 X54. Y-3.838 F1600.
N680 Z22.844 F1600.
N681 G0 Z31.
N682 X48.07 Y5.
N683 Z22.844
N684 G1 Z19.844 F1600.
N685 Y2.5 F1600.
N686 Y.093 F1600.
N687 G2 X48.04 Y-.642 I-9. J-.002 F1600.
N688 G1 Y-2.504 F1600.
N689 G2 X48.1 Y-3.845 I-13.317 J-1.268 F1600.
N690 G1 Y-5.368 F1600.
N691 X48.242 F1600.
N692 G2 X49.073 Y-5.331 I.818 J-8.963 F1600.
N693 G1 X51.5 Y-5.334 F1600.
N694 X54. Y-5.338 F1600.
N695 Z22.844 F1600.
N696 G0 Z31.
N697 X46.57 Y5.
N698 Z22.844
N699 G1 Z19.844 F1600.
N700 Y2.5 F1600.
N701 Y.093 F1600.
N702 G2 X46.542 Y-.559 I-7.5 J0.0 F1600.
N703 G1 X46.54 Y-2.578 F1600.
N704 G2 X46.6 Y-3.841 I-11.817 J-1.194 F1600.
N705 G1 Y-6.862 F1600.
N706 X48.311 Y-6.868 F1600.
N707 G2 X49.071 Y-6.831 I.749 J-7.463 F1600.
N708 G1 X51.5 Y-6.834 F1600.
N709 X54. Y-6.838 F1600.
N710 Z22.844 F1600.
N711 G0 Z31.
N712 X45.07 Y5.
N713 Z22.844
N714 G1 Z19.844 F1600.
N715 Y2.5 F1600.
N716 Y.093 F1600.
N717 G2 X45.043 Y-.473 I-6. J0.0 F1600.
N718 G1 X45.04 Y-.606 F1600.
N719 Y-2.656 F1600.
N720 G2 X45.1 Y-3.836 I-10.317 J-1.116 F1600.
N721 G1 Y-8.3 F1600.
N722 G2 X46.344 Y-8.361 I.1 J-10.658 F1600.
N723 G1 X48.388 Y-8.369 F1600.
N724 G2 X49.069 Y-8.331 I.672 J-5.962 F1600.
N725 G1 X51.5 Y-8.334 F1600.
N726 X54. Y-8.338 F1600.
N727 Z22.844 F1600.
N728 G0 Z31.
N729 X43.57 Y5.
N730 Z22.844
N731 G1 Z19.844 F1600.
N732 Y2.5 F1600.
N733 Y.093 F1600.
N734 G2 X43.543 Y-.4 I-4.5 J0.0 F1600.
N735 G1 X43.54 Y-.588 F1600.
N736 Y-2.74 F1600.
N737 G2 X43.6 Y-3.831 I-8.817 J-1.032 F1600.
N738 G1 Y-9.8 F1600.
N739 X45.179 F1600.
N740 G2 X46.258 Y-9.861 I.025 J-9.158 F1600.
N741 G1 X48.476 Y-9.869 F1600.
N742 G2 X49.066 Y-9.831 I.584 J-4.462 F1600.
N743 G1 X51.5 Y-9.834 F1600.
N744 X54. Y-9.838 F1600.
N745 Z22.844 F1600.
N746 G0 Z31.
N747 X42.07 Y5.
N748 Z22.844
N749 G1 Z19.844 F1600.
N750 Y2.5 F1600.
N751 Y.093 F1600.
N752 G2 X42.037 Y-.35 I-3. J0.0 F1600.
N753 G1 X42.043 Y-.448 F1600.
N754 X42.04 Y-.57 F1600.
N755 Y-2.832 F1600.
N756 G2 X42.1 Y-3.826 I-7.317 J-.94 F1600.
N757 G1 Y-11.3 F1600.
N758 X45.181 F1600.
N759 G2 X46.165 Y-11.36 I.023 J-7.658 F1600.
N760 G1 X48.581 Y-11.369 F1600.
N761 G2 X49.064 Y-11.331 I.479 J-2.961 F1600.
N762 G1 X51.5 Y-11.334 F1600.
N763 X54. Y-11.338 F1600.
N764 Z22.844 F1600.
N765 G0 Z31.
N766 X40.57 Y5.
N767 Z22.844
N768 G1 Z19.844 F1600.
N769 Y2.5 F1600.
N770 Y.093 F1600.
N771 G2 X40.529 Y-.256 I-1.5 J0.0 F1600.
N772 G1 X40.542 Y-.474 F1600.
N773 X40.54 Y-.552 F1600.
N774 Y-2.933 F1600.
N775 G2 X40.6 Y-3.82 I-5.817 J-.839 F1600.
N776 G1 Y-12.8 F1600.
N777 X45.184 F1600.
N778 G2 X46.063 Y-12.86 I.021 J-6.158 F1600.
N779 G1 X48.72 Y-12.87 F1600.
N780 G2 X49.062 Y-12.831 I.34 J-1.461 F1600.
N781 G1 X51.5 Y-12.834 F1600.
N782 X54. Y-12.838 F1600.
N783 Z22.844 F1600.
N784 G0 Z31.
N785 X39.07 Y5.
N786 Z22.844
N787 G1 Z19.844 F1600.
N788 Y2.5 F1600.
N789 Y.093 F1600.
N790 X39.024 Y.091 F1600.
N791 X39.039 Y.048 F1600.
N792 X39.019 Y-.133 F1600.
N793 X39.04 Y-.57 F1600.
N794 Y-.696 F1600.
N795 Y-.952 F1600.
N796 Y-1.263 F1600.
N797 Y-1.481 F1600.
N798 Y-1.829 F1600.
N799 Y-2.396 F1600.
N800 Y-3.049 F1600.
N801 G2 X39.1 Y-3.814 I-4.317 J-.723 F1600.
N802 G1 Y-14. F1600.
N803 G3 X39.4 Y-14.3 I.3 J0.0 F1600.
N804 G1 X45.186 F1600.
N805 G2 X45.95 Y-14.36 I.018 J-4.658 F1600.
N806 G1 X46.604 F1600.
N807 X47.171 F1600.
N808 X47.519 F1600.
N809 X47.737 F1600.
N810 X48.048 F1600.
N811 X48.361 F1600.
N812 X48.499 Y-14.359 F1600.
N813 X48.865 Y-14.381 F1600.
N814 X48.992 Y-14.398 F1600.
N815 X49.041 Y-14.418 F1600.
N816 X49.08 Y-14.38 F1600.
N817 X49.06 Y-14.331 F1600.
N818 X51.5 Y-14.334 F1600.
N819 X54. Y-14.338 F1600.
N820 Z22.844 F1600.
N821 G0 Z31.
N822 X51.07 Y4.551
N823 Z21.889
N824 G1 Z18.889 F1600.
N825 Y1.402 F1600.
N826 Y.093 F1600.
N827 G2 X51.041 Y-.74 I-12. J0.0 F1600.
N828 G1 X51.049 Y-2.334 F1600.
N829 X51.5 F1600.
N830 X54. Y-2.338 F1600.
N831 Z21.889 F1600.
N832 G0 Z31.
N833 X49.57 Y4.967
N834 Z21.889
N835 G1 Z18.889 F1600.
N836 Y2.434 F1600.
N837 Y.093 F1600.
N838 G2 X49.541 Y-.689 I-10.5 J0.0 F1600.
N839 G1 X49.556 Y-3.832 F1600.
N840 X51.5 Y-3.834 F1600.
N841 X54. Y-3.838 F1600.
N842 Z21.889 F1600.
N843 G0 Z31.
N844 X48.07 Y5.
N845 Z21.889
N846 G1 Z18.889 F1600.
N847 Y2.5 F1600.
N848 Y.093 F1600.
N849 G2 X48.04 Y-.635 I-9. J0.0 F1600.
N850 G1 X48.064 Y-5.365 F1600.
N851 X48.264 Y-5.366 F1600.
N852 G2 X49.073 Y-5.331 I.796 J-8.965 F1600.
N853 G1 X51.5 Y-5.334 F1600.
N854 X54. Y-5.338 F1600.
N855 Z21.889 F1600.
N856 G0 Z31.
N857 X46.57 Y5.
N858 Z21.889
N859 G1 Z18.889 F1600.
N860 Y2.5 F1600.
N861 Y.093 F1600.
N862 G2 X46.542 Y-.559 I-7.5 J0.0 F1600.
N863 G1 X46.564 Y-5.372 F1600.
N864 X46.571 Y-6.8 F1600.
N865 G2 X47.865 Y-6.863 I.113 J-11.009 F1600.
N866 G1 X48.328 Y-6.867 F1600.
N867 G2 X49.071 Y-6.831 I.732 J-7.464 F1600.
N868 G1 X51.5 Y-6.834 F1600.
N869 X54. Y-6.838 F1600.
N870 Z21.889 F1600.
N871 G0 Z31.
N872 X45.07 Y5.
N873 Z21.889
N874 G1 Z18.889 F1600.
N875 Y2.5 F1600.
N876 Y.093 F1600.
N877 G2 X45.043 Y-.473 I-6. J0.0 F1600.
N878 G1 X45.04 Y-.595 F1600.
N879 X45.078 Y-8.3 F1600.
N880 X46.668 F1600.
N881 G2 X47.776 Y-8.362 I.02 J-9.51 F1600.
N882 G1 X48.4 Y-8.367 F1600.
N883 G2 X49.069 Y-8.331 I.66 J-5.964 F1600.
N884 G1 X51.5 Y-8.334 F1600.
N885 X54. Y-8.338 F1600.
N886 Z21.889 F1600.
N887 G0 Z31.
N888 X43.57 Y5.
N889 Z21.889
N890 G1 Z18.889 F1600.
N891 Y2.5 F1600.
N892 Y.093 F1600.
N893 G2 X43.543 Y-.4 I-4.5 J0.0 F1600.
N894 G1 X43.54 Y-.581 F1600.
N895 X43.585 Y-9.8 F1600.
N896 X46.67 F1600.
N897 G2 X47.681 Y-9.862 I.019 J-8.01 F1600.
N898 G1 X48.483 Y-9.868 F1600.
N899 G2 X49.066 Y-9.831 I.577 J-4.463 F1600.
N900 G1 X51.5 Y-9.834 F1600.
N901 X54. Y-9.838 F1600.
N902 Z21.889 F1600.
N903 G0 Z31.
N904 X42.07 Y5.
N905 Z21.889
N906 G1 Z18.889 F1600.
N907 Y2.5 F1600.
N908 Y.093 F1600.
N909 G2 X42.037 Y-.35 I-3. J0.0 F1600.
N910 G1 X42.043 Y-.448 F1600.
N911 X42.04 Y-.567 F1600.
N912 X42.093 Y-11.3 F1600.
N913 X46.672 F1600.
N914 G2 X47.577 Y-11.361 I.017 J-6.51 F1600.
N915 G1 X48.584 Y-11.369 F1600.
N916 G2 X49.064 Y-11.331 I.476 J-2.962 F1600.
N917 G1 X51.5 Y-11.334 F1600.
N918 X54. Y-11.338 F1600.
N919 Z21.889 F1600.
N920 G0 Z31.
N921 X40.57 Y5.
N922 Z21.889
N923 G1 Z18.889 F1600.
N924 Y2.5 F1600.
N925 Y.093 F1600.
N926 G2 X40.529 Y-.256 I-1.5 J0.0 F1600.
N927 G1 X40.542 Y-.474 F1600.
N928 X40.54 Y-.552 F1600.
N929 X40.6 Y-12.8 F1600.
N930 X46.674 F1600.
N931 G2 X47.462 Y-12.86 I.015 J-5.01 F1600.
N932 G1 X48.72 Y-12.87 F1600.
N933 G2 X49.062 Y-12.831 I.34 J-1.461 F1600.
N934 G1 X51.5 Y-12.834 F1600.
N935 X54. Y-12.838 F1600.
N936 Z21.889 F1600.
N937 G0 Z31.
N938 X39.07 Y5.
N939 Z21.889
N940 G1 Z18.889 F1600.
N941 Y2.5 F1600.
N942 Y.093 F1600.
N943 X39.024 Y.091 F1600.
N944 X39.039 Y.048 F1600.
N945 X39.019 Y-.133 F1600.
N946 X39.04 Y-.57 F1600.
N947 Y-.696 F1600.
N948 Y-.952 F1600.
N949 Y-1.263 F1600.
N950 Y-1.481 F1600.
N951 Y-1.823 F1600.
N952 X39.1 Y-2.324 F1600.
N953 Y-14. F1600.
N954 G3 X39.4 Y-14.3 I.3 J0.0 F1600.
N955 G1 X46.676 F1600.
N956 G2 X47.335 Y-14.36 I.012 J-3.51 F1600.
N957 G1 X47.519 F1600.
N958 X47.737 F1600.
N959 X48.048 F1600.
N960 X48.361 F1600.
N961 X48.499 Y-14.359 F1600.
N962 X48.865 Y-14.381 F1600.
N963 X48.992 Y-14.398 F1600.
N964 X49.041 Y-14.418 F1600.
N965 X49.08 Y-14.38 F1600.
N966 X49.06 Y-14.331 F1600.
N967 X51.5 Y-14.334 F1600.
N968 X54. Y-14.338 F1600.
N969 Z21.889 F1600.
N970 G0 Z31.
N971 X-4.505 Y2.17
N972 Z21.889
N973 G1 Z18.889 F1600.
N974 X-1.241 F1600.
N975 X-.06 F1600.
N976 G2 X.92 Y2.141 I0.0 J-16.5 F1600.
N977 G1 X1.542 Y2.2 F1600.
N978 X10.733 F1600.
N979 G2 X10.73 Y2.5 I16.497 J.3 F1600.
N980 G1 Y5. F1600.
N981 Z21.889 F1600.
N982 G0 Z31.
N983 X-4.955 Y.67
N984 Z21.889
N985 G1 Z18.889 F1600.
N986 X-2.409 F1600.
N987 X-.06 F1600.
N988 G2 X.89 Y.64 I0.0 J-15. F1600.
N989 G1 X.981 F1600.
N990 X1.613 Y.7 F1600.
N991 X12.231 F1600.
N992 X12.233 Y2.5 F1600.
N993 X12.236 Y5. F1600.
N994 Z21.889 F1600.
N995 G0 Z31.
N996 X-5. Y-.83
N997 Z21.889
N998 G1 Z18.889 F1600.
N999 X-2.5 F1600.
N1000 X-.06 F1600.
N1001 G2 X.841 Y-.86 I0.0 J-13.5 F1600.
N1002 G1 X1.052 F1600.
N1003 X1.684 Y-.8 F1600.
N1004 X13.758 F1600.
N1005 G2 X13.731 Y.076 I13.473 J.86 F1600.
N1006 G1 X13.733 Y2.5 F1600.
N1007 X13.736 Y5. F1600.
N1008 Z21.889 F1600.
N1009 G0 Z31.
N1010 X-5. Y-2.33
N1011 Z21.889
N1012 G1 Z18.889 F1600.
N1013 X-2.5 F1600.
N1014 X-.06 F1600.
N1015 G2 X.789 Y-2.36 I0.0 J-12. F1600.
N1016 G1 X1.123 F1600.
N1017 X1.755 Y-2.3 F1600.
N1018 X15.2 F1600.
N1019 G2 X15.265 Y-.911 I15.653 J-.037 F1600.
N1020 G1 Y-.854 F1600.
N1021 G2 X15.231 Y.074 I11.965 J.914 F1600.
N1022 G1 X15.233 Y2.5 F1600.
N1023 X15.236 Y5. F1600.
N1024 Z21.889 F1600.
N1025 G0 Z31.
N1026 X-5. Y-3.83
N1027 Z21.889
N1028 G1 Z18.889 F1600.
N1029 X-2.5 F1600.
N1030 X-.06 F1600.
N1031 G2 X.742 Y-3.86 I.007 J-10.501 F1600.
N1032 G1 X1.194 F1600.
N1033 X1.827 Y-3.8 F1600.
N1034 X16.7 F1600.
N1035 Y-2.304 F1600.
N1036 G2 X16.765 Y-.987 I14.153 J-.034 F1600.
N1037 G1 X16.766 Y-.801 F1600.
N1038 G2 X16.731 Y.072 I10.465 J.861 F1600.
N1039 G1 X16.733 Y2.5 F1600.
N1040 X16.736 Y5. F1600.
N1041 Z21.889 F1600.
N1042 G0 Z31.
N1043 X-5. Y-5.33
N1044 Z21.889
N1045 G1 Z18.889 F1600.
N1046 X-2.5 F1600.
N1047 X-.06 F1600.
N1048 G2 X.709 Y-5.36 I.033 J-9.003 F1600.
N1049 G1 X1.265 F1600.
N1050 X1.898 Y-5.3 F1600.
N1051 X18.2 F1600.
N1052 Y-2.312 F1600.
N1053 G2 X18.264 Y-1.066 I12.653 J-.026 F1600.
N1054 G1 X18.266 Y-.742 F1600.
N1055 G2 X18.231 Y.07 I8.964 J.802 F1600.
N1056 G1 X18.233 Y2.5 F1600.
N1057 X18.236 Y5. F1600.
N1058 Z21.889 F1600.
N1059 G0 Z31.
N1060 X-5. Y-6.83
N1061 Z21.889
N1062 G1 Z18.889 F1600.
N1063 X-2.5 F1600.
N1064 X-.06 F1600.
N1065 G2 X.545 Y-6.854 I0.0 J-7.5 F1600.
N1066 G1 X.677 Y-6.86 F1600.
N1067 X1.336 F1600.
N1068 X1.969 Y-6.8 F1600.
N1069 X19.7 F1600.
N1070 Y-2.313 F1600.
N1071 G2 X19.763 Y-1.149 I11.153 J-.024 F1600.
N1072 G1 X19.767 Y-.677 F1600.
N1073 G2 X19.731 Y.069 I7.464 J.737 F1600.
N1074 G1 X19.733 Y2.5 F1600.
N1075 X19.736 Y5. F1600.
N1076 Z21.889 F1600.
N1077 G0 Z31.
N1078 X-5. Y-8.33
N1079 Z21.889
N1080 G1 Z18.889 F1600.
N1081 X-2.5 F1600.
N1082 X-.06 F1600.
N1083 G2 X.45 Y-8.352 I0.0 J-6. F1600.
N1084 G1 X.645 Y-8.36 F1600.
N1085 X1.407 F1600.
N1086 X2.04 Y-8.3 F1600.
N1087 X21.2 F1600.
N1088 Y-2.315 F1600.
N1089 G2 X21.263 Y-1.238 I9.653 J-.022 F1600.
N1090 G1 X21.267 Y-.604 F1600.
N1091 G2 X21.231 Y.067 I5.963 J.664 F1600.
N1092 G1 X21.233 Y2.5 F1600.
N1093 X21.236 Y5. F1600.
N1094 Z21.889 F1600.
N1095 G0 Z31.
N1096 X-5. Y-9.83
N1097 Z21.889
N1098 G1 Z18.889 F1600.
N1099 X-2.5 F1600.
N1100 X-.06 F1600.
N1101 G2 X.423 Y-9.856 I0.0 J-4.5 F1600.
N1102 G1 X.463 Y-9.854 F1600.
N1103 X.613 Y-9.86 F1600.
N1104 X1.478 F1600.
N1105 X2.111 Y-9.8 F1600.
N1106 X22.7 F1600.
N1107 Y-2.317 F1600.
N1108 G2 X22.762 Y-1.332 I8.153 J-.02 F1600.
N1109 G1 X22.768 Y-.52 F1600.
N1110 G2 X22.731 Y.065 I4.462 J.58 F1600.
N1111 G1 X22.733 Y2.5 F1600.
N1112 X22.736 Y5. F1600.
N1113 Z21.889 F1600.
N1114 G0 Z31.
N1115 X-5. Y-11.33
N1116 Z21.889
N1117 G1 Z18.889 F1600.
N1118 X-2.5 F1600.
N1119 X-.06 F1600.
N1120 G2 X.374 Y-11.362 I0.0 J-3. F1600.
N1121 G1 X.475 Y-11.356 F1600.
N1122 X.581 Y-11.36 F1600.
N1123 X1.549 F1600.
N1124 X2.182 Y-11.3 F1600.
N1125 X24.2 F1600.
N1126 Y-2.319 F1600.
N1127 G2 X24.261 Y-1.435 I6.653 J-.018 F1600.
N1128 G1 X24.269 Y-.418 F1600.
N1129 G2 X24.231 Y.063 I2.962 J.478 F1600.
N1130 G1 X24.233 Y2.5 F1600.
N1131 X24.236 Y5. F1600.
N1132 Z21.889 F1600.
N1133 G0 Z31.
N1134 X-5. Y-12.83
N1135 Z21.889
N1136 G1 Z18.889 F1600.
N1137 X-2.5 F1600.
N1138 X-.06 F1600.
N1139 G2 X.283 Y-12.87 I0.0 J-1.5 F1600.
N1140 G1 X.488 Y-12.857 F1600.
N1141 X1.629 Y-12.86 F1600.
N1142 X2.253 Y-12.8 F1600.
N1143 X25.7 F1600.
N1144 Y-2.321 F1600.
N1145 G2 X25.761 Y-1.549 I5.153 J-.016 F1600.
N1146 G1 X25.77 Y-.282 F1600.
N1147 G2 X25.731 Y.062 I1.461 J.342 F1600.
N1148 G1 X25.733 Y2.5 F1600.
N1149 X25.736 Y5. F1600.
N1150 Z21.889 F1600.
N1151 G0 Z31.
N1152 X-5. Y-14.33
N1153 Z21.889
N1154 G1 Z18.889 F1600.
N1155 X-2.5 F1600.
N1156 X-.06 F1600.
N1157 Y-14.339 F1600.
N1158 X-.076 Y-14.387 F1600.
N1159 X-.038 Y-14.42 F1600.
N1160 X.008 Y-14.398 F1600.
N1161 X.135 Y-14.381 F1600.
N1162 X.5 Y-14.359 F1600.
N1163 X1.727 Y-14.36 F1600.
N1164 X1.829 Y-14.347 F1600.
N1165 X2.324 Y-14.3 F1600.
N1166 X26.9 F1600.
N1167 G3 X27.2 Y-14. I0.0 J.3 F1600.
N1168 G1 Y-2.324 F1600.
N1169 G2 X27.261 Y-1.674 I3.653 J-.013 F1600.
N1170 G1 Y-1.481 F1600.
N1171 Y-1.263 F1600.
N1172 Y-.952 F1600.
N1173 X27.26 Y-.501 F1600.
N1174 X27.281 Y-.134 F1600.
N1175 X27.295 Y-.007 F1600.
N1176 X27.316 Y.041 F1600.
N1177 X27.279 Y.079 F1600.
N1178 X27.231 Y.06 F1600.
N1179 X27.233 Y2.5 F1600.
N1180 X27.236 Y5. F1600.
N1181 Z21.889 F1600.
N1182 G0 Z31.
N1183 X5.33 Y-54.
N1184 Z21.889
N1185 G1 Z18.889 F1600.
N1186 Y-49.413 F1600.
N1187 Y-48.51 F1600.
N1188 G2 X5.343 Y-47.888 I15. J0.0 F1600.
N1189 X5.3 Y-46.773 I19.034 J1.29 F1600.
N1190 G1 Y-41.2 F1600.
N1191 X2.349 F1600.
N1192 G2 X1.072 Y-41.159 I-.045 J18.495 F1600.
N1193 X.496 Y-41.17 I-.576 J14.989 F1600.
N1194 G1 X-.687 F1600.
N1195 X-5. F1600.
N1196 Z21.889 F1600.
N1197 G0 Z31.
N1198 X6.83 Y-54.
N1199 Z21.889
N1200 G1 Z18.889 F1600.
N1201 Y-51.5 F1600.
N1202 Y-48.51 F1600.
N1203 G2 X6.845 Y-47.869 I13.5 J0.0 F1600.
N1204 X6.8 Y-46.765 I17.532 J1.271 F1600.
N1205 G1 Y-39.7 F1600.
N1206 X2.347 F1600.
N1207 G2 X1.093 Y-39.657 I-.043 J16.995 F1600.
N1208 X.496 Y-39.67 I-.597 J13.487 F1600.
N1209 G1 X-2.5 F1600.
N1210 X-5. F1600.
N1211 Z21.889 F1600.
N1212 G0 Z31.
N1213 X8.33 Y-54.
N1214 Z21.889
N1215 G1 Z18.889 F1600.
N1216 Y-51.5 F1600.
N1217 Y-48.51 F1600.
N1218 G2 X8.348 Y-47.851 I12. J0.0 F1600.
N1219 X8.3 Y-46.758 I16.029 J1.253 F1600.
N1220 G1 Y-38.2 F1600.
N1221 X2.346 F1600.
N1222 G2 X1.113 Y-38.154 I-.041 J15.495 F1600.
N1223 X.496 Y-38.17 I-.617 J11.984 F1600.
N1224 G1 X-2.5 F1600.
N1225 X-5. F1600.
N1226 Z21.889 F1600.
N1227 G0 Z31.
N1228 X9.83 Y-54.
N1229 Z21.889
N1230 G1 Z18.889 F1600.
N1231 Y-51.5 F1600.
N1232 Y-48.51 F1600.
N1233 G2 X9.852 Y-47.835 I10.5 J0.0 F1600.
N1234 X9.8 Y-46.75 I14.525 J1.237 F1600.
N1235 G1 Y-36.7 F1600.
N1236 X2.343 F1600.
N1237 G2 X1.131 Y-36.651 I-.039 J13.995 F1600.
N1238 X.496 Y-36.67 I-.635 J10.481 F1600.
N1239 G1 X-2.5 F1600.
N1240 X-5. F1600.
N1241 Z21.889 F1600.
N1242 G0 Z31.
N1243 X11.33 Y-54.
N1244 Z21.889
N1245 G1 Z18.889 F1600.
N1246 Y-51.5 F1600.
N1247 Y-48.51 F1600.
N1248 G2 X11.356 Y-47.821 I9. J0.0 F1600.
N1249 X11.3 Y-46.742 I13.02 J1.222 F1600.
N1250 G1 Y-35.2 F1600.
N1251 X2.341 F1600.
N1252 G2 X1.148 Y-35.146 I-.037 J12.495 F1600.
N1253 X.496 Y-35.17 I-.652 J8.976 F1600.
N1254 G1 X-2.5 F1600.
N1255 X-5. F1600.
N1256 Z21.889 F1600.
N1257 G0 Z31.
N1258 X12.83 Y-54.
N1259 Z21.889
N1260 G1 Z18.889 F1600.
N1261 Y-51.5 F1600.
N1262 Y-48.51 F1600.
N1263 G2 X12.863 Y-47.81 I7.5 J0.0 F1600.
N1264 X12.8 Y-46.733 I11.514 J1.212 F1600.
N1265 G1 Y-33.7 F1600.
N1266 X2.339 F1600.
N1267 G2 X1.161 Y-33.64 I-.034 J10.995 F1600.
N1268 X.496 Y-33.67 I-.665 J7.47 F1600.
N1269 G1 X-2.5 F1600.
N1270 X-5. F1600.
N1271 Z21.889 F1600.
N1272 G0 Z31.
N1273 X14.33 Y-54.
N1274 Z21.889
N1275 G1 Z18.889 F1600.
N1276 Y-51.5 F1600.
N1277 Y-48.51 F1600.
N1278 G2 X14.372 Y-47.804 I6. J0.0 F1600.
N1279 X14.3 Y-46.724 I10.005 J1.206 F1600.
N1280 G1 Y-32.2 F1600.
N1281 X2.337 F1600.
N1282 G2 X1.228 Y-32.139 I-.032 J9.495 F1600.
N1283 G1 X1.107 F1600.
N1284 G2 X.496 Y-32.17 I-.611 J5.969 F1600.
N1285 G1 X-2.5 F1600.
N1286 X-5. F1600.
N1287 Z21.889 F1600.
N1288 G0 Z31.
N1289 X15.83 Y-54.
N1290 Z21.889
N1291 G1 Z18.889 F1600.
N1292 Y-51.5 F1600.
N1293 Y-48.51 F1600.
N1294 G2 X15.883 Y-47.82 I4.5 J0.0 F1600.
N1295 G1 Y-47.795 F1600.
N1296 G2 X15.8 Y-46.714 I8.494 J1.196 F1600.
N1297 G1 Y-30.7 F1600.
N1298 X2.334 F1600.
N1299 G2 X1.317 Y-30.639 I-.029 J7.995 F1600.
N1300 G1 X1.025 F1600.
N1301 G2 X.496 Y-30.67 I-.529 J4.469 F1600.
N1302 G1 X-2.5 F1600.
N1303 X-5. F1600.
N1304 Z21.889 F1600.
N1305 G0 Z31.
N1306 X17.33 Y-54.
N1307 Z21.889
N1308 G1 Z18.889 F1600.
N1309 Y-51.5 F1600.
N1310 Y-48.51 F1600.
N1311 G2 X17.384 Y-47.941 I3. J0.0 F1600.
N1312 G1 X17.382 Y-47.678 F1600.
N1313 G2 X17.3 Y-46.703 I6.995 J1.08 F1600.
N1314 G1 Y-29.2 F1600.
N1315 X2.331 F1600.
N1316 G2 X1.415 Y-29.139 I-.026 J6.495 F1600.
N1317 G1 X.927 F1600.
N1318 G2 X.496 Y-29.17 I-.432 J2.969 F1600.
N1319 G1 X-2.5 F1600.
N1320 X-5. F1600.
N1321 Z21.889 F1600.
N1322 G0 Z31.
N1323 X18.83 Y-54.
N1324 Z21.889
N1325 G1 Z18.889 F1600.
N1326 Y-51.5 F1600.
N1327 Y-48.51 F1600.
N1328 G2 X18.886 Y-48.105 I1.5 J0.0 F1600.
N1329 G1 X18.881 Y-47.55 F1600.
N1330 G2 X18.8 Y-46.69 I5.496 J.951 F1600.
N1331 G1 Y-27.7 F1600.
N1332 X2.328 F1600.
N1333 G2 X1.525 Y-27.639 I-.023 J4.995 F1600.
N1334 G1 X.8 F1600.
N1335 G2 X.496 Y-27.67 I-.304 J1.469 F1600.
N1336 G1 X-2.5 F1600.
N1337 X-5. F1600.
N1338 Z21.889 F1600.
N1339 G0 Z31.
N1340 X20.33 Y-54.
N1341 Z21.889
N1342 G1 Z18.889 F1600.
N1343 Y-51.5 F1600.
N1344 Y-48.51 F1600.
N1345 X20.393 Y-48.513 F1600.
N1346 X20.389 Y-48.45 F1600.
N1347 X20.383 Y-47.737 F1600.
N1348 X20.381 Y-47.518 F1600.
N1349 X20.38 Y-47.405 F1600.
N1350 G2 X20.3 Y-46.676 I3.997 J.806 F1600.
N1351 G1 Y-26.5 F1600.
N1352 G3 X20. Y-26.2 I-.3 J0.0 F1600.
N1353 G1 X2.324 F1600.
N1354 G2 X1.653 Y-26.139 I-.019 J3.495 F1600.
N1355 G1 X.65 Y-26.138 F1600.
N1356 X.577 Y-26.114 F1600.
N1357 X.531 Y-26.085 F1600.
N1358 X.485 Y-26.117 F1600.
N1359 X.496 Y-26.17 F1600.
N1360 X-2.5 F1600.
N1361 X-5. F1600.
N1362 Z21.889 F1600.
N1363 G0 Z31.
N1364 X54. Y-44.17
N1365 Z21.889
N1366 G1 Z18.889 F1600.
N1367 X51.5 F1600.
N1368 X50.2 F1600.
N1369 Y-46.542 F1600.
N1370 G2 X50.151 Y-48.229 I-21.329 J-.222 F1600.
N1371 X50.17 Y-49.06 I-17.981 J-.831 F1600.
N1372 G1 Y-51.209 F1600.
N1373 Y-53.861 F1600.
N1374 Z21.889 F1600.
N1375 G0 Z31.
N1376 X54. Y-42.67
N1377 Z21.889
N1378 G1 Z18.889 F1600.
N1379 X51.5 F1600.
N1380 X49.06 F1600.
N1381 G2 X48.7 Y-42.666 I0.0 J16.5 F1600.
N1382 G1 Y-46.55 F1600.
N1383 G2 X48.648 Y-48.212 I-19.829 J-.214 F1600.
N1384 X48.67 Y-49.06 I-16.478 J-.848 F1600.
N1385 G1 Y-51.5 F1600.
N1386 Y-54. F1600.
N1387 Z21.889 F1600.
N1388 G0 Z31.
N1389 X54. Y-41.17
N1390 Z21.889
N1391 G1 Z18.889 F1600.
N1392 X51.5 F1600.
N1393 X49.06 F1600.
N1394 G2 X48.105 Y-41.14 I0.0 J15. F1600.
N1395 G1 X48.023 F1600.
N1396 X47.386 Y-41.2 F1600.
N1397 X47.2 F1600.
N1398 Y-46.558 F1600.
N1399 G2 X47.145 Y-48.196 I-18.329 J-.206 F1600.
N1400 X47.17 Y-49.06 I-14.975 J-.864 F1600.
N1401 G1 Y-51.5 F1600.
N1402 Y-54. F1600.
N1403 Z21.889 F1600.
N1404 G0 Z31.
N1405 X54. Y-39.67
N1406 Z21.889
N1407 G1 Z18.889 F1600.
N1408 X51.5 F1600.
N1409 X49.06 F1600.
N1410 G2 X48.154 Y-39.64 I0.0 J13.5 F1600.
N1411 G1 X47.952 F1600.
N1412 X47.315 Y-39.7 F1600.
N1413 X45.7 F1600.
N1414 Y-46.567 F1600.
N1415 G2 X45.641 Y-48.181 I-16.829 J-.197 F1600.
N1416 X45.67 Y-49.06 I-13.471 J-.879 F1600.
N1417 G1 Y-51.5 F1600.
N1418 Y-54. F1600.
N1419 Z21.889 F1600.
N1420 G0 Z31.
N1421 X54. Y-38.17
N1422 Z21.889
N1423 G1 Z18.889 F1600.
N1424 X51.5 F1600.
N1425 X49.06 F1600.
N1426 G2 X48.206 Y-38.14 I0.0 J12. F1600.
N1427 G1 X47.881 F1600.
N1428 X47.244 Y-38.2 F1600.
N1429 X44.2 F1600.
N1430 Y-46.576 F1600.
N1431 G2 X44.137 Y-48.167 I-15.329 J-.188 F1600.
N1432 X44.17 Y-49.06 I-11.967 J-.893 F1600.
N1433 G1 Y-51.5 F1600.
N1434 Y-54. F1600.
N1435 Z21.889 F1600.
N1436 G0 Z31.
N1437 X54. Y-36.67
N1438 Z21.889
N1439 G1 Z18.889 F1600.
N1440 X51.5 F1600.
N1441 X49.06 F1600.
N1442 G2 X48.261 Y-36.64 I0.0 J10.5 F1600.
N1443 G1 X47.81 F1600.
N1444 X47.173 Y-36.7 F1600.
N1445 X42.7 F1600.
N1446 Y-46.585 F1600.
N1447 G2 X42.635 Y-48.114 I-13.829 J-.179 F1600.
N1448 G1 X42.634 Y-48.196 F1600.
N1449 G2 X42.67 Y-49.06 I-10.464 J-.864 F1600.
N1450 G1 Y-51.5 F1600.
N1451 Y-54. F1600.
N1452 Z21.889 F1600.
N1453 G0 Z31.
N1454 X54. Y-35.17
N1455 Z21.889
N1456 G1 Z18.889 F1600.
N1457 X51.5 F1600.
N1458 X49.06 F1600.
N1459 G2 X48.32 Y-35.14 I0.0 J9. F1600.
N1460 G1 X47.739 F1600.
N1461 X47.102 Y-35.2 F1600.
N1462 X41.2 F1600.
N1463 Y-46.595 F1600.
N1464 G2 X41.136 Y-48.033 I-12.329 J-.169 F1600.
N1465 G1 X41.134 Y-48.255 F1600.
N1466 G2 X41.17 Y-49.06 I-8.964 J-.805 F1600.
N1467 G1 Y-51.5 F1600.
N1468 Y-54. F1600.
N1469 Z21.889 F1600.
N1470 G0 Z31.
N1471 X54. Y-33.67
N1472 Z21.889
N1473 G1 Z18.889 F1600.
N1474 X51.5 F1600.
N1475 X49.06 F1600.
N1476 G2 X48.385 Y-33.64 I0.0 J7.5 F1600.
N1477 G1 X47.668 F1600.
N1478 X47.031 Y-33.7 F1600.
N1479 X39.7 F1600.
N1480 Y-46.606 F1600.
N1481 G2 X39.636 Y-47.948 I-10.829 J-.158 F1600.
N1482 G1 X39.633 Y-48.319 F1600.
N1483 G2 X39.67 Y-49.06 I-7.463 J-.741 F1600.
N1484 G1 Y-51.5 F1600.
N1485 Y-54. F1600.
N1486 Z21.889 F1600.
N1487 G0 Z31.
N1488 X54. Y-32.17
N1489 Z21.889
N1490 G1 Z18.889 F1600.
N1491 X51.5 F1600.
N1492 X49.06 F1600.
N1493 G2 X48.464 Y-32.14 I0.0 J6. F1600.
N1494 G1 X48.385 F1600.
N1495 X47.597 F1600.
N1496 X46.96 Y-32.2 F1600.
N1497 X38.2 F1600.
N1498 Y-46.617 F1600.
N1499 G2 X38.137 Y-47.857 I-9.329 J-.147 F1600.
N1500 G1 X38.133 Y-48.392 F1600.
N1501 G2 X38.17 Y-49.06 I-5.963 J-.668 F1600.
N1502 G1 Y-51.5 F1600.
N1503 Y-54. F1600.
N1504 Z21.889 F1600.
N1505 G0 Z31.
N1506 X54. Y-30.67
N1507 Z21.889
N1508 G1 Z18.889 F1600.
N1509 X51.5 F1600.
N1510 X49.06 F1600.
N1511 G2 X48.554 Y-30.641 I0.0 J4.5 F1600.
N1512 G1 X48.414 Y-30.64 F1600.
N1513 X47.526 F1600.
N1514 X46.889 Y-30.7 F1600.
N1515 X36.7 F1600.
N1516 Y-46.629 F1600.
N1517 G2 X36.638 Y-47.759 I-7.829 J-.134 F1600.
N1518 G1 X36.632 Y-48.477 F1600.
N1519 G2 X36.67 Y-49.06 I-4.462 J-.583 F1600.
N1520 G1 Y-51.5 F1600.
N1521 Y-54. F1600.
N1522 Z21.889 F1600.
N1523 G0 Z31.
N1524 X54. Y-29.17
N1525 Z21.889
N1526 G1 Z18.889 F1600.
N1527 X51.5 F1600.
N1528 X49.06 F1600.
N1529 G2 X48.623 Y-29.138 I0.0 J3. F1600.
N1530 G1 X48.425 Y-29.14 F1600.
N1531 X47.455 F1600.
N1532 X46.818 Y-29.2 F1600.
N1533 X35.2 F1600.
N1534 Y-46.643 F1600.
N1535 G2 X35.138 Y-47.653 I-6.329 J-.121 F1600.
N1536 G1 X35.131 Y-48.579 F1600.
N1537 G2 X35.17 Y-49.06 I-2.961 J-.481 F1600.
N1538 G1 Y-51.5 F1600.
N1539 Y-54. F1600.
N1540 Z21.889 F1600.
N1541 G0 Z31.
N1542 X54. Y-27.67
N1543 Z21.889
N1544 G1 Z18.889 F1600.
N1545 X51.5 F1600.
N1546 X49.06 F1600.
N1547 G2 X48.717 Y-27.63 I0.0 J1.5 F1600.
N1548 G1 X48.531 Y-27.641 F1600.
N1549 X48.435 Y-27.64 F1600.
N1550 X47.455 F1600.
N1551 X47.313 Y-27.646 F1600.
N1552 X46.747 Y-27.7 F1600.
N1553 X33.7 F1600.
N1554 Y-46.658 F1600.
N1555 G2 X33.639 Y-47.534 I-4.829 J-.106 F1600.
N1556 G1 X33.63 Y-48.716 F1600.
N1557 G2 X33.67 Y-49.06 I-1.46 J-.344 F1600.
N1558 G1 Y-51.5 F1600.
N1559 Y-54. F1600.
N1560 Z21.889 F1600.
N1561 G0 Z31.
N1562 X54. Y-26.17
N1563 Z21.889
N1564 G1 Z18.889 F1600.
N1565 X51.5 F1600.
N1566 X49.06 F1600.
N1567 Y-26.164 F1600.
N1568 X49.076 Y-26.116 F1600.
N1569 X49.039 Y-26.083 F1600.
N1570 X48.993 Y-26.105 F1600.
N1571 X48.866 Y-26.119 F1600.
N1572 X48.499 Y-26.14 F1600.
N1573 X47.519 F1600.
N1574 X47.276 F1600.
N1575 X47.171 Y-26.153 F1600.
N1576 X46.676 Y-26.2 F1600.
N1577 X32.5 F1600.
N1578 X32.435 Y-26.207 F1600.
N1579 X32.2 Y-26.5 F1600.
N1580 Y-46.676 F1600.
N1581 G2 X32.139 Y-47.403 I-3.329 J-.088 F1600.
N1582 G1 Y-47.737 F1600.
N1583 Y-48.048 F1600.
N1584 X32.14 Y-48.499 F1600.
N1585 X32.119 Y-48.866 F1600.
N1586 X32.104 Y-48.993 F1600.
N1587 X32.084 Y-49.042 F1600.
N1588 X32.121 Y-49.079 F1600.
N1589 X32.17 Y-49.06 F1600.
N1590 Y-51.5 F1600.
N1591 Y-54. F1600.
N1592 Z21.889 F1600.
N1593 G0 Z31.
N1594 X54. Y-44.17
N1595 Z20.933
N1596 G1 Z17.933 F1600.
N1597 X51.5 F1600.
N1598 X50.2 F1600.
N1599 Y-47.442 F1600.
N1600 G2 X50.167 Y-48.752 I-21.249 J-.126 F1600.
N1601 X50.17 Y-49.06 I-17.997 J-.308 F1600.
N1602 G1 Y-51.209 F1600.
N1603 Y-53.861 F1600.
N1604 Z20.933 F1600.
N1605 G0 Z31.
N1606 X54. Y-42.67
N1607 Z20.933
N1608 G1 Z17.933 F1600.
N1609 X51.5 F1600.
N1610 X49.06 F1600.
N1611 G2 X48.7 Y-42.668 I-.083 J16.502 F1600.
N1612 G1 Y-47.447 F1600.
N1613 G2 X48.667 Y-48.723 I-19.749 J-.121 F1600.
N1614 X48.67 Y-49.06 I-16.497 J-.337 F1600.
N1615 G1 Y-51.5 F1600.
N1616 Y-54. F1600.
N1617 Z20.933 F1600.
N1618 G0 Z31.
N1619 X54. Y-41.17
N1620 Z20.933
N1621 G1 Z17.933 F1600.
N1622 X51.5 F1600.
N1623 X49.06 F1600.
N1624 G2 X48.695 Y-41.166 I0.0 J15. F1600.
N1625 X47.451 Y-41.2 I-1.127 J18.215 F1600.
N1626 G1 X47.2 F1600.
N1627 Y-47.451 F1600.
N1628 G2 X47.166 Y-48.695 I-18.249 J-.116 F1600.
N1629 X47.17 Y-49.06 I-14.996 J-.365 F1600.
N1630 G1 Y-51.5 F1600.
N1631 Y-54. F1600.
N1632 Z20.933 F1600.
N1633 G0 Z31.
N1634 X54. Y-39.67
N1635 Z20.933
N1636 G1 Z17.933 F1600.
N1637 X51.5 F1600.
N1638 X49.06 F1600.
N1639 G2 X48.667 Y-39.664 I0.0 J13.5 F1600.
N1640 X47.456 Y-39.7 I-1.099 J16.713 F1600.
N1641 G1 X45.7 F1600.
N1642 Y-47.456 F1600.
N1643 G2 X45.664 Y-48.667 I-16.749 J-.112 F1600.
N1644 X45.67 Y-49.06 I-13.494 J-.393 F1600.
N1645 G1 Y-51.5 F1600.
N1646 Y-54. F1600.
N1647 Z20.933 F1600.
N1648 G0 Z31.
N1649 X54. Y-38.17
N1650 Z20.933
N1651 G1 Z17.933 F1600.
N1652 X51.5 F1600.
N1653 X49.06 F1600.
N1654 G2 X48.64 Y-38.163 I0.0 J12. F1600.
N1655 X47.461 Y-38.2 I-1.072 J15.212 F1600.
N1656 G1 X44.2 F1600.
N1657 Y-47.461 F1600.
N1658 G2 X44.163 Y-48.64 I-15.249 J-.106 F1600.
N1659 X44.17 Y-49.06 I-11.993 J-.42 F1600.
N1660 G1 Y-51.5 F1600.
N1661 Y-54. F1600.
N1662 Z20.933 F1600.
N1663 G0 Z31.
N1664 X54. Y-36.67
N1665 Z20.933
N1666 G1 Z17.933 F1600.
N1667 X51.5 F1600.
N1668 X49.06 F1600.
N1669 G2 X48.614 Y-36.661 I0.0 J10.5 F1600.
N1670 X47.467 Y-36.7 I-1.046 J13.71 F1600.
N1671 G1 X42.7 F1600.
N1672 Y-47.467 F1600.
N1673 G2 X42.661 Y-48.614 I-13.749 J-.101 F1600.
N1674 X42.67 Y-49.06 I-10.491 J-.446 F1600.
N1675 G1 Y-51.5 F1600.
N1676 Y-54. F1600.
N1677 Z20.933 F1600.
N1678 G0 Z31.
N1679 X54. Y-35.17
N1680 Z20.933
N1681 G1 Z17.933 F1600.
N1682 X51.5 F1600.
N1683 X49.06 F1600.
N1684 G2 X48.589 Y-35.158 I0.0 J9. F1600.
N1685 X47.472 Y-35.2 I-1.022 J12.207 F1600.
N1686 G1 X41.2 F1600.
N1687 Y-47.472 F1600.
N1688 G2 X41.158 Y-48.589 I-12.249 J-.095 F1600.
N1689 X41.17 Y-49.06 I-8.988 J-.471 F1600.
N1690 G1 Y-51.5 F1600.
N1691 Y-54. F1600.
N1692 Z20.933 F1600.
N1693 G0 Z31.
N1694 X54. Y-33.67
N1695 Z20.933
N1696 G1 Z17.933 F1600.
N1697 X51.5 F1600.
N1698 X49.06 F1600.
N1699 G2 X48.567 Y-33.654 I0.0 J7.5 F1600.
N1700 X47.478 Y-33.7 I-1. J10.703 F1600.
N1701 G1 X39.7 F1600.
N1702 Y-47.478 F1600.
N1703 G2 X39.654 Y-48.567 I-10.749 J-.089 F1600.
N1704 X39.67 Y-49.06 I-7.484 J-.493 F1600.
N1705 G1 Y-51.5 F1600.
N1706 Y-54. F1600.
N1707 Z20.933 F1600.
N1708 G0 Z31.
N1709 X54. Y-32.17
N1710 Z20.933
N1711 G1 Z17.933 F1600.
N1712 X51.5 F1600.
N1713 X49.06 F1600.
N1714 G2 X48.549 Y-32.148 I0.0 J6. F1600.
N1715 X47.485 Y-32.2 I-.981 J9.197 F1600.
N1716 G1 X38.2 F1600.
N1717 Y-47.485 F1600.
N1718 G2 X38.148 Y-48.549 I-9.249 J-.083 F1600.
N1719 X38.17 Y-49.06 I-5.978 J-.511 F1600.
N1720 G1 Y-51.5 F1600.
N1721 Y-54. F1600.
N1722 Z20.933 F1600.
N1723 G0 Z31.
N1724 X54. Y-30.67
N1725 Z20.933
N1726 G1 Z17.933 F1600.
N1727 X51.5 F1600.
N1728 X49.06 F1600.
N1729 G2 X48.525 Y-30.641 I-.025 J4.503 F1600.
N1730 X47.492 Y-30.7 I-.957 J7.69 F1600.
N1731 G1 X36.7 F1600.
N1732 Y-47.492 F1600.
N1733 G2 X36.64 Y-48.537 I-7.749 J-.076 F1600.
N1734 X36.67 Y-49.06 I-4.47 J-.523 F1600.
N1735 G1 Y-51.5 F1600.
N1736 Y-54. F1600.
N1737 Z20.933 F1600.
N1738 G0 Z31.
N1739 X54. Y-29.17
N1740 Z20.933
N1741 G1 Z17.933 F1600.
N1742 X51.5 F1600.
N1743 X49.06 F1600.
N1744 G2 X48.623 Y-29.138 I0.0 J3. F1600.
N1745 G1 X48.436 Y-29.14 F1600.
N1746 G2 X47.5 Y-29.2 I-.869 J6.189 F1600.
N1747 G1 X35.2 F1600.
N1748 Y-47.5 F1600.
N1749 G2 X35.137 Y-48.458 I-6.249 J-.068 F1600.
N1750 G1 X35.133 Y-48.593 F1600.
N1751 G2 X35.17 Y-49.06 I-2.963 J-.467 F1600.
N1752 G1 Y-51.5 F1600.
N1753 Y-54. F1600.
N1754 Z20.933 F1600.
N1755 G0 Z31.
N1756 X54. Y-27.67
N1757 Z20.933
N1758 G1 Z17.933 F1600.
N1759 X51.5 F1600.
N1760 X49.06 F1600.
N1761 G2 X48.717 Y-27.63 I0.0 J1.5 F1600.
N1762 G1 X48.531 Y-27.641 F1600.
N1763 X48.435 Y-27.64 F1600.
N1764 X48.325 F1600.
N1765 G2 X47.508 Y-27.7 I-.758 J4.689 F1600.
N1766 G1 X33.7 F1600.
N1767 Y-47.508 F1600.
N1768 G2 X33.639 Y-48.327 I-4.749 J-.059 F1600.
N1769 G1 X33.63 Y-48.716 F1600.
N1770 G2 X33.67 Y-49.06 I-1.46 J-.344 F1600.
N1771 G1 Y-51.5 F1600.
N1772 Y-54. F1600.
N1773 Z20.933 F1600.
N1774 G0 Z31.
N1775 X54. Y-26.17
N1776 Z20.933
N1777 G1 Z17.933 F1600.
N1778 X51.5 F1600.
N1779 X49.06 F1600.
N1780 Y-26.164 F1600.
N1781 X49.076 Y-26.116 F1600.
N1782 X49.039 Y-26.083 F1600.
N1783 X48.993 Y-26.105 F1600.
N1784 X48.866 Y-26.119 F1600.
N1785 X48.499 Y-26.14 F1600.
N1786 X48.194 F1600.
N1787 G2 X47.519 Y-26.2 I-.626 J3.189 F1600.
N1788 G1 X32.5 F1600.
N1789 X32.435 Y-26.207 F1600.
N1790 X32.2 Y-26.5 F1600.
N1791 Y-47.519 F1600.
N1792 G2 X32.139 Y-48.195 I-3.249 J-.049 F1600.
N1793 G1 X32.14 Y-48.499 F1600.
N1794 X32.119 Y-48.866 F1600.
N1795 X32.104 Y-48.993 F1600.
N1796 X32.084 Y-49.042 F1600.
N1797 X32.121 Y-49.079 F1600.
N1798 X32.17 Y-49.06 F1600.
N1799 Y-51.5 F1600.
N1800 Y-54. F1600.
N1801 Z20.933 F1600.
N1802 G0 Z31.
N1803 X5.33
N1804 Z20.933
N1805 G1 Z17.933 F1600.
N1806 Y-49.413 F1600.
N1807 Y-48.62 F1600.
N1808 G2 X5.3 Y-47.451 I18.219 J1.052 F1600.
N1809 G1 Y-41.2 F1600.
N1810 X1.549 F1600.
N1811 G2 X.38 Y-41.17 I-.116 J18.249 F1600.
N1812 G1 X-.687 F1600.
N1813 X-5. F1600.
N1814 Z20.933 F1600.
N1815 G0 Z31.
N1816 X6.83 Y-54.
N1817 Z20.933
N1818 G1 Z17.933 F1600.
N1819 Y-51.5 F1600.
N1820 Y-48.576 F1600.
N1821 G2 X6.8 Y-47.456 I16.719 J1.008 F1600.
N1822 G1 Y-39.7 F1600.
N1823 X1.544 F1600.
N1824 G2 X.424 Y-39.67 I-.112 J16.749 F1600.
N1825 G1 X-2.5 F1600.
N1826 X-5. F1600.
N1827 Z20.933 F1600.
N1828 G0 Z31.
N1829 X8.33 Y-54.
N1830 Z20.933
N1831 G1 Z17.933 F1600.
N1832 Y-51.5 F1600.
N1833 Y-48.53 F1600.
N1834 G2 X8.3 Y-47.461 I15.219 J.962 F1600.
N1835 G1 Y-38.2 F1600.
N1836 X1.539 F1600.
N1837 G2 X.47 Y-38.17 I-.106 J15.249 F1600.
N1838 G1 X-2.5 F1600.
N1839 X-5. F1600.
N1840 Z20.933 F1600.
N1841 G0 Z31.
N1842 X9.83 Y-54.
N1843 Z20.933
N1844 G1 Z17.933 F1600.
N1845 Y-51.5 F1600.
N1846 Y-48.481 F1600.
N1847 G2 X9.8 Y-47.467 I13.719 J.913 F1600.
N1848 G1 Y-36.7 F1600.
N1849 X1.533 F1600.
N1850 G2 X.519 Y-36.67 I-.101 J13.749 F1600.
N1851 G1 X-2.5 F1600.
N1852 X-5. F1600.
N1853 Z20.933 F1600.
N1854 G0 Z31.
N1855 X11.33 Y-54.
N1856 Z20.933
N1857 G1 Z17.933 F1600.
N1858 Y-51.5 F1600.
N1859 X11.331 Y-48.44 F1600.
N1860 G2 X11.3 Y-47.472 I12.218 J.872 F1600.
N1861 G1 Y-35.2 F1600.
N1862 X1.528 F1600.
N1863 G2 X.562 Y-35.169 I-.095 J12.249 F1600.
N1864 G1 X-2.5 Y-35.17 F1600.
N1865 X-5. F1600.
N1866 Z20.933 F1600.
N1867 G0 Z31.
N1868 X12.83 Y-54.
N1869 Z20.933
N1870 G1 Z17.933 F1600.
N1871 Y-51.5 F1600.
N1872 Y-48.5 F1600.
N1873 X12.831 Y-48.394 F1600.
N1874 G2 X12.8 Y-47.478 I10.718 J.827 F1600.
N1875 G1 Y-33.7 F1600.
N1876 X1.522 F1600.
N1877 G2 X.607 Y-33.669 I-.089 J10.749 F1600.
N1878 G1 X.506 Y-33.67 F1600.
N1879 X-2.5 F1600.
N1880 X-5. F1600.
N1881 Z20.933 F1600.
N1882 G0 Z31.
N1883 X14.33 Y-54.
N1884 Z20.933
N1885 G1 Z17.933 F1600.
N1886 Y-51.5 F1600.
N1887 Y-48.51 F1600.
N1888 X14.332 Y-48.344 F1600.
N1889 G2 X14.3 Y-47.485 I9.217 J.777 F1600.
N1890 G1 Y-32.2 F1600.
N1891 X1.515 F1600.
N1892 G2 X.657 Y-32.168 I-.083 J9.249 F1600.
N1893 G1 X.496 Y-32.17 F1600.
N1894 X-2.5 F1600.
N1895 X-5. F1600.
N1896 Z20.933 F1600.
N1897 G0 Z31.
N1898 X15.83 Y-54.
N1899 Z20.933
N1900 G1 Z17.933 F1600.
N1901 Y-51.5 F1600.
N1902 Y-48.51 F1600.
N1903 G2 X15.835 Y-48.304 I4.5 J0.0 F1600.
N1904 X15.8 Y-47.492 I7.714 J.737 F1600.
N1905 G1 Y-30.7 F1600.
N1906 X1.508 F1600.
N1907 G2 X.698 Y-30.665 I-.076 J7.749 F1600.
N1908 X.496 Y-30.67 I-.202 J4.495 F1600.
N1909 G1 X-2.5 F1600.
N1910 X-5. F1600.
N1911 Z20.933 F1600.
N1912 G0 Z31.
N1913 X17.33 Y-54.
N1914 Z20.933
N1915 G1 Z17.933 F1600.
N1916 Y-51.5 F1600.
N1917 Y-48.51 F1600.
N1918 G2 X17.339 Y-48.272 I3. J0.0 F1600.
N1919 X17.3 Y-47.5 I6.21 J.704 F1600.
N1920 G1 Y-29.2 F1600.
N1921 X1.5 F1600.
N1922 G2 X.73 Y-29.161 I-.068 J6.249 F1600.
N1923 X.496 Y-29.17 I-.234 J2.991 F1600.
N1924 G1 X-2.5 F1600.
N1925 X-5. F1600.
N1926 Z20.933 F1600.
N1927 G0 Z31.
N1928 X18.83 Y-54.
N1929 Z20.933
N1930 G1 Z17.933 F1600.
N1931 Y-51.5 F1600.
N1932 Y-48.51 F1600.
N1933 G2 X18.851 Y-48.262 I1.5 J0.0 F1600.
N1934 X18.8 Y-47.508 I4.698 J.694 F1600.
N1935 G1 Y-27.7 F1600.
N1936 X1.492 F1600.
N1937 G2 X.741 Y-27.65 I-.059 J4.749 F1600.
N1938 X.496 Y-27.67 I-.245 J1.48 F1600.
N1939 G1 X-2.5 F1600.
N1940 X-5. F1600.
N1941 Z20.933 F1600.
N1942 G0 Z31.
N1943 X20.33 Y-54.
N1944 Z20.933
N1945 G1 Z17.933 F1600.
N1946 Y-51.5 F1600.
N1947 Y-48.51 F1600.
N1948 X20.393 Y-48.513 F1600.
N1949 X20.389 Y-48.45 F1600.
N1950 X20.388 Y-48.32 F1600.
N1951 G2 X20.3 Y-47.519 I3.161 J.752 F1600.
N1952 G1 Y-26.5 F1600.
N1953 G3 X20. Y-26.2 I-.3 J0.0 F1600.
N1954 G1 X1.481 F1600.
N1955 G2 X.803 Y-26.139 I-.049 J3.249 F1600.
N1956 G1 X.65 Y-26.138 F1600.
N1957 X.577 Y-26.114 F1600.
N1958 X.531 Y-26.085 F1600.
N1959 X.485 Y-26.117 F1600.
N1960 X.496 Y-26.17 F1600.
N1961 X-2.5 F1600.
N1962 X-5. F1600.
N1963 Z20.933 F1600.
N1964 G0 Z31.
N1965 X-4.505 Y2.17
N1966 Z20.933
N1967 G1 Z17.933 F1600.
N1968 X-1.241 F1600.
N1969 X-.06 F1600.
N1970 G2 X.276 Y2.167 I0.0 J-16.5 F1600.
N1971 X1.554 Y2.2 I1.155 J-19.716 F1600.
N1972 G1 X10.733 F1600.
N1973 G2 X10.73 Y2.5 I16.497 J.3 F1600.
N1974 G1 Y5. F1600.
N1975 Z20.933 F1600.
N1976 G0 Z31.
N1977 X-4.955 Y.67
N1978 Z20.933
N1979 G1 Z17.933 F1600.
N1980 X-2.409 F1600.
N1981 X-.06 F1600.
N1982 G2 X.304 Y.666 I0.0 J-15. F1600.
N1983 X1.549 Y.7 I1.127 J-18.215 F1600.
N1984 G1 X12.231 F1600.
N1985 X12.233 Y2.5 F1600.
N1986 X12.236 Y5. F1600.
N1987 Z20.933 F1600.
N1988 G0 Z31.
N1989 X-5. Y-.83
N1990 Z20.933
N1991 G1 Z17.933 F1600.
N1992 X-2.5 F1600.
N1993 X-.06 F1600.
N1994 G2 X.332 Y-.836 I0.0 J-13.5 F1600.
N1995 X1.544 Y-.8 I1.099 J-16.713 F1600.
N1996 G1 X13.712 F1600.
N1997 G2 X13.736 Y-.327 I16.738 J-.632 F1600.
N1998 X13.731 Y.076 I13.494 J.387 F1600.
N1999 G1 X13.733 Y2.5 F1600.
N2000 X13.736 Y5. F1600.
N2001 Z20.933 F1600.
N2002 G0 Z31.
N2003 X-5. Y-2.33
N2004 Z20.933
N2005 G1 Z17.933 F1600.
N2006 X-2.5 F1600.
N2007 X-.06 F1600.
N2008 G2 X.359 Y-2.337 I0.0 J-12. F1600.
N2009 X1.539 Y-2.3 I1.072 J-15.212 F1600.
N2010 G1 X15.2 F1600.
N2011 Y-1.539 F1600.
N2012 G2 X15.238 Y-.355 I15.249 J.106 F1600.
N2013 X15.231 Y.074 I11.993 J.415 F1600.
N2014 G1 X15.233 Y2.5 F1600.
N2015 X15.236 Y5. F1600.
N2016 Z20.933 F1600.
N2017 G0 Z31.
N2018 X-5. Y-3.83
N2019 Z20.933
N2020 G1 Z17.933 F1600.
N2021 X-2.5 F1600.
N2022 X-.06 F1600.
N2023 G2 X.385 Y-3.839 I0.0 J-10.5 F1600.
N2024 X1.534 Y-3.8 I1.046 J-13.71 F1600.
N2025 G1 X16.7 F1600.
N2026 Y-1.533 F1600.
N2027 G2 X16.74 Y-.381 I13.749 J.101 F1600.
N2028 X16.731 Y.072 I10.491 J.441 F1600.
N2029 G1 X16.733 Y2.5 F1600.
N2030 X16.736 Y5. F1600.
N2031 Z20.933 F1600.
N2032 G0 Z31.
N2033 X-5. Y-5.33
N2034 Z20.933
N2035 G1 Z17.933 F1600.
N2036 X-2.5 F1600.
N2037 X-.06 F1600.
N2038 G2 X.41 Y-5.342 I0.0 J-9. F1600.
N2039 X1.528 Y-5.3 I1.021 J-12.207 F1600.
N2040 G1 X18.2 F1600.
N2041 Y-1.528 F1600.
N2042 G2 X18.243 Y-.406 I12.249 J.095 F1600.
N2043 X18.231 Y.07 I8.988 J.466 F1600.
N2044 G1 X18.233 Y2.5 F1600.
N2045 X18.236 Y5. F1600.
N2046 Z20.933 F1600.
N2047 G0 Z31.
N2048 X-5. Y-6.83
N2049 Z20.933
N2050 G1 Z17.933 F1600.
N2051 X-2.5 F1600.
N2052 X-.06 F1600.
N2053 G2 X.432 Y-6.846 I0.0 J-7.5 F1600.
N2054 X1.522 Y-6.8 I.999 J-10.703 F1600.
N2055 G1 X19.7 F1600.
N2056 Y-1.522 F1600.
N2057 G2 X19.747 Y-.429 I10.749 J.089 F1600.
N2058 X19.731 Y.069 I7.484 J.489 F1600.
N2059 G1 X19.733 Y2.5 F1600.
N2060 X19.736 Y5. F1600.
N2061 Z20.933 F1600.
N2062 G0 Z31.
N2063 X-5. Y-8.33
N2064 Z20.933
N2065 G1 Z17.933 F1600.
N2066 X-2.5 F1600.
N2067 X-.06 F1600.
N2068 G2 X.45 Y-8.352 I0.0 J-6. F1600.
N2069 X1.515 Y-8.3 I.98 J-9.197 F1600.
N2070 G1 X21.2 F1600.
N2071 Y-1.515 F1600.
N2072 G2 X21.252 Y-.448 I9.249 J.083 F1600.
N2073 X21.231 Y.067 I5.978 J.508 F1600.
N2074 G1 X21.233 Y2.5 F1600.
N2075 X21.236 Y5. F1600.
N2076 Z20.933 F1600.
N2077 G0 Z31.
N2078 X-5. Y-9.83
N2079 Z20.933
N2080 G1 Z17.933 F1600.
N2081 X-2.5 F1600.
N2082 X-.06 F1600.
N2083 G2 X.423 Y-9.856 I0.0 J-4.5 F1600.
N2084 G1 X.504 Y-9.855 F1600.
N2085 G2 X1.508 Y-9.8 I.928 J-7.694 F1600.
N2086 G1 X22.7 F1600.
N2087 Y-1.508 F1600.
N2088 G2 X22.761 Y-.461 I7.749 J.076 F1600.
N2089 X22.731 Y.065 I4.47 J.521 F1600.
N2090 G1 X22.733 Y2.5 F1600.
N2091 X22.736 Y5. F1600.
N2092 Z20.933 F1600.
N2093 G0 Z31.
N2094 X-5. Y-11.33
N2095 Z20.933
N2096 G1 Z17.933 F1600.
N2097 X-2.5 F1600.
N2098 X-.06 F1600.
N2099 G2 X.374 Y-11.362 I0.0 J-3. F1600.
N2100 G1 X.475 Y-11.356 F1600.
N2101 X.569 Y-11.36 F1600.
N2102 G2 X1.5 Y-11.3 I.864 J-6.19 F1600.
N2103 G1 X24.2 F1600.
N2104 Y-1.5 F1600.
N2105 G2 X24.263 Y-.542 I6.249 J.068 F1600.
N2106 G1 X24.267 Y-.404 F1600.
N2107 G2 X24.231 Y.063 I2.964 J.464 F1600.
N2108 G1 X24.233 Y2.5 F1600.
N2109 X24.236 Y5. F1600.
N2110 Z20.933 F1600.
N2111 G0 Z31.
N2112 X-5. Y-12.83
N2113 Z20.933
N2114 G1 Z17.933 F1600.
N2115 X-2.5 F1600.
N2116 X-.06 F1600.
N2117 G2 X.283 Y-12.87 I0.0 J-1.5 F1600.
N2118 G1 X.504 Y-12.858 F1600.
N2119 X.677 Y-12.86 F1600.
N2120 G2 X1.492 Y-12.8 I.755 J-4.689 F1600.
N2121 G1 X25.7 F1600.
N2122 Y-1.492 F1600.
N2123 G2 X25.761 Y-.673 I4.749 J.059 F1600.
N2124 G1 X25.77 Y-.282 F1600.
N2125 G2 X25.731 Y.062 I1.461 J.342 F1600.
N2126 G1 X25.733 Y2.5 F1600.
N2127 X25.736 Y5. F1600.
N2128 Z20.933 F1600.
N2129 G0 Z31.
N2130 X-5. Y-14.33
N2131 Z20.933
N2132 G1 Z17.933 F1600.
N2133 X-2.5 F1600.
N2134 X-.06 F1600.
N2135 Y-14.339 F1600.
N2136 X-.076 Y-14.387 F1600.
N2137 X-.038 Y-14.42 F1600.
N2138 X.008 Y-14.398 F1600.
N2139 X.135 Y-14.381 F1600.
N2140 X.5 Y-14.359 F1600.
N2141 X.808 Y-14.36 F1600.
N2142 G2 X1.481 Y-14.3 I.624 J-3.189 F1600.
N2143 G1 X26.9 F1600.
N2144 G3 X27.2 Y-14. I0.0 J.3 F1600.
N2145 G1 Y-1.481 F1600.
N2146 G2 X27.261 Y-.806 I3.249 J.049 F1600.
N2147 G1 X27.26 Y-.501 F1600.
N2148 X27.281 Y-.134 F1600.
N2149 X27.295 Y-.007 F1600.
N2150 X27.316 Y.041 F1600.
N2151 X27.279 Y.079 F1600.
N2152 X27.231 Y.06 F1600.
N2153 X27.233 Y2.5 F1600.
N2154 X27.236 Y5. F1600.
N2155 Z20.933 F1600.
N2156 G0 Z31.
N2157 X51.07 Y4.551
N2158 Z20.933
N2159 G1 Z17.933 F1600.
N2160 Y1.402 F1600.
N2161 Y.093 F1600.
N2162 G2 X51.061 Y-.368 I-12. J0.0 F1600.
N2163 X51.1 Y-1.508 I-15.237 J-1.09 F1600.
N2164 G1 Y-2.334 F1600.
N2165 X51.5 F1600.
N2166 X54. Y-2.338 F1600.
N2167 Z20.933 F1600.
N2168 G0 Z31.
N2169 X49.57 Y4.967
N2170 Z20.933
N2171 G1 Z17.933 F1600.
N2172 Y2.434 F1600.
N2173 Y.093 F1600.
N2174 G2 X49.559 Y-.392 I-10.5 J0.0 F1600.
N2175 X49.6 Y-1.506 I-13.735 J-1.066 F1600.
N2176 G1 Y-3.832 F1600.
N2177 X51.5 Y-3.834 F1600.
N2178 X54. Y-3.838 F1600.
N2179 Z20.933 F1600.
N2180 G0 Z31.
N2181 X48.07 Y5.
N2182 Z20.933
N2183 G1 Z17.933 F1600.
N2184 Y2.5 F1600.
N2185 Y.093 F1600.
N2186 G2 X48.056 Y-.415 I-9. J0.0 F1600.
N2187 X48.1 Y-1.503 I-12.232 J-1.044 F1600.
N2188 G1 Y-5.311 F1600.
N2189 G2 X48.596 Y-5.343 I-.532 J-12.238 F1600.
N2190 X49.073 Y-5.331 I.464 J-8.988 F1600.
N2191 G1 X51.5 Y-5.334 F1600.
N2192 X54. Y-5.338 F1600.
N2193 Z20.933 F1600.
N2194 G0 Z31.
N2195 X46.57 Y5.
N2196 Z20.933
N2197 G1 Z17.933 F1600.
N2198 Y2.5 F1600.
N2199 Y.093 F1600.
N2200 G2 X46.551 Y-.435 I-7.5 J0.0 F1600.
N2201 X46.6 Y-1.5 I-10.727 J-1.023 F1600.
N2202 G1 Y-6.8 F1600.
N2203 X47.478 F1600.
N2204 G2 X48.573 Y-6.847 I.089 J-10.749 F1600.
N2205 X49.071 Y-6.831 I.487 J-7.484 F1600.
N2206 G1 X51.5 Y-6.834 F1600.
N2207 X54. Y-6.838 F1600.
N2208 Z20.933 F1600.
N2209 G0 Z31.
N2210 X45.07 Y5.
N2211 Z20.933
N2212 G1 Z17.933 F1600.
N2213 Y2.5 F1600.
N2214 Y.093 F1600.
N2215 G2 X45.045 Y-.451 I-6. J0.0 F1600.
N2216 X45.1 Y-1.497 I-9.221 J-1.007 F1600.
N2217 G1 Y-8.3 F1600.
N2218 X47.485 F1600.
N2219 G2 X48.553 Y-8.352 I.083 J-9.249 F1600.
N2220 X49.069 Y-8.331 I.507 J-5.979 F1600.
N2221 G1 X51.5 Y-8.334 F1600.
N2222 X54. Y-8.338 F1600.
N2223 Z20.933 F1600.
N2224 G0 Z31.
N2225 X43.57 Y5.
N2226 Z20.933
N2227 G1 Z17.933 F1600.
N2228 Y2.5 F1600.
N2229 Y.093 F1600.
N2230 G2 X43.543 Y-.4 I-4.5 J0.0 F1600.
N2231 G1 X43.542 Y-.509 F1600.
N2232 G2 X43.6 Y-1.494 I-7.718 J-.949 F1600.
N2233 G1 Y-9.8 F1600.
N2234 X47.492 F1600.
N2235 G2 X48.541 Y-9.861 I.076 J-7.749 F1600.
N2236 X49.066 Y-9.831 I.519 J-4.47 F1600.
N2237 G1 X51.5 Y-9.834 F1600.
N2238 X54. Y-9.838 F1600.
N2239 Z20.933 F1600.
N2240 G0 Z31.
N2241 X42.07 Y5.
N2242 Z20.933
N2243 G1 Z17.933 F1600.
N2244 Y2.5 F1600.
N2245 Y.093 F1600.
N2246 G2 X42.037 Y-.35 I-3. J0.0 F1600.
N2247 G1 X42.043 Y-.448 F1600.
N2248 X42.04 Y-.592 F1600.
N2249 G2 X42.1 Y-1.49 I-6.216 J-.866 F1600.
N2250 G1 Y-11.3 F1600.
N2251 X47.5 F1600.
N2252 G2 X48.455 Y-11.363 I.068 J-6.249 F1600.
N2253 G1 X48.599 Y-11.366 F1600.
N2254 G2 X49.064 Y-11.331 I.461 J-2.964 F1600.
N2255 G1 X51.5 Y-11.334 F1600.
N2256 X54. Y-11.338 F1600.
N2257 Z20.933 F1600.
N2258 G0 Z31.
N2259 X40.57 Y5.
N2260 Z20.933
N2261 G1 Z17.933 F1600.
N2262 Y2.5 F1600.
N2263 Y.093 F1600.
N2264 G2 X40.529 Y-.256 I-1.5 J0.0 F1600.
N2265 G1 X40.542 Y-.474 F1600.
N2266 X40.54 Y-.552 F1600.
N2267 Y-.703 F1600.
N2268 G2 X40.6 Y-1.486 I-4.716 J-.755 F1600.
N2269 G1 Y-12.8 F1600.
N2270 X47.508 F1600.
N2271 G2 X48.323 Y-12.86 I.059 J-4.749 F1600.
N2272 G1 X48.72 Y-12.87 F1600.
N2273 G2 X49.062 Y-12.831 I.34 J-1.461 F1600.
N2274 G1 X51.5 Y-12.834 F1600.
N2275 X54. Y-12.838 F1600.
N2276 Z20.933 F1600.
N2277 G0 Z31.
N2278 X39.07 Y5.
N2279 Z20.933
N2280 G1 Z17.933 F1600.
N2281 Y2.5 F1600.
N2282 Y.093 F1600.
N2283 X39.024 Y.091 F1600.
N2284 X39.039 Y.048 F1600.
N2285 X39.019 Y-.133 F1600.
N2286 X39.04 Y-.57 F1600.
N2287 Y-.696 F1600.
N2288 Y-.834 F1600.
N2289 G2 X39.1 Y-1.481 I-3.216 J-.625 F1600.
N2290 G1 Y-14. F1600.
N2291 G3 X39.4 Y-14.3 I.3 J0.0 F1600.
N2292 G1 X47.519 F1600.
N2293 G2 X48.192 Y-14.36 I.049 J-3.249 F1600.
N2294 G1 X48.361 F1600.
N2295 X48.499 Y-14.359 F1600.
N2296 X48.865 Y-14.381 F1600.
N2297 X48.992 Y-14.398 F1600.
N2298 X49.041 Y-14.418 F1600.
N2299 X49.08 Y-14.38 F1600.
N2300 X49.06 Y-14.331 F1600.
N2301 X51.5 Y-14.334 F1600.
N2302 X54. Y-14.338 F1600.
N2303 Z20.933 F1600.
N2304 G0 Z31.
N2305 X51.07 Y4.551
N2306 Z19.978
N2307 G1 Z16.978 F1600.
N2308 Y1.402 F1600.
N2309 X51.069 Y.007 F1600.
N2310 G2 X51.1 Y-.94 I-15.221 J-.967 F1600.
N2311 G1 Y-2.334 F1600.
N2312 X51.5 F1600.
N2313 X54. Y-2.338 F1600.
N2314 Z19.978 F1600.
N2315 G0 Z31.
N2316 X49.57 Y4.967
N2317 Z19.978
N2318 G1 Z16.978 F1600.
N2319 Y2.434 F1600.
N2320 Y.086 F1600.
N2321 X49.569 Y-.035 F1600.
N2322 G2 X49.6 Y-.941 I-13.721 J-.926 F1600.
N2323 G1 Y-3.832 F1600.
N2324 X51.5 Y-3.834 F1600.
N2325 X54. Y-3.838 F1600.
N2326 Z19.978 F1600.
N2327 G0 Z31.
N2328 X48.07 Y5.
N2329 Z19.978
N2330 G1 Z16.978 F1600.
N2331 Y2.5 F1600.
N2332 Y.093 F1600.
N2333 X48.068 Y-.08 F1600.
N2334 G2 X48.1 Y-.943 I-12.22 J-.881 F1600.
N2335 G1 Y-5.3 F1600.
N2336 G2 X48.953 Y-5.332 I-.03 J-12.221 F1600.
N2337 G1 X49.065 Y-5.331 F1600.
N2338 X51.5 Y-5.334 F1600.
N2339 X54. Y-5.338 F1600.
N2340 Z19.978 F1600.
N2341 G0 Z31.
N2342 X46.57 Y5.
N2343 Z19.978
N2344 G1 Z16.978 F1600.
N2345 Y2.5 F1600.
N2346 Y.093 F1600.
N2347 G2 X46.567 Y-.119 I-7.5 J0.0 F1600.
N2348 X46.6 Y-.944 I-10.719 J-.842 F1600.
N2349 G1 Y-6.8 F1600.
N2350 X48.096 F1600.
N2351 G2 X48.904 Y-6.832 I-.027 J-10.721 F1600.
N2352 G1 X49.071 Y-6.831 F1600.
N2353 X51.5 Y-6.834 F1600.
N2354 X54. Y-6.838 F1600.
N2355 Z19.978 F1600.
N2356 G0 Z31.
N2357 X45.07 Y5.
N2358 Z19.978
N2359 G1 Z16.978 F1600.
N2360 Y2.5 F1600.
N2361 Y.093 F1600.
N2362 G2 X45.065 Y-.155 I-6. J0.0 F1600.
N2363 X45.1 Y-.945 I-9.217 J-.806 F1600.
N2364 G1 Y-8.3 F1600.
N2365 X48.034 F1600.
N2366 G2 X48.863 Y-8.334 I.036 J-9.221 F1600.
N2367 X49.069 Y-8.331 I.197 J-5.997 F1600.
N2368 G1 X51.5 Y-8.334 F1600.
N2369 X54. Y-8.338 F1600.
N2370 Z19.978 F1600.
N2371 G0 Z31.
N2372 X43.57 Y5.
N2373 Z19.978
N2374 G1 Z16.978 F1600.
N2375 Y2.5 F1600.
N2376 Y.093 F1600.
N2377 G2 X43.561 Y-.187 I-4.5 J0.0 F1600.
N2378 X43.6 Y-.946 I-7.713 J-.774 F1600.
N2379 G1 Y-9.8 F1600.
N2380 X48.037 F1600.
N2381 G2 X48.825 Y-9.837 I.033 J-7.721 F1600.
N2382 X49.066 Y-9.831 I.235 J-4.494 F1600.
N2383 G1 X51.5 Y-9.834 F1600.
N2384 X54. Y-9.838 F1600.
N2385 Z19.978 F1600.
N2386 G0 Z31.
N2387 X42.07 Y5.
N2388 Z19.978
N2389 G1 Z16.978 F1600.
N2390 Y2.5 F1600.
N2391 Y.093 F1600.
N2392 G2 X42.055 Y-.209 I-3. J0.0 F1600.
N2393 X42.1 Y-.948 I-6.206 J-.751 F1600.
N2394 G1 Y-11.3 F1600.
N2395 X48.04 F1600.
N2396 G2 X48.796 Y-11.342 I.03 J-6.221 F1600.
N2397 X49.064 Y-11.331 I.264 J-2.988 F1600.
N2398 G1 X51.5 Y-11.334 F1600.
N2399 X54. Y-11.338 F1600.
N2400 Z19.978 F1600.
N2401 G0 Z31.
N2402 X40.57 Y5.
N2403 Z19.978
N2404 G1 Z16.978 F1600.
N2405 Y2.5 F1600.
N2406 Y.093 F1600.
N2407 G2 X40.54 Y-.206 I-1.5 J0.0 F1600.
N2408 X40.6 Y-.95 I-4.692 J-.754 F1600.
N2409 G1 Y-12.8 F1600.
N2410 X48.044 F1600.
N2411 G2 X48.79 Y-12.855 I.026 J-4.721 F1600.
N2412 X49.062 Y-12.831 I.27 J-1.476 F1600.
N2413 G1 X51.5 Y-12.834 F1600.
N2414 X54. Y-12.838 F1600.
N2415 Z19.978 F1600.
N2416 G0 Z31.
N2417 X39.07 Y5.
N2418 Z19.978
N2419 G1 Z16.978 F1600.
N2420 Y2.5 F1600.
N2421 Y.093 F1600.
N2422 X39.024 Y.091 F1600.
N2423 X39.039 Y.048 F1600.
N2424 X39.019 Y-.133 F1600.
N2425 X39.027 Y-.277 F1600.
N2426 G2 X39.1 Y-.952 I-3.179 J-.683 F1600.
N2427 G1 Y-14. F1600.
N2428 G3 X39.4 Y-14.3 I.3 J0.0 F1600.
N2429 G1 X48.048 F1600.
N2430 G2 X48.761 Y-14.375 I.021 J-3.221 F1600.
N2431 G1 X48.865 Y-14.381 F1600.
N2432 X48.992 Y-14.398 F1600.
N2433 X49.041 Y-14.418 F1600.
N2434 X49.08 Y-14.38 F1600.
N2435 X49.06 Y-14.331 F1600.
N2436 X51.5 Y-14.334 F1600.
N2437 X54. Y-14.338 F1600.
N2438 Z19.978 F1600.
N2439 G0 Z31.
N2440 X-4.505 Y2.17
N2441 Z19.978
N2442 G1 Z16.978 F1600.
N2443 X-1.241 F1600.
N2444 X-.158 F1600.
N2445 G2 X.983 Y2.2 I1.089 J-19.691 F1600.
N2446 G1 X10.733 F1600.
N2447 G2 X10.73 Y2.5 I16.497 J.3 F1600.
N2448 G1 Y5. F1600.
N2449 Z19.978 F1600.
N2450 G0 Z31.
N2451 X-4.955 Y.67
N2452 Z19.978
N2453 G1 Z16.978 F1600.
N2454 X-2.409 F1600.
N2455 X-.116 F1600.
N2456 G2 X.981 Y.7 I1.046 J-18.191 F1600.
N2457 G1 X12.231 F1600.
N2458 X12.233 Y2.5 F1600.
N2459 X12.236 Y5. F1600.
N2460 Z19.978 F1600.
N2461 G0 Z31.
N2462 X-5. Y-.83
N2463 Z19.978
N2464 G1 Z16.978 F1600.
N2465 X-2.5 F1600.
N2466 X-.072 F1600.
N2467 G2 X.979 Y-.8 I1.002 J-16.691 F1600.
N2468 G1 X13.701 F1600.
N2469 G2 X13.731 Y.056 I16.762 J-.154 F1600.
N2470 G1 X13.733 Y2.5 F1600.
N2471 X13.736 Y5. F1600.
N2472 Z19.978 F1600.
N2473 G0 Z31.
N2474 X-5. Y-2.33
N2475 Z19.978
N2476 G1 Z16.978 F1600.
N2477 X-2.5 F1600.
N2478 X-.027 F1600.
N2479 G2 X.977 Y-2.3 I.958 J-15.191 F1600.
N2480 G1 X15.2 F1600.
N2481 Y-.927 F1600.
N2482 G2 X15.231 Y.002 I15.262 J-.044 F1600.
N2483 G1 X15.233 Y2.5 F1600.
N2484 X15.236 Y5. F1600.
N2485 Z19.978 F1600.
N2486 G0 Z31.
N2487 X-5. Y-3.83
N2488 Z19.978
N2489 G1 Z16.978 F1600.
N2490 X-2.5 F1600.
N2491 X.013 Y-3.831 F1600.
N2492 G2 X.974 Y-3.8 I.917 J-13.691 F1600.
N2493 G1 X16.7 F1600.
N2494 Y-.93 F1600.
N2495 G2 X16.731 Y-.041 I13.762 J-.041 F1600.
N2496 G1 Y.066 F1600.
N2497 X16.733 Y2.5 F1600.
N2498 X16.736 Y5. F1600.
N2499 Z19.978 F1600.
N2500 G0 Z31.
N2501 X-5. Y-5.33
N2502 Z19.978
N2503 G1 Z16.978 F1600.
N2504 X-2.5 F1600.
N2505 X-.052 F1600.
N2506 X.057 Y-5.331 F1600.
N2507 G2 X.972 Y-5.3 I.874 J-12.19 F1600.
N2508 G1 X18.2 F1600.
N2509 Y-.932 F1600.
N2510 G2 X18.232 Y-.088 I12.262 J-.039 F1600.
N2511 G1 X18.231 Y.07 F1600.
N2512 X18.233 Y2.5 F1600.
N2513 X18.236 Y5. F1600.
N2514 Z19.978 F1600.
N2515 G0 Z31.
N2516 X-5. Y-6.83
N2517 Z19.978
N2518 G1 Z16.978 F1600.
N2519 X-2.5 F1600.
N2520 X-.06 F1600.
N2521 X.104 Y-6.832 F1600.
N2522 G2 X.969 Y-6.8 I.826 J-10.689 F1600.
N2523 G1 X19.7 F1600.
N2524 Y-.935 F1600.
N2525 G2 X19.733 Y-.129 I10.762 J-.036 F1600.
N2526 G1 X19.731 Y.069 F1600.
N2527 X19.733 Y2.5 F1600.
N2528 X19.736 Y5. F1600.
N2529 Z19.978 F1600.
N2530 G0 Z31.
N2531 X-5. Y-8.33
N2532 Z19.978
N2533 G1 Z16.978 F1600.
N2534 X-2.5 F1600.
N2535 X-.06 F1600.
N2536 G2 X.144 Y-8.333 I0.0 J-6. F1600.
N2537 X.966 Y-8.3 I.786 J-9.188 F1600.
N2538 G1 X21.2 F1600.
N2539 Y-.937 F1600.
N2540 G2 X21.235 Y-.167 I9.262 J-.034 F1600.
N2541 X21.231 Y.067 I5.996 J.227 F1600.
N2542 G1 X21.233 Y2.5 F1600.
N2543 X21.236 Y5. F1600.
N2544 Z19.978 F1600.
N2545 G0 Z31.
N2546 X-5. Y-9.83
N2547 Z19.978
N2548 G1 Z16.978 F1600.
N2549 X-2.5 F1600.
N2550 X-.06 F1600.
N2551 G2 X.181 Y-9.836 I0.0 J-4.5 F1600.
N2552 X.963 Y-9.8 I.75 J-7.685 F1600.
N2553 G1 X22.7 F1600.
N2554 Y-.94 F1600.
N2555 G2 X22.738 Y-.202 I7.762 J-.031 F1600.
N2556 X22.731 Y.065 I4.492 J.262 F1600.
N2557 G1 X22.733 Y2.5 F1600.
N2558 X22.736 Y5. F1600.
N2559 Z19.978 F1600.
N2560 G0 Z31.
N2561 X-5. Y-11.33
N2562 Z19.978
N2563 G1 Z16.978 F1600.
N2564 X-2.5 F1600.
N2565 X-.06 F1600.
N2566 G2 X.208 Y-11.342 I0.0 J-3. F1600.
N2567 X.96 Y-11.3 I.722 J-6.179 F1600.
N2568 G1 X24.2 F1600.
N2569 Y-.944 F1600.
N2570 G2 X24.244 Y-.227 I6.262 J-.027 F1600.
N2571 X24.231 Y.063 I2.986 J.287 F1600.
N2572 G1 X24.233 Y2.5 F1600.
N2573 X24.236 Y5. F1600.
N2574 Z19.978 F1600.
N2575 G0 Z31.
N2576 X-5. Y-12.83
N2577 Z19.978
N2578 G1 Z16.978 F1600.
N2579 X-2.5 F1600.
N2580 X-.06 F1600.
N2581 G2 X.212 Y-12.855 I0.0 J-1.5 F1600.
N2582 X.956 Y-12.8 I.718 J-4.666 F1600.
N2583 G1 X25.7 F1600.
N2584 Y-.947 F1600.
N2585 G2 X25.758 Y-.227 I4.762 J-.024 F1600.
N2586 X25.731 Y.062 I1.472 J.287 F1600.
N2587 G1 X25.733 Y2.5 F1600.
N2588 X25.736 Y5. F1600.
N2589 Z19.978 F1600.
N2590 G0 Z31.
N2591 X-5. Y-14.33
N2592 Z19.978
N2593 G1 Z16.978 F1600.
N2594 X-2.5 F1600.
N2595 X-.06 F1600.
N2596 Y-14.339 F1600.
N2597 X-.076 Y-14.387 F1600.
N2598 X-.038 Y-14.42 F1600.
N2599 X.008 Y-14.398 F1600.
N2600 X.135 Y-14.381 F1600.
N2601 X.239 Y-14.375 F1600.
N2602 G2 X.952 Y-14.3 I.692 J-3.146 F1600.
N2603 G1 X26.9 F1600.
N2604 G3 X27.2 Y-14. I0.0 J.3 F1600.
N2605 G1 Y-.952 F1600.
N2606 G2 X27.272 Y-.29 I3.262 J-.019 F1600.
N2607 G1 X27.281 Y-.134 F1600.
N2608 X27.295 Y-.007 F1600.
N2609 X27.316 Y.041 F1600.
N2610 X27.279 Y.079 F1600.
N2611 X27.231 Y.06 F1600.
N2612 X27.233 Y2.5 F1600.
N2613 X27.236 Y5. F1600.
N2614 Z19.978 F1600.
N2615 G0 Z31.
N2616 X5.33 Y-54.
N2617 Z19.978
N2618 G1 Z16.978 F1600.
N2619 Y-49.413 F1600.
N2620 Y-49.095 F1600.
N2621 G2 X5.3 Y-48.049 I18.212 J1.046 F1600.
N2622 G1 Y-41.2 F1600.
N2623 X.94 F1600.
N2624 G2 X-.089 Y-41.17 I.017 J18.248 F1600.
N2625 G1 X-.687 F1600.
N2626 X-5. F1600.
N2627 Z19.978 F1600.
N2628 G0 Z31.
N2629 X6.83 Y-54.
N2630 Z19.978
N2631 G1 Z16.978 F1600.
N2632 Y-51.5 F1600.
N2633 Y-49.051 F1600.
N2634 G2 X6.8 Y-48.049 I16.712 J1.002 F1600.
N2635 G1 Y-39.7 F1600.
N2636 X.941 F1600.
N2637 G2 X-.045 Y-39.67 I.016 J16.748 F1600.
N2638 G1 X-2.5 F1600.
N2639 X-5. F1600.
N2640 Z19.978 F1600.
N2641 G0 Z31.
N2642 X8.33 Y-54.
N2643 Z19.978
N2644 G1 Z16.978 F1600.
N2645 Y-51.5 F1600.
N2646 Y-49.005 F1600.
N2647 G2 X8.3 Y-48.049 I15.212 J.956 F1600.
N2648 G1 Y-38.2 F1600.
N2649 X.943 F1600.
N2650 G2 X.001 Y-38.17 I.014 J15.248 F1600.
N2651 G1 X-2.5 F1600.
N2652 X-5. F1600.
N2653 Z19.978 F1600.
N2654 G0 Z31.
N2655 X9.83 Y-54.
N2656 Z19.978
N2657 G1 Z16.978 F1600.
N2658 Y-51.5 F1600.
N2659 Y-48.957 F1600.
N2660 G2 X9.8 Y-48.049 I13.712 J.908 F1600.
N2661 G1 Y-36.7 F1600.
N2662 X.944 F1600.
N2663 G2 X.049 Y-36.67 I.013 J13.748 F1600.
N2664 G1 X-2.5 F1600.
N2665 X-5. F1600.
N2666 Z19.978 F1600.
N2667 G0 Z31.
N2668 X11.33 Y-54.
N2669 Z19.978
N2670 G1 Z16.978 F1600.
N2671 Y-51.5 F1600.
N2672 Y-48.906 F1600.
N2673 G2 X11.3 Y-48.049 I12.212 J.857 F1600.
N2674 G1 Y-35.2 F1600.
N2675 X.946 F1600.
N2676 G2 X.1 Y-35.17 I.011 J12.248 F1600.
N2677 G1 X-2.5 F1600.
N2678 X-5. F1600.
N2679 Z19.978 F1600.
N2680 G0 Z31.
N2681 X12.83 Y-54.
N2682 Z19.978
N2683 G1 Z16.978 F1600.
N2684 Y-51.5 F1600.
N2685 Y-48.851 F1600.
N2686 G2 X12.8 Y-48.049 I10.712 J.802 F1600.
N2687 G1 Y-33.7 F1600.
N2688 X.947 F1600.
N2689 G2 X.154 Y-33.67 I.01 J10.748 F1600.
N2690 G1 X-2.5 F1600.
N2691 X-5. F1600.
N2692 Z19.978 F1600.
N2693 G0 Z31.
N2694 X14.33 Y-54.
N2695 Z19.978
N2696 G1 Z16.978 F1600.
N2697 Y-51.5 F1600.
N2698 Y-48.793 F1600.
N2699 G2 X14.3 Y-48.048 I9.212 J.744 F1600.
N2700 G1 Y-32.2 F1600.
N2701 X.948 F1600.
N2702 G2 X.213 Y-32.17 I.009 J9.248 F1600.
N2703 G1 X-2.5 F1600.
N2704 X-5. F1600.
N2705 Z19.978 F1600.
N2706 G0 Z31.
N2707 X15.83 Y-54.
N2708 Z19.978
N2709 G1 Z16.978 F1600.
N2710 Y-51.5 F1600.
N2711 Y-48.73 F1600.
N2712 G2 X15.8 Y-48.048 I7.712 J.681 F1600.
N2713 G1 Y-30.7 F1600.
N2714 X.949 F1600.
N2715 G2 X.276 Y-30.67 I.008 J7.748 F1600.
N2716 G1 X-2.5 F1600.
N2717 X-5. F1600.
N2718 Z19.978 F1600.
N2719 G0 Z31.
N2720 X17.33 Y-54.
N2721 Z19.978
N2722 G1 Z16.978 F1600.
N2723 Y-51.5 F1600.
N2724 Y-48.66 F1600.
N2725 G2 X17.3 Y-48.048 I6.212 J.611 F1600.
N2726 G1 Y-29.2 F1600.
N2727 X.949 F1600.
N2728 G2 X.345 Y-29.17 I.008 J6.248 F1600.
N2729 G1 X-2.5 F1600.
N2730 X-5. F1600.
N2731 Z19.978 F1600.
N2732 G0 Z31.
N2733 X18.83 Y-54.
N2734 Z19.978
N2735 G1 Z16.978 F1600.
N2736 Y-51.5 F1600.
N2737 Y-48.582 F1600.
N2738 G2 X18.8 Y-48.048 I4.712 J.533 F1600.
N2739 G1 Y-27.7 F1600.
N2740 X.95 F1600.
N2741 G2 X.424 Y-27.67 I.007 J4.748 F1600.
N2742 G1 X-2.5 F1600.
N2743 X-5. F1600.
N2744 Z19.978 F1600.
N2745 G0 Z31.
N2746 X20.33 Y-54.
N2747 Z19.978
N2748 G1 Z16.978 F1600.
N2749 Y-51.5 F1600.
N2750 X20.333 Y-48.51 F1600.
N2751 G2 X20.3 Y-48.048 I3.209 J.461 F1600.
N2752 G1 Y-26.5 F1600.
N2753 G3 X20. Y-26.2 I-.3 J0.0 F1600.
N2754 G1 X.952 F1600.
N2755 G2 X.497 Y-26.167 I.005 J3.248 F1600.
N2756 G1 X-2.5 Y-26.17 F1600.
N2757 X-5. F1600.
N2758 Z19.978 F1600.
N2759 G0 Z31.
N2760 X54. Y-44.17
N2761 Z19.978
N2762 G1 Z16.978 F1600.
N2763 X51.5 F1600.
N2764 X50.2 F1600.
N2765 Y-48.062 F1600.
N2766 G2 X50.17 Y-49.174 I-21.246 J.017 F1600.
N2767 G1 Y-51.209 F1600.
N2768 Y-53.861 F1600.
N2769 Z19.978 F1600.
N2770 G0 Z31.
N2771 X54. Y-42.67
N2772 Z19.978
N2773 G1 Z16.978 F1600.
N2774 X51.5 F1600.
N2775 X49.158 F1600.
N2776 G2 X48.7 Y-42.69 I-1.089 J19.691 F1600.
N2777 G1 Y-48.061 F1600.
N2778 G2 X48.67 Y-49.133 I-19.746 J.016 F1600.
N2779 G1 Y-51.5 F1600.
N2780 Y-54. F1600.
N2781 Z19.978 F1600.
N2782 G0 Z31.
N2783 X54. Y-41.17
N2784 Z19.978
N2785 G1 Z16.978 F1600.
N2786 X51.5 F1600.
N2787 X49.116 F1600.
N2788 G2 X48.019 Y-41.2 I-1.046 J18.191 F1600.
N2789 G1 X47.2 F1600.
N2790 Y-48.06 F1600.
N2791 G2 X47.17 Y-49.091 I-18.246 J.015 F1600.
N2792 G1 Y-51.5 F1600.
N2793 Y-54. F1600.
N2794 Z19.978 F1600.
N2795 G0 Z31.
N2796 X54. Y-39.67
N2797 Z19.978
N2798 G1 Z16.978 F1600.
N2799 X51.5 F1600.
N2800 X49.072 F1600.
N2801 G2 X48.021 Y-39.7 I-1.002 J16.691 F1600.
N2802 G1 X45.7 F1600.
N2803 Y-48.059 F1600.
N2804 G2 X45.67 Y-49.047 I-16.746 J.014 F1600.
N2805 G1 Y-51.5 F1600.
N2806 Y-54. F1600.
N2807 Z19.978 F1600.
N2808 G0 Z31.
N2809 X54. Y-38.17
N2810 Z19.978
N2811 G1 Z16.978 F1600.
N2812 X51.5 F1600.
N2813 X49.027 F1600.
N2814 G2 X48.023 Y-38.2 I-.958 J15.191 F1600.
N2815 G1 X44.2 F1600.
N2816 Y-48.058 F1600.
N2817 G2 X44.17 Y-49.033 I-15.248 J-.019 F1600.
N2818 G1 Y-51.5 F1600.
N2819 Y-54. F1600.
N2820 Z19.978 F1600.
N2821 G0 Z31.
N2822 X54. Y-36.67
N2823 Z19.978
N2824 G1 Z16.978 F1600.
N2825 X51.5 F1600.
N2826 X48.987 Y-36.669 F1600.
N2827 G2 X48.026 Y-36.7 I-.917 J13.691 F1600.
N2828 G1 X42.7 F1600.
N2829 Y-48.056 F1600.
N2830 G2 X42.669 Y-48.967 I-13.746 J.011 F1600.
N2831 G1 X42.67 Y-51.5 F1600.
N2832 Y-54. F1600.
N2833 Z19.978 F1600.
N2834 G0 Z31.
N2835 X54. Y-35.17
N2836 Z19.978
N2837 G1 Z16.978 F1600.
N2838 X51.5 F1600.
N2839 X49.052 F1600.
N2840 X48.943 Y-35.169 F1600.
N2841 G2 X48.028 Y-35.2 I-.874 J12.19 F1600.
N2842 G1 X41.2 F1600.
N2843 Y-48.055 F1600.
N2844 G2 X41.168 Y-48.924 I-12.246 J.01 F1600.
N2845 G1 X41.17 Y-49.051 F1600.
N2846 Y-51.5 F1600.
N2847 Y-54. F1600.
N2848 Z19.978 F1600.
N2849 G0 Z31.
N2850 X54. Y-33.67
N2851 Z19.978
N2852 G1 Z16.978 F1600.
N2853 X51.5 F1600.
N2854 X49.06 F1600.
N2855 X48.896 Y-33.668 F1600.
N2856 G2 X48.031 Y-33.7 I-.826 J10.689 F1600.
N2857 G1 X39.7 F1600.
N2858 Y-48.054 F1600.
N2859 G2 X39.668 Y-48.877 I-10.746 J.009 F1600.
N2860 G1 X39.67 Y-49.06 F1600.
N2861 Y-51.5 F1600.
N2862 Y-54. F1600.
N2863 Z19.978 F1600.
N2864 G0 Z31.
N2865 X54. Y-32.17
N2866 Z19.978
N2867 G1 Z16.978 F1600.
N2868 X51.5 F1600.
N2869 X49.06 F1600.
N2870 G2 X48.856 Y-32.167 I0.0 J6. F1600.
N2871 X48.034 Y-32.2 I-.786 J9.188 F1600.
N2872 G1 X38.2 F1600.
N2873 Y-48.053 F1600.
N2874 G2 X38.166 Y-48.838 I-9.246 J.007 F1600.
N2875 X38.17 Y-49.06 I-5.996 J-.222 F1600.
N2876 G1 Y-51.5 F1600.
N2877 Y-54. F1600.
N2878 Z19.978 F1600.
N2879 G0 Z31.
N2880 X54. Y-30.67
N2881 Z19.978
N2882 G1 Z16.978 F1600.
N2883 X51.5 F1600.
N2884 X49.06 F1600.
N2885 G2 X48.819 Y-30.664 I0.0 J4.5 F1600.
N2886 X48.037 Y-30.7 I-.75 J7.685 F1600.
N2887 G1 X36.7 F1600.
N2888 Y-48.051 F1600.
N2889 G2 X36.663 Y-48.804 I-7.746 J.006 F1600.
N2890 X36.67 Y-49.06 I-4.493 J-.256 F1600.
N2891 G1 Y-51.5 F1600.
N2892 Y-54. F1600.
N2893 Z19.978 F1600.
N2894 G0 Z31.
N2895 X54. Y-29.17
N2896 Z19.978
N2897 G1 Z16.978 F1600.
N2898 X51.5 F1600.
N2899 X49.06 F1600.
N2900 G2 X48.792 Y-29.158 I0.0 J3. F1600.
N2901 X48.04 Y-29.2 I-.722 J6.179 F1600.
N2902 G1 X35.2 F1600.
N2903 Y-48.05 F1600.
N2904 G2 X35.157 Y-48.779 I-6.246 J.005 F1600.
N2905 X35.17 Y-49.06 I-2.987 J-.281 F1600.
N2906 G1 Y-51.5 F1600.
N2907 Y-54. F1600.
N2908 Z19.978 F1600.
N2909 G0 Z31.
N2910 X54. Y-27.67
N2911 Z19.978
N2912 G1 Z16.978 F1600.
N2913 X51.5 F1600.
N2914 X49.06 F1600.
N2915 G2 X48.788 Y-27.645 I0.0 J1.5 F1600.
N2916 X48.044 Y-27.7 I-.718 J4.666 F1600.
N2917 G1 X33.7 F1600.
N2918 Y-48.049 F1600.
N2919 G2 X33.643 Y-48.778 I-4.746 J.004 F1600.
N2920 X33.67 Y-49.06 I-1.473 J-.282 F1600.
N2921 G1 Y-51.5 F1600.
N2922 Y-54. F1600.
N2923 Z19.978 F1600.
N2924 G0 Z31.
N2925 X54. Y-26.17
N2926 Z19.978
N2927 G1 Z16.978 F1600.
N2928 X51.5 F1600.
N2929 X49.06 F1600.
N2930 Y-26.164 F1600.
N2931 X49.076 Y-26.116 F1600.
N2932 X49.039 Y-26.083 F1600.
N2933 X48.993 Y-26.105 F1600.
N2934 X48.866 Y-26.119 F1600.
N2935 X48.759 Y-26.126 F1600.
N2936 G2 X48.048 Y-26.2 I-.689 J3.147 F1600.
N2937 G1 X32.5 F1600.
N2938 X32.435 Y-26.207 F1600.
N2939 X32.2 Y-26.5 F1600.
N2940 Y-48.048 F1600.
N2941 G2 X32.127 Y-48.73 I-3.246 J.003 F1600.
N2942 G1 X32.119 Y-48.866 F1600.
N2943 X32.104 Y-48.993 F1600.
N2944 X32.084 Y-49.042 F1600.
N2945 X32.121 Y-49.079 F1600.
N2946 X32.17 Y-49.06 F1600.
N2947 Y-51.5 F1600.
N2948 Y-54. F1600.
N2949 Z19.978 F1600.
N2950 G0 Z31.
N2951 X54. Y-44.17
N2952 Z19.022
N2953 G1 Z16.022 F1600.
N2954 X51.5 F1600.
N2955 X50.2 F1600.
N2956 Y-48.347 F1600.
N2957 G2 X50.17 Y-49.499 I-21.207 J-.024 F1600.
N2958 G1 Y-51.209 F1600.
N2959 Y-53.861 F1600.
N2960 Z19.022 F1600.
N2961 G0 Z31.
N2962 X54. Y-42.67
N2963 Z19.022
N2964 G1 Z16.022 F1600.
N2965 X51.5 F1600.
N2966 X49.427 F1600.
N2967 G2 X48.7 Y-42.697 I-1.089 J19.707 F1600.
N2968 G1 Y-48.348 F1600.
N2969 G2 X48.67 Y-49.458 I-19.707 J-.023 F1600.
N2970 G1 Y-51.5 F1600.
N2971 Y-54. F1600.
N2972 Z19.022 F1600.
N2973 G0 Z31.
N2974 X54. Y-41.17
N2975 Z19.022
N2976 G1 Z16.022 F1600.
N2977 X51.5 F1600.
N2978 X49.385 F1600.
N2979 G2 X48.394 Y-41.2 I-1.047 J18.207 F1600.
N2980 G1 X47.2 F1600.
N2981 Y-48.349 F1600.
N2982 G2 X47.17 Y-49.416 I-18.207 J-.023 F1600.
N2983 G1 Y-51.5 F1600.
N2984 Y-54. F1600.
N2985 Z19.022 F1600.
N2986 G0 Z31.
N2987 X54. Y-39.67
N2988 Z19.022
N2989 G1 Z16.022 F1600.
N2990 X51.5 F1600.
N2991 X49.341 F1600.
N2992 G2 X48.392 Y-39.7 I-1.003 J16.707 F1600.
N2993 G1 X45.7 F1600.
N2994 Y-48.35 F1600.
N2995 G2 X45.67 Y-49.372 I-16.707 J-.022 F1600.
N2996 G1 Y-51.5 F1600.
N2997 Y-54. F1600.
N2998 Z19.022 F1600.
N2999 G0 Z31.
N3000 X54. Y-38.17
N3001 Z19.022
N3002 G1 Z16.022 F1600.
N3003 X51.5 F1600.
N3004 X49.295 F1600.
N3005 G2 X48.389 Y-38.2 I-.957 J15.207 F1600.
N3006 G1 X44.2 F1600.
N3007 Y-48.351 F1600.
N3008 G2 X44.17 Y-49.326 I-15.207 J-.021 F1600.
N3009 G1 Y-51.5 F1600.
N3010 Y-54. F1600.
N3011 Z19.022 F1600.
N3012 G0 Z31.
N3013 X54. Y-36.67
N3014 Z19.022
N3015 G1 Z16.022 F1600.
N3016 X51.5 F1600.
N3017 X49.246 F1600.
N3018 G2 X48.387 Y-36.7 I-.909 J13.707 F1600.
N3019 G1 X42.7 F1600.
N3020 Y-48.352 F1600.
N3021 G2 X42.67 Y-49.278 I-13.707 J-.019 F1600.
N3022 G1 Y-51.5 F1600.
N3023 Y-54. F1600.
N3024 Z19.022 F1600.
N3025 G0 Z31.
N3026 X54. Y-35.17
N3027 Z19.022
N3028 G1 Z16.022 F1600.
N3029 X51.5 F1600.
N3030 X49.195 F1600.
N3031 G2 X48.384 Y-35.2 I-.858 J12.207 F1600.
N3032 G1 X41.2 F1600.
N3033 Y-48.353 F1600.
N3034 G2 X41.17 Y-49.227 I-12.207 J-.018 F1600.
N3035 G1 Y-51.5 F1600.
N3036 Y-54. F1600.
N3037 Z19.022 F1600.
N3038 G0 Z31.
N3039 X54. Y-33.67
N3040 Z19.022
N3041 G1 Z16.022 F1600.
N3042 X51.5 F1600.
N3043 X49.141 F1600.
N3044 G2 X48.381 Y-33.7 I-.803 J10.707 F1600.
N3045 G1 X39.7 F1600.
N3046 Y-48.354 F1600.
N3047 G2 X39.67 Y-49.172 I-10.707 J-.017 F1600.
N3048 G1 Y-51.5 F1600.
N3049 Y-54. F1600.
N3050 Z19.022 F1600.
N3051 G0 Z31.
N3052 X54. Y-32.17
N3053 Z19.022
N3054 G1 Z16.022 F1600.
N3055 X51.5 F1600.
N3056 X49.083 F1600.
N3057 G2 X48.378 Y-32.2 I-.745 J9.207 F1600.
N3058 G1 X38.2 F1600.
N3059 Y-48.355 F1600.
N3060 G2 X38.17 Y-49.114 I-9.207 J-.016 F1600.
N3061 G1 Y-51.5 F1600.
N3062 Y-54. F1600.
N3063 Z19.022 F1600.
N3064 G0 Z31.
N3065 X54. Y-30.67
N3066 Z19.022
N3067 G1 Z16.022 F1600.
N3068 X51.5 F1600.
N3069 X49.024 F1600.
N3070 X48.962 Y-30.675 F1600.
N3071 G2 X48.374 Y-30.7 I-.624 J7.711 F1600.
N3072 G1 X36.7 F1600.
N3073 Y-48.357 F1600.
N3074 G2 X36.67 Y-49.051 I-7.707 J-.015 F1600.
N3075 G1 Y-51.5 F1600.
N3076 Y-54. F1600.
N3077 Z19.022 F1600.
N3078 G0 Z31.
N3079 X54. Y-29.17
N3080 Z19.022
N3081 G1 Z16.022 F1600.
N3082 X51.5 F1600.
N3083 X49.06 F1600.
N3084 X48.965 Y-29.168 F1600.
N3085 G2 X48.37 Y-29.2 I-.627 J6.205 F1600.
N3086 G1 X35.2 F1600.
N3087 Y-48.358 F1600.
N3088 G2 X35.169 Y-48.986 I-6.207 J-.01 F1600.
N3089 G1 X35.17 Y-51.5 F1600.
N3090 Y-54. F1600.
N3091 Z19.022 F1600.
N3092 G0 Z31.
N3093 X54. Y-27.67
N3094 Z19.022
N3095 G1 Z16.022 F1600.
N3096 X51.5 F1600.
N3097 X49.06 F1600.
N3098 X48.923 Y-27.664 F1600.
N3099 G2 X48.366 Y-27.7 I-.586 J4.7 F1600.
N3100 G1 X33.7 F1600.
N3101 Y-48.359 F1600.
N3102 G2 X33.665 Y-48.939 I-4.707 J-.008 F1600.
N3103 G1 X33.67 Y-49.06 F1600.
N3104 Y-51.5 F1600.
N3105 Y-54. F1600.
N3106 Z19.022 F1600.
N3107 G0 Z31.
N3108 X54. Y-26.17
N3109 Z19.022
N3110 G1 Z16.022 F1600.
N3111 X51.5 F1600.
N3112 X49.06 F1600.
N3113 Y-26.164 F1600.
N3114 X49.043 Y-26.122 F1600.
N3115 G2 X48.361 Y-26.2 I-.705 J3.159 F1600.
N3116 G1 X32.5 F1600.
N3117 X32.435 Y-26.208 F1600.
N3118 X32.2 Y-26.5 F1600.
N3119 Y-48.361 F1600.
N3120 G2 X32.127 Y-49.047 I-3.207 J-.007 F1600.
N3121 G1 X32.17 Y-49.06 F1600.
N3122 Y-51.5 F1600.
N3123 Y-54. F1600.
N3124 Z19.022 F1600.
N3125 G0 Z31.
N3126 X5.594
N3127 Z19.022
N3128 G1 Z16.022 F1600.
N3129 X5.33 Y-49.413 F1600.
N3130 Y-49.412 F1600.
N3131 G2 X5.3 Y-48.351 I18.177 J1.045 F1600.
N3132 G1 Y-41.2 F1600.
N3133 X.649 F1600.
N3134 G2 X-.412 Y-41.17 I-.017 J18.207 F1600.
N3135 G1 X-.687 F1600.
N3136 X-5. F1600.
N3137 Z19.022 F1600.
N3138 G0 Z31.
N3139 X6.83 Y-54.
N3140 Z19.022
N3141 G1 Z16.022 F1600.
N3142 Y-51.5 F1600.
N3143 Y-49.368 F1600.
N3144 G2 X6.8 Y-48.352 I16.677 J1.001 F1600.
N3145 G1 Y-39.7 F1600.
N3146 X.648 F1600.
N3147 G2 X-.368 Y-39.67 I-.016 J16.707 F1600.
N3148 G1 X-2.5 F1600.
N3149 X-5. F1600.
N3150 Z19.022 F1600.
N3151 G0 Z31.
N3152 X8.33 Y-54.
N3153 Z19.022
N3154 G1 Z16.022 F1600.
N3155 Y-51.5 F1600.
N3156 Y-49.322 F1600.
N3157 G2 X8.3 Y-48.352 I15.177 J.955 F1600.
N3158 G1 Y-38.2 F1600.
N3159 X.648 F1600.
N3160 G2 X-.322 Y-38.17 I-.015 J15.207 F1600.
N3161 G1 X-2.5 F1600.
N3162 X-5. F1600.
N3163 Z19.022 F1600.
N3164 G0 Z31.
N3165 X9.83 Y-54.
N3166 Z19.022
N3167 G1 Z16.022 F1600.
N3168 Y-51.5 F1600.
N3169 Y-49.274 F1600.
N3170 G2 X9.8 Y-48.353 I13.677 J.906 F1600.
N3171 G1 Y-36.7 F1600.
N3172 X.647 F1600.
N3173 G2 X-.274 Y-36.67 I-.014 J13.707 F1600.
N3174 G1 X-2.5 F1600.
N3175 X-5. F1600.
N3176 Z19.022 F1600.
N3177 G0 Z31.
N3178 X11.33 Y-54.
N3179 Z19.022
N3180 G1 Z16.022 F1600.
N3181 Y-51.5 F1600.
N3182 Y-49.223 F1600.
N3183 G2 X11.3 Y-48.354 I12.177 J.855 F1600.
N3184 G1 Y-35.2 F1600.
N3185 X.646 F1600.
N3186 G2 X-.223 Y-35.17 I-.013 J12.207 F1600.
N3187 G1 X-2.5 F1600.
N3188 X-5. F1600.
N3189 Z19.022 F1600.
N3190 G0 Z31.
N3191 X12.83 Y-54.
N3192 Z19.022
N3193 G1 Z16.022 F1600.
N3194 Y-51.5 F1600.
N3195 Y-49.168 F1600.
N3196 G2 X12.8 Y-48.355 I10.677 J.801 F1600.
N3197 G1 Y-33.7 F1600.
N3198 X.645 F1600.
N3199 G2 X-.168 Y-33.67 I-.013 J10.707 F1600.
N3200 G1 X-2.5 F1600.
N3201 X-5. F1600.
N3202 Z19.022 F1600.
N3203 G0 Z31.
N3204 X14.33 Y-54.
N3205 Z19.022
N3206 G1 Z16.022 F1600.
N3207 Y-51.5 F1600.
N3208 Y-49.11 F1600.
N3209 G2 X14.3 Y-48.356 I9.177 J.743 F1600.
N3210 G1 Y-32.2 F1600.
N3211 X.644 F1600.
N3212 G2 X-.11 Y-32.17 I-.012 J9.207 F1600.
N3213 G1 X-2.5 F1600.
N3214 X-5. F1600.
N3215 Z19.022 F1600.
N3216 G0 Z31.
N3217 X15.83 Y-54.
N3218 Z19.022
N3219 G1 Z16.022 F1600.
N3220 Y-51.5 F1600.
N3221 Y-49.047 F1600.
N3222 G2 X15.8 Y-48.357 I7.677 J.679 F1600.
N3223 G1 Y-30.7 F1600.
N3224 X.643 F1600.
N3225 G2 X-.047 Y-30.67 I-.011 J7.707 F1600.
N3226 G1 X-2.5 F1600.
N3227 X-5. F1600.
N3228 Z19.022 F1600.
N3229 G0 Z31.
N3230 X17.33 Y-54.
N3231 Z19.022
N3232 G1 Z16.022 F1600.
N3233 Y-51.5 F1600.
N3234 Y-48.977 F1600.
N3235 G2 X17.3 Y-48.358 I6.177 J.61 F1600.
N3236 G1 Y-29.2 F1600.
N3237 X.642 F1600.
N3238 G2 X.023 Y-29.17 I-.01 J6.207 F1600.
N3239 G1 X-2.5 F1600.
N3240 X-5. F1600.
N3241 Z19.022 F1600.
N3242 G0 Z31.
N3243 X18.83 Y-54.
N3244 Z19.022
N3245 G1 Z16.022 F1600.
N3246 Y-51.5 F1600.
N3247 Y-48.898 F1600.
N3248 G2 X18.8 Y-48.359 I4.677 J.531 F1600.
N3249 G1 Y-27.7 F1600.
N3250 X.641 F1600.
N3251 G2 X.102 Y-27.67 I-.008 J4.707 F1600.
N3252 G1 X-2.5 F1600.
N3253 X-5. F1600.
N3254 Z19.022 F1600.
N3255 G0 Z31.
N3256 X20.33 Y-54.
N3257 Z19.022
N3258 G1 Z16.022 F1600.
N3259 Y-51.5 F1600.
N3260 Y-48.805 F1600.
N3261 G2 X20.3 Y-48.361 I3.177 J.438 F1600.
N3262 G1 Y-26.5 F1600.
N3263 G3 X20. Y-26.2 I-.3 J0.0 F1600.
N3264 G1 X.639 F1600.
N3265 G2 X.195 Y-26.17 I-.007 J3.207 F1600.
N3266 G1 X-2.5 F1600.
N3267 X-5. F1600.
N3268 Z19.022 F1600.
N3269 G0 Z31.
N3270 X-4.505 Y2.17
N3271 Z19.022
N3272 G1 Z16.022 F1600.
N3273 X-1.241 F1600.
N3274 X-.458 F1600.
N3275 G2 X.652 Y2.2 I1.087 J-19.677 F1600.
N3276 G1 X10.733 F1600.
N3277 G2 X10.73 Y2.5 I16.497 J.3 F1600.
N3278 G1 Y5. F1600.
N3279 Z19.022 F1600.
N3280 G0 Z31.
N3281 X-4.955 Y.67
N3282 Z19.022
N3283 G1 Z16.022 F1600.
N3284 X-2.409 F1600.
N3285 X-.416 F1600.
N3286 G2 X.651 Y.7 I1.045 J-18.177 F1600.
N3287 G1 X12.232 F1600.
N3288 X12.233 Y2.5 F1600.
N3289 X12.235 Y5. F1600.
N3290 Z19.022 F1600.
N3291 G0 Z31.
N3292 X-5. Y-.83
N3293 Z19.022
N3294 G1 Z16.022 F1600.
N3295 X-2.5 F1600.
N3296 X-.372 F1600.
N3297 G2 X.65 Y-.8 I1.001 J-16.677 F1600.
N3298 G1 X13.7 F1600.
N3299 Y-.648 F1600.
N3300 G2 X13.732 Y.396 I16.707 J.016 F1600.
N3301 G1 X13.733 Y2.5 F1600.
N3302 X13.735 Y5. F1600.
N3303 Z19.022 F1600.
N3304 G0 Z31.
N3305 X-5. Y-2.33
N3306 Z19.022
N3307 G1 Z16.022 F1600.
N3308 X-2.5 F1600.
N3309 X-.326 F1600.
N3310 G2 X.649 Y-2.3 I.955 J-15.177 F1600.
N3311 G1 X15.2 F1600.
N3312 Y-.648 F1600.
N3313 G2 X15.232 Y.348 I15.207 J.015 F1600.
N3314 G1 X15.233 Y2.5 F1600.
N3315 X15.235 Y5. F1600.
N3316 Z19.022 F1600.
N3317 G0 Z31.
N3318 X-5. Y-3.83
N3319 Z19.022
N3320 G1 Z16.022 F1600.
N3321 X-2.5 F1600.
N3322 X-.278 F1600.
N3323 G2 X.648 Y-3.8 I.907 J-13.677 F1600.
N3324 G1 X16.7 F1600.
N3325 Y-.647 F1600.
N3326 G2 X16.732 Y.298 I13.707 J.014 F1600.
N3327 G1 X16.733 Y2.5 F1600.
N3328 X16.735 Y5. F1600.
N3329 Z19.022 F1600.
N3330 G0 Z31.
N3331 X-5. Y-5.33
N3332 Z19.022
N3333 G1 Z16.022 F1600.
N3334 X-2.5 F1600.
N3335 X-.227 F1600.
N3336 G2 X.647 Y-5.3 I.855 J-12.177 F1600.
N3337 G1 X18.2 F1600.
N3338 Y-.646 F1600.
N3339 G2 X18.232 Y.245 I12.207 J.013 F1600.
N3340 G1 X18.233 Y2.5 F1600.
N3341 X18.235 Y5. F1600.
N3342 Z19.022 F1600.
N3343 G0 Z31.
N3344 X-5. Y-6.83
N3345 Z19.022
N3346 G1 Z16.022 F1600.
N3347 X-2.5 F1600.
N3348 X-.172 F1600.
N3349 G2 X.646 Y-6.8 I.801 J-10.677 F1600.
N3350 G1 X19.7 F1600.
N3351 Y-.645 F1600.
N3352 G2 X19.732 Y.188 I10.707 J.013 F1600.
N3353 G1 X19.733 Y2.5 F1600.
N3354 X19.735 Y5. F1600.
N3355 Z19.022 F1600.
N3356 G0 Z31.
N3357 X-5. Y-8.33
N3358 Z19.022
N3359 G1 Z16.022 F1600.
N3360 X-2.5 F1600.
N3361 X-.114 F1600.
N3362 G2 X.645 Y-8.3 I.743 J-9.177 F1600.
N3363 G1 X21.2 F1600.
N3364 Y-.644 F1600.
N3365 G2 X21.231 Y.128 I9.207 J.012 F1600.
N3366 G1 X21.233 Y2.5 F1600.
N3367 X21.235 Y5. F1600.
N3368 Z19.022 F1600.
N3369 G0 Z31.
N3370 X-5. Y-9.83
N3371 Z19.022
N3372 G1 Z16.022 F1600.
N3373 X-2.5 F1600.
N3374 X-.051 F1600.
N3375 G2 X.643 Y-9.8 I.679 J-7.677 F1600.
N3376 G1 X22.7 F1600.
N3377 Y-.643 F1600.
N3378 G2 X22.731 Y.063 I7.707 J.011 F1600.
N3379 G1 X22.733 Y2.5 F1600.
N3380 X22.735 Y5. F1600.
N3381 Z19.022 F1600.
N3382 G0 Z31.
N3383 X-5. Y-11.33
N3384 Z19.022
N3385 G1 Z16.022 F1600.
N3386 X-2.5 F1600.
N3387 X.014 Y-11.331 F1600.
N3388 G2 X.642 Y-11.3 I.619 J-6.176 F1600.
N3389 G1 X24.2 F1600.
N3390 Y-.642 F1600.
N3391 G2 X24.231 Y-.009 I6.207 J.01 F1600.
N3392 G1 X24.233 Y2.5 F1600.
N3393 X24.235 Y5. F1600.
N3394 Z19.022 F1600.
N3395 G0 Z31.
N3396 X-5. Y-12.83
N3397 Z19.022
N3398 G1 Z16.022 F1600.
N3399 X-2.5 F1600.
N3400 X-.06 F1600.
N3401 X.061 Y-12.835 F1600.
N3402 G2 X.641 Y-12.8 I.572 J-4.672 F1600.
N3403 G1 X25.7 F1600.
N3404 Y-.641 F1600.
N3405 G2 X25.735 Y-.058 I4.707 J.008 F1600.
N3406 G1 X25.731 Y.062 F1600.
N3407 X25.733 Y2.5 F1600.
N3408 X25.736 Y5. F1600.
N3409 Z19.022 F1600.
N3410 G0 Z31.
N3411 X-5. Y-14.33
N3412 Z19.022
N3413 G1 Z16.022 F1600.
N3414 X-2.5 F1600.
N3415 X-.06 F1600.
N3416 X-.049 Y-14.373 F1600.
N3417 G2 X.639 Y-14.3 I.682 J-3.134 F1600.
N3418 G1 X26.9 F1600.
N3419 G3 X27.2 Y-14. I0.0 J.3 F1600.
N3420 G1 Y-.639 F1600.
N3421 G2 X27.273 Y.047 I3.207 J.007 F1600.
N3422 G1 X27.231 Y.06 F1600.
N3423 X27.233 Y2.5 F1600.
N3424 X27.236 Y5. F1600.
N3425 Z19.022 F1600.
N3426 G0 Z31.
N3427 X51.07 Y4.551
N3428 Z19.022
N3429 G1 Z16.022 F1600.
N3430 Y1.402 F1600.
N3431 Y.322 F1600.
N3432 G2 X51.1 Y-.648 I-15.177 J-.955 F1600.
N3433 G1 Y-2.334 F1600.
N3434 X51.5 F1600.
N3435 X54. Y-2.337 F1600.
N3436 Z19.022 F1600.
N3437 G0 Z31.
N3438 X49.57 Y4.967
N3439 Z19.022
N3440 G1 Z16.022 F1600.
N3441 Y2.434 F1600.
N3442 Y.274 F1600.
N3443 G2 X49.6 Y-.647 I-13.677 J-.906 F1600.
N3444 G1 Y-3.832 F1600.
N3445 X51.5 Y-3.834 F1600.
N3446 X54. Y-3.837 F1600.
N3447 Z19.022 F1600.
N3448 G0 Z31.
N3449 X48.07 Y5.
N3450 Z19.022
N3451 G1 Z16.022 F1600.
N3452 Y2.5 F1600.
N3453 Y.223 F1600.
N3454 G2 X48.1 Y-.646 I-12.177 J-.855 F1600.
N3455 G1 Y-5.3 F1600.
N3456 X48.354 F1600.
N3457 G2 X49.249 Y-5.332 I.013 J-12.207 F1600.
N3458 G1 X51.5 Y-5.334 F1600.
N3459 X54. Y-5.337 F1600.
N3460 Z19.022 F1600.
N3461 G0 Z31.
N3462 X46.57 Y5.
N3463 Z19.022
N3464 G1 Z16.022 F1600.
N3465 Y2.5 F1600.
N3466 Y.168 F1600.
N3467 G2 X46.6 Y-.645 I-10.677 J-.801 F1600.
N3468 G1 Y-6.8 F1600.
N3469 X48.355 F1600.
N3470 G2 X49.192 Y-6.832 I.013 J-10.707 F1600.
N3471 G1 X51.5 Y-6.834 F1600.
N3472 X54. Y-6.837 F1600.
N3473 Z19.022 F1600.
N3474 G0 Z31.
N3475 X45.07 Y5.
N3476 Z19.022
N3477 G1 Z16.022 F1600.
N3478 Y2.5 F1600.
N3479 Y.11 F1600.
N3480 G2 X45.1 Y-.644 I-9.177 J-.743 F1600.
N3481 G1 Y-8.3 F1600.
N3482 X48.356 F1600.
N3483 G2 X49.132 Y-8.332 I.012 J-9.207 F1600.
N3484 G1 X51.5 Y-8.334 F1600.
N3485 X54. Y-8.337 F1600.
N3486 Z19.022 F1600.
N3487 G0 Z31.
N3488 X43.57 Y5.
N3489 Z19.022
N3490 G1 Z16.022 F1600.
N3491 Y2.5 F1600.
N3492 Y.052 F1600.
N3493 X43.575 Y-.011 F1600.
N3494 G2 X43.6 Y-.643 I-7.682 J-.622 F1600.
N3495 G1 Y-9.8 F1600.
N3496 X48.357 F1600.
N3497 G2 X49.066 Y-9.832 I.011 J-7.707 F1600.
N3498 G1 X51.5 Y-9.834 F1600.
N3499 X54. Y-9.837 F1600.
N3500 Z19.022 F1600.
N3501 G0 Z31.
N3502 X42.07 Y5.
N3503 Z19.022
N3504 G1 Z16.022 F1600.
N3505 Y2.5 F1600.
N3506 Y.093 F1600.
N3507 X42.068 Y-.006 F1600.
N3508 G2 X42.1 Y-.642 I-6.175 J-.626 F1600.
N3509 G1 Y-11.3 F1600.
N3510 X48.358 F1600.
N3511 G2 X48.993 Y-11.332 I.01 J-6.207 F1600.
N3512 G1 X51.5 Y-11.334 F1600.
N3513 X54. Y-11.337 F1600.
N3514 Z19.022 F1600.
N3515 G0 Z31.
N3516 X40.57 Y5.
N3517 Z19.022
N3518 G1 Z16.022 F1600.
N3519 Y2.5 F1600.
N3520 Y.093 F1600.
N3521 X40.563 Y-.047 F1600.
N3522 G2 X40.6 Y-.641 I-4.67 J-.586 F1600.
N3523 G1 Y-12.8 F1600.
N3524 X48.359 F1600.
N3525 G2 X48.944 Y-12.835 I.008 J-4.707 F1600.
N3526 G1 X49.062 Y-12.831 F1600.
N3527 X51.5 Y-12.834 F1600.
N3528 X54. Y-12.838 F1600.
N3529 Z19.022 F1600.
N3530 G0 Z31.
N3531 X39.07 Y5.
N3532 Z19.022
N3533 G1 Z16.022 F1600.
N3534 Y2.5 F1600.
N3535 Y.093 F1600.
N3536 X39.024 Y.091 F1600.
N3537 X39.039 Y.048 F1600.
N3538 X39.035 Y.011 F1600.
N3539 G2 X39.1 Y-.639 I-3.142 J-.644 F1600.
N3540 G1 Y-14. F1600.
N3541 G3 X39.4 Y-14.3 I.3 J0.0 F1600.
N3542 G1 X48.361 F1600.
N3543 G2 X49.049 Y-14.373 I.007 J-3.207 F1600.
N3544 G1 X49.06 Y-14.331 F1600.
N3545 X51.5 Y-14.334 F1600.
N3546 X54. Y-14.338 F1600.
N3547 Z19.022 F1600.
N3548 G0 Z31.
N3549 X51.07 Y4.551
N3550 Z18.067
N3551 G1 Z15.067 F1600.
N3552 Y1.402 F1600.
N3553 Y.418 F1600.
N3554 G2 X51.1 Y-.465 I-15.209 J-.959 F1600.
N3555 G1 Y-2.334 F1600.
N3556 X51.5 F1600.
N3557 X54. Y-2.338 F1600.
N3558 Z18.067 F1600.
N3559 G0 Z31.
N3560 X49.57 Y4.967
N3561 Z18.067
N3562 G1 Z15.067 F1600.
N3563 Y2.434 F1600.
N3564 Y.37 F1600.
N3565 G2 X49.6 Y-.469 I-13.709 J-.91 F1600.
N3566 G1 Y-3.832 F1600.
N3567 X51.5 Y-3.834 F1600.
N3568 X54. Y-3.838 F1600.
N3569 Z18.067 F1600.
N3570 G0 Z31.
N3571 X48.07 Y5.
N3572 Z18.067
N3573 G1 Z15.067 F1600.
N3574 Y2.5 F1600.
N3575 Y.319 F1600.
N3576 G2 X48.1 Y-.473 I-12.209 J-.859 F1600.
N3577 G1 Y-5.3 F1600.
N3578 X48.463 F1600.
N3579 G2 X49.328 Y-5.331 I-.009 J-12.24 F1600.
N3580 G1 X51.5 Y-5.334 F1600.
N3581 X54. Y-5.338 F1600.
N3582 Z18.067 F1600.
N3583 G0 Z31.
N3584 X46.57 Y5.
N3585 Z18.067
N3586 G1 Z15.067 F1600.
N3587 Y2.5 F1600.
N3588 Y.264 F1600.
N3589 G2 X46.6 Y-.477 I-10.709 J-.805 F1600.
N3590 G1 Y-6.8 F1600.
N3591 X48.462 F1600.
N3592 G2 X49.271 Y-6.831 I-.008 J-10.74 F1600.
N3593 G1 X51.5 Y-6.834 F1600.
N3594 X54. Y-6.838 F1600.
N3595 Z18.067 F1600.
N3596 G0 Z31.
N3597 X45.07 Y5.
N3598 Z18.067
N3599 G1 Z15.067 F1600.
N3600 Y2.5 F1600.
N3601 Y.206 F1600.
N3602 G2 X45.1 Y-.482 I-9.209 J-.746 F1600.
N3603 G1 Y-8.3 F1600.
N3604 X48.461 F1600.
N3605 G2 X49.211 Y-8.331 I-.007 J-9.24 F1600.
N3606 G1 X51.5 Y-8.334 F1600.
N3607 X54. Y-8.338 F1600.
N3608 Z18.067 F1600.
N3609 G0 Z31.
N3610 X43.57 Y5.
N3611 Z18.067
N3612 G1 Z15.067 F1600.
N3613 Y2.5 F1600.
N3614 Y.142 F1600.
N3615 G2 X43.6 Y-.487 I-7.709 J-.683 F1600.
N3616 G1 Y-9.8 F1600.
N3617 X48.46 F1600.
N3618 G2 X49.146 Y-9.831 I-.006 J-7.74 F1600.
N3619 G1 X51.5 Y-9.834 F1600.
N3620 X54. Y-9.838 F1600.
N3621 Z18.067 F1600.
N3622 G0 Z31.
N3623 X42.07 Y5.
N3624 Z18.067
N3625 G1 Z15.067 F1600.
N3626 Y2.5 F1600.
N3627 Y.073 F1600.
N3628 G2 X42.1 Y-.493 I-6.209 J-.613 F1600.
N3629 G1 Y-11.3 F1600.
N3630 X48.458 F1600.
N3631 G2 X49.074 Y-11.331 I-.005 J-6.24 F1600.
N3632 G1 X51.5 Y-11.334 F1600.
N3633 X54. Y-11.338 F1600.
N3634 Z18.067 F1600.
N3635 G0 Z31.
N3636 X40.57 Y5.
N3637 Z18.067
N3638 G1 Z15.067 F1600.
N3639 Y2.5 F1600.
N3640 Y.093 F1600.
N3641 X40.568 Y.01 F1600.
N3642 G2 X40.6 Y-.5 I-4.707 J-.555 F1600.
N3643 G1 Y-12.8 F1600.
N3644 X48.458 F1600.
N3645 G2 X49.003 Y-12.832 I-.004 J-4.74 F1600.
N3646 G1 X51.5 Y-12.834 F1600.
N3647 X54. Y-12.838 F1600.
N3648 Z18.067 F1600.
N3649 G0 Z31.
N3650 X39.07 Y5.
N3651 Z18.067
N3652 G1 Z15.067 F1600.
N3653 Y2.5 F1600.
N3654 Y.093 F1600.
N3655 X39.043 Y.063 F1600.
N3656 G2 X39.1 Y-.509 I-3.182 J-.607 F1600.
N3657 G1 Y-14. F1600.
N3658 G3 X39.4 Y-14.3 I.3 J0.0 F1600.
N3659 G1 X48.457 F1600.
N3660 G2 X49.057 Y-14.357 I-.003 J-3.24 F1600.
N3661 G1 X49.06 Y-14.331 F1600.
N3662 X51.5 Y-14.334 F1600.
N3663 X54. Y-14.338 F1600.
N3664 Z18.067 F1600.
N3665 G0 Z31.
N3666 X-4.505 Y2.17
N3667 Z18.067
N3668 G1 Z15.067 F1600.
N3669 X-1.241 F1600.
N3670 X-.544 F1600.
N3671 G2 X.445 Y2.2 I1.093 J-19.712 F1600.
N3672 G1 X10.733 F1600.
N3673 G2 X10.73 Y2.5 I16.497 J.3 F1600.
N3674 G1 Y5. F1600.
N3675 Z18.067 F1600.
N3676 G0 Z31.
N3677 X-4.955 Y.67
N3678 Z18.067
N3679 G1 Z15.067 F1600.
N3680 X-2.409 F1600.
N3681 X-.502 F1600.
N3682 G2 X.449 Y.7 I1.05 J-18.212 F1600.
N3683 G1 X12.231 F1600.
N3684 X12.233 Y2.5 F1600.
N3685 X12.236 Y5. F1600.
N3686 Z18.067 F1600.
N3687 G0 Z31.
N3688 X-5. Y-.83
N3689 Z18.067
N3690 G1 Z15.067 F1600.
N3691 X-2.5 F1600.
N3692 X-.458 F1600.
N3693 G2 X.454 Y-.8 I1.006 J-16.712 F1600.
N3694 G1 X13.7 F1600.
N3695 Y-.598 F1600.
N3696 G2 X13.731 Y.487 I16.728 J.064 F1600.
N3697 G1 X13.733 Y2.5 F1600.
N3698 X13.736 Y5. F1600.
N3699 Z18.067 F1600.
N3700 G0 Z31.
N3701 X-5. Y-2.33
N3702 Z18.067
N3703 G1 Z15.067 F1600.
N3704 X-2.5 F1600.
N3705 X-.412 F1600.
N3706 G2 X.458 Y-2.3 I.96 J-15.212 F1600.
N3707 G1 X15.2 F1600.
N3708 Y-.595 F1600.
N3709 G2 X15.231 Y.439 I15.228 J.061 F1600.
N3710 G1 X15.233 Y2.5 F1600.
N3711 X15.236 Y5. F1600.
N3712 Z18.067 F1600.
N3713 G0 Z31.
N3714 X-5. Y-3.83
N3715 Z18.067
N3716 G1 Z15.067 F1600.
N3717 X-2.5 F1600.
N3718 X-.363 F1600.
N3719 G2 X.463 Y-3.8 I.912 J-13.712 F1600.
N3720 G1 X16.7 F1600.
N3721 Y-.592 F1600.
N3722 G2 X16.731 Y.389 I13.728 J.058 F1600.
N3723 G1 X16.733 Y2.5 F1600.
N3724 X16.736 Y5. F1600.
N3725 Z18.067 F1600.
N3726 G0 Z31.
N3727 X-5. Y-5.33
N3728 Z18.067
N3729 G1 Z15.067 F1600.
N3730 X-2.5 F1600.
N3731 X-.312 F1600.
N3732 G2 X.468 Y-5.3 I.86 J-12.212 F1600.
N3733 G1 X18.2 F1600.
N3734 Y-.589 F1600.
N3735 G2 X18.231 Y.336 I12.228 J.055 F1600.
N3736 G1 X18.233 Y2.5 F1600.
N3737 X18.236 Y5. F1600.
N3738 Z18.067 F1600.
N3739 G0 Z31.
N3740 X-5. Y-6.83
N3741 Z18.067
N3742 G1 Z15.067 F1600.
N3743 X-2.5 F1600.
N3744 X-.257 F1600.
N3745 G2 X.473 Y-6.8 I.806 J-10.712 F1600.
N3746 G1 X19.7 F1600.
N3747 Y-.585 F1600.
N3748 G2 X19.731 Y.28 I10.728 J.051 F1600.
N3749 G1 X19.733 Y2.5 F1600.
N3750 X19.736 Y5. F1600.
N3751 Z18.067 F1600.
N3752 G0 Z31.
N3753 X-5. Y-8.33
N3754 Z18.067
N3755 G1 Z15.067 F1600.
N3756 X-2.5 F1600.
N3757 X-.199 F1600.
N3758 G2 X.479 Y-8.3 I.747 J-9.212 F1600.
N3759 G1 X21.2 F1600.
N3760 Y-.581 F1600.
N3761 G2 X21.231 Y.22 I9.228 J.047 F1600.
N3762 G1 X21.233 Y2.5 F1600.
N3763 X21.236 Y5. F1600.
N3764 Z18.067 F1600.
N3765 G0 Z31.
N3766 X-5. Y-9.83
N3767 Z18.067
N3768 G1 Z15.067 F1600.
N3769 X-2.5 F1600.
N3770 X-.135 F1600.
N3771 G2 X.485 Y-9.8 I.684 J-7.712 F1600.
N3772 G1 X22.7 F1600.
N3773 Y-.577 F1600.
N3774 G2 X22.731 Y.155 I7.728 J.043 F1600.
N3775 G1 X22.733 Y2.5 F1600.
N3776 X22.736 Y5. F1600.
N3777 Z18.067 F1600.
N3778 G0 Z31.
N3779 X-5. Y-11.33
N3780 Z18.067
N3781 G1 Z15.067 F1600.
N3782 X-2.5 F1600.
N3783 X-.066 F1600.
N3784 G2 X.492 Y-11.3 I.614 J-6.212 F1600.
N3785 G1 X24.2 F1600.
N3786 Y-.573 F1600.
N3787 G2 X24.231 Y.084 I6.228 J.039 F1600.
N3788 G1 X24.233 Y2.5 F1600.
N3789 X24.236 Y5. F1600.
N3790 Z18.067 F1600.
N3791 G0 Z31.
N3792 X-5. Y-12.83
N3793 Z18.067
N3794 G1 Z15.067 F1600.
N3795 X-2.5 F1600.
N3796 X.002 Y-12.831 F1600.
N3797 G2 X.499 Y-12.8 I.546 J-4.711 F1600.
N3798 G1 X25.7 F1600.
N3799 Y-.568 F1600.
N3800 G2 X25.731 Y.011 I4.728 J.034 F1600.
N3801 G1 X25.733 Y2.5 F1600.
N3802 X25.736 Y5. F1600.
N3803 Z18.067 F1600.
N3804 G0 Z31.
N3805 X-5. Y-14.33
N3806 Z18.067
N3807 G1 Z15.067 F1600.
N3808 X-2.5 F1600.
N3809 X-.06 F1600.
N3810 X-.057 Y-14.357 F1600.
N3811 G2 X.509 Y-14.3 I.605 J-3.186 F1600.
N3812 G1 X26.9 F1600.
N3813 G3 X27.2 Y-14. I0.0 J.3 F1600.
N3814 G1 Y-.562 F1600.
N3815 G2 X27.254 Y.057 I3.228 J.028 F1600.
N3816 G1 X27.231 Y.06 F1600.
N3817 X27.233 Y2.5 F1600.
N3818 X27.236 Y5. F1600.
N3819 Z18.067 F1600.
N3820 G0 Z31.
N3821 X5.392 Y-54.
N3822 Z18.067
N3823 G1 Z15.067 F1600.
N3824 X5.302 Y-48.771 F1600.
N3825 X5.3 Y-48.591 F1600.
N3826 Y-41.2 F1600.
N3827 X.45 F1600.
N3828 G2 X-.502 Y-41.17 I.098 J18.242 F1600.
N3829 G1 X-.687 F1600.
N3830 X-5. F1600.
N3831 Z18.067 F1600.
N3832 G0 Z31.
N3833 X6.83 Y-54.
N3834 Z18.067
N3835 G1 Z15.067 F1600.
N3836 Y-51.5 F1600.
N3837 Y-49.463 F1600.
N3838 G2 X6.8 Y-48.58 I16.705 J1.004 F1600.
N3839 G1 Y-39.7 F1600.
N3840 X.454 F1600.
N3841 G2 X-.458 Y-39.67 I.094 J16.742 F1600.
N3842 G1 X-2.5 F1600.
N3843 X-5. F1600.
N3844 Z18.067 F1600.
N3845 G0 Z31.
N3846 X8.33 Y-54.
N3847 Z18.067
N3848 G1 Z15.067 F1600.
N3849 Y-51.5 F1600.
N3850 Y-49.417 F1600.
N3851 G2 X8.3 Y-48.569 I15.205 J.958 F1600.
N3852 G1 Y-38.2 F1600.
N3853 X.458 F1600.
N3854 G2 X-.412 Y-38.17 I.09 J15.242 F1600.
N3855 G1 X-2.5 F1600.
N3856 X-5. F1600.
N3857 Z18.067 F1600.
N3858 G0 Z31.
N3859 X9.83 Y-54.
N3860 Z18.067
N3861 G1 Z15.067 F1600.
N3862 Y-51.5 F1600.
N3863 Y-49.369 F1600.
N3864 G2 X9.8 Y-48.564 I13.705 J.91 F1600.
N3865 G1 Y-36.7 F1600.
N3866 X.463 F1600.
N3867 G2 X-.363 Y-36.67 I.085 J13.742 F1600.
N3868 G1 X-2.5 F1600.
N3869 X-5. F1600.
N3870 Z18.067 F1600.
N3871 G0 Z31.
N3872 X11.33 Y-54.
N3873 Z18.067
N3874 G1 Z15.067 F1600.
N3875 Y-51.5 F1600.
N3876 Y-49.318 F1600.
N3877 G2 X11.3 Y-48.552 I12.205 J.859 F1600.
N3878 G1 Y-35.2 F1600.
N3879 X.468 F1600.
N3880 G2 X-.312 Y-35.17 I.08 J12.242 F1600.
N3881 G1 X-2.5 F1600.
N3882 X-5. F1600.
N3883 Z18.067 F1600.
N3884 G0 Z31.
N3885 X12.83 Y-54.
N3886 Z18.067
N3887 G1 Z15.067 F1600.
N3888 Y-51.5 F1600.
N3889 Y-49.263 F1600.
N3890 G2 X12.8 Y-48.541 I10.705 J.804 F1600.
N3891 G1 Y-33.7 F1600.
N3892 X.473 F1600.
N3893 G2 X-.258 Y-33.67 I.075 J10.742 F1600.
N3894 G1 X-2.5 F1600.
N3895 X-5. F1600.
N3896 Z18.067 F1600.
N3897 G0 Z31.
N3898 X14.33 Y-54.
N3899 Z18.067
N3900 G1 Z15.067 F1600.
N3901 Y-51.5 F1600.
N3902 Y-49.205 F1600.
N3903 G2 X14.3 Y-48.529 I9.205 J.746 F1600.
N3904 G1 Y-32.2 F1600.
N3905 X.479 F1600.
N3906 G2 X-.199 Y-32.17 I.069 J9.242 F1600.
N3907 G1 X-2.5 F1600.
N3908 X-5. F1600.
N3909 Z18.067 F1600.
N3910 G0 Z31.
N3911 X15.83 Y-54.
N3912 Z18.067
N3913 G1 Z15.067 F1600.
N3914 Y-51.5 F1600.
N3915 Y-49.141 F1600.
N3916 G2 X15.8 Y-48.518 I7.705 J.683 F1600.
N3917 G1 Y-30.7 F1600.
N3918 X.485 F1600.
N3919 G2 X-.136 Y-30.67 I.063 J7.742 F1600.
N3920 G1 X-2.5 F1600.
N3921 X-5. F1600.
N3922 Z18.067 F1600.
N3923 G0 Z31.
N3924 X17.33 Y-54.
N3925 Z18.067
N3926 G1 Z15.067 F1600.
N3927 Y-51.5 F1600.
N3928 Y-49.072 F1600.
N3929 G2 X17.3 Y-48.512 I6.205 J.613 F1600.
N3930 G1 Y-29.2 F1600.
N3931 X.492 F1600.
N3932 G2 X-.066 Y-29.17 I.056 J6.242 F1600.
N3933 G1 X-2.5 F1600.
N3934 X-5. F1600.
N3935 Z18.067 F1600.
N3936 G0 Z31.
N3937 X18.83 Y-54.
N3938 Z18.067
N3939 G1 Z15.067 F1600.
N3940 Y-51.5 F1600.
N3941 Y-48.993 F1600.
N3942 G2 X18.8 Y-48.499 I4.705 J.534 F1600.
N3943 G1 Y-27.7 F1600.
N3944 X.499 F1600.
N3945 G2 X.013 Y-27.67 I.049 J4.742 F1600.
N3946 G1 X-2.5 F1600.
N3947 X-5. F1600.
N3948 Z18.067 F1600.
N3949 G0 Z31.
N3950 X20.33 Y-54.
N3951 Z18.067
N3952 G1 Z15.067 F1600.
N3953 Y-51.5 F1600.
N3954 Y-48.9 F1600.
N3955 G2 X20.3 Y-48.491 I3.205 J.441 F1600.
N3956 G1 Y-26.5 F1600.
N3957 G3 X20. Y-26.2 I-.3 J0.0 F1600.
N3958 G1 X.509 F1600.
N3959 G2 X.106 Y-26.17 I.039 J3.242 F1600.
N3960 G1 X-2.5 F1600.
N3961 X-5. F1600.
N3962 Z18.067 F1600.
N3963 G0 Z31.
N3964 X54. Y-44.17
N3965 Z18.067
N3966 G1 Z15.067 F1600.
N3967 X51.5 F1600.
N3968 X50.2 F1600.
N3969 Y-48.55 F1600.
N3970 G2 X50.17 Y-49.591 I-21.235 J.091 F1600.
N3971 G1 Y-51.209 F1600.
N3972 Y-53.861 F1600.
N3973 Z18.067 F1600.
N3974 G0 Z31.
N3975 X54. Y-42.67
N3976 Z18.067
N3977 G1 Z15.067 F1600.
N3978 X51.5 F1600.
