;           PROGRAMM: UGOLNIK#2_UST1
;(****************************************************************)
;          PART NAME: D:\!Work\Programs\NX\UGOLNIK#2\UGOLNIK#2.prt
;            VERSION: C:\Program Files\Siemens\NX 12.0\mach\resource\postprocessor\TMT_Sinumerik_828D_0.16\TMT_Sinumerik_828D_0.16.def
;      Creation Date: Fri Sep  6 13:29:48 2019
;(****************************************************************)
;      POSTPROCESSOR: TMT Sinumerik 828D 3-x axes (version 0.16 created Fri Sep  6 13:29:48 2019)
;(****************************************************************)
N1 G40 G17 G90
N2 G54
;(****************************************************************)
;    START OPERATION: FIXED_CONTOUR
;     TYPE OPERATION: Fixed-axis Surface Contouring
;(****************************************************************)
N3 T="FR 52" M6
;(****************************************************************)
; TOOL PARAMETRS: NUMBER: 0 NAME:  MILL_D52 D = 52.00mm  L = 105.00mm
; R = 0.8mm
;(****************************************************************)
N4 S1996 M3
N5 G0 X93.243 Y53.178 D1
N6 Z328.2 M8
N7 Z308.617
N8 G1 Z298.617 F1198.
N9 Y53.276 Z296.36 F1198.
N10 Y53.569 Z294.12 F1198.
N11 Y54.056 Z291.914 F1198.
N12 Y54.733 Z289.759 F1198.
N13 Y55.594 Z287.671 F1198.
N14 Y56.633 Z285.665 F1198.
N15 Y57.842 Z283.757 F1198.
N16 X93.242 Y59.213 Z281.961 F1198.
N17 Y60.734 Z280.291 F1198.
N18 Y62.394 Z278.76 F1198.
N19 X93.24 Y77.669 Z265.849 F1198.
N20 X93.212 Y325.81 Z56.115 F1198.
N21 X93.23 Y330.569 Z52.092 F1198.
N22 X93.287 Y338.864 Z45.082 F1198.
N23 X93.567 Z45.081 F1198.
N24 X93.597 Y71.218 Z271.301 F1198.
N25 X93.989 Y71.217 Z271.302 F1198.
N26 X93.959 Y338.865 Z45.08 F1198.
N27 X94.35 Y338.866 Z45.079 F1198.
N28 Y338.153 Z45.682 F1198.
N29 X94.38 Y71.929 Z270.7 F1198.
N30 Y71.216 Z271.303 F1198.
N31 X94.772 Y71.215 Z271.304 F1198.
N32 Y71.928 Z270.701 F1198.
N33 X94.742 Y338.154 Z45.681 F1198.
N34 Y338.867 Z45.079 F1198.
N35 X95.134 Y338.868 Z45.078 F1198.
N36 Y338.155 Z45.681 F1198.
N37 X95.164 Y71.927 Z270.702 F1198.
N38 Y71.214 Z271.304 F1198.
N39 X95.556 Y71.213 Z271.305 F1198.
N40 Y71.927 Z270.702 F1198.
N41 X95.526 Y338.156 Z45.68 F1198.
N42 Y338.869 Z45.077 F1198.
N43 X95.917 Y338.87 Z45.076 F1198.
N44 Y338.157 Z45.679 F1198.
N45 X95.947 Y71.926 Z270.703 F1198.
N46 Y71.212 Z271.306 F1198.
N47 X96.339 Z271.307 F1198.
N48 Y71.925 Z270.704 F1198.
N49 X96.309 Y338.158 Z45.678 F1198.
N50 Y338.871 Z45.075 F1198.
N51 X96.701 Y338.872 F1198.
N52 Y338.159 Z45.677 F1198.
N53 X96.731 Y71.924 Z270.705 F1198.
N54 Y71.211 Z271.308 F1198.
N55 X97.123 Y71.21 F1198.
N56 Y71.923 Z270.705 F1198.
N57 X97.093 Y338.16 Z45.677 F1198.
N58 Y338.873 Z45.074 F1198.
N59 X97.484 Y338.874 Z45.073 F1198.
N60 Y338.161 Z45.676 F1198.
N61 X97.514 Y71.922 Z270.706 F1198.
N62 Y71.209 Z271.309 F1198.
N63 X97.906 Y71.208 Z271.31 F1198.
N64 Y71.921 Z270.707 F1198.
N65 X97.876 Y338.162 Z45.675 F1198.
N66 Y338.875 Z45.072 F1198.
N67 X98.268 Y338.876 Z45.071 F1198.
N68 Y338.163 Z45.674 F1198.
N69 X98.298 Y71.92 Z270.708 F1198.
N70 Y71.207 Z271.311 F1198.
N71 X98.69 Y71.206 F1198.
N72 Y71.92 Z270.708 F1198.
N73 X98.66 Y338.163 Z45.674 F1198.
N74 Y338.876 Z45.071 F1198.
N75 X99.051 Y338.877 F1198.
N76 Y338.163 Z45.674 F1198.
N77 X99.081 Y71.919 Z270.708 F1198.
N78 Y71.206 Z271.311 F1198.
N79 X99.473 F1198.
N80 Y71.919 Z270.709 F1198.
N81 X99.443 Y338.164 Z45.673 F1198.
N82 Y338.877 Z45.07 F1198.
N83 X99.835 F1198.
N84 Y338.164 Z45.673 F1198.
N85 X99.865 Y71.919 Z270.709 F1198.
N86 Y71.206 Z271.312 F1198.
N87 X100.257 F1198.
N88 Y71.919 Z270.709 F1198.
N89 X100.227 Y338.164 Z45.673 F1198.
N90 Y338.877 Z45.07 F1198.
N91 X100.618 Y338.878 F1198.
N92 Y338.164 Z45.673 F1198.
N93 X100.648 Y71.919 Z270.709 F1198.
N94 Y71.205 Z271.312 F1198.
N95 X101.04 F1198.
N96 Y71.918 Z270.709 F1198.
N97 X101.01 Y338.165 Z45.673 F1198.
N98 Y338.878 Z45.07 F1198.
N99 X101.402 Z45.069 F1198.
N100 Y338.165 Z45.672 F1198.
N101 X101.432 Y71.918 Z270.71 F1198.
N102 Y71.205 Z271.312 F1198.
N103 X101.824 Z271.313 F1198.
N104 Y71.918 Z270.71 F1198.
N105 X101.794 Y338.165 Z45.672 F1198.
N106 Y338.878 Z45.069 F1198.
N107 X102.185 Y338.879 F1198.
N108 Y338.165 Z45.672 F1198.
N109 X102.215 Y71.918 Z270.71 F1198.
N110 Y71.204 Z271.313 F1198.
N111 X102.607 F1198.
N112 Y71.917 Z270.71 F1198.
N113 X102.577 Y338.166 Z45.672 F1198.
N114 Y338.879 Z45.069 F1198.
N115 X102.969 F1198.
N116 Y338.166 Z45.672 F1198.
N117 X102.999 Y71.917 Z270.71 F1198.
N118 Y71.204 Z271.313 F1198.
N119 X103.391 F1198.
N120 Y71.917 Z270.711 F1198.
N121 X103.361 Y338.166 Z45.671 F1198.
N122 Y338.879 Z45.069 F1198.
N123 X103.752 F1198.
N124 Y338.166 Z45.672 F1198.
N125 X103.782 Y71.917 Z270.71 F1198.
N126 Y71.204 Z271.313 F1198.
N127 X104.174 Y71.205 Z271.312 F1198.
N128 Y71.918 Z270.71 F1198.
N129 X104.144 Y338.165 Z45.672 F1198.
N130 Y338.878 Z45.069 F1198.
N131 X104.536 Y338.877 Z45.07 F1198.
N132 Y338.164 Z45.673 F1198.
N133 X104.566 Y71.919 Z270.709 F1198.
N134 Y71.206 Z271.312 F1198.
N135 X104.958 Z271.311 F1198.
N136 Y71.919 Z270.708 F1198.
N137 X104.928 Y338.164 Z45.673 F1198.
N138 Y338.877 Z45.071 F1198.
N139 X105.319 Y338.876 F1198.
N140 Y338.163 Z45.674 F1198.
N141 X105.349 Y71.92 Z270.708 F1198.
N142 Y71.207 Z271.311 F1198.
N143 X105.741 Y71.208 Z271.31 F1198.
N144 Y71.921 Z270.707 F1198.
N145 X105.711 Y338.162 Z45.674 F1198.
N146 Y338.875 Z45.072 F1198.
N147 X106.103 F1198.
N148 Y338.162 Z45.675 F1198.
N149 X106.133 Y71.921 Z270.707 F1198.
N150 Y71.208 Z271.31 F1198.
N151 X106.525 Y71.209 Z271.309 F1198.
N152 Y71.922 Z270.706 F1198.
N153 X106.495 Y338.161 Z45.676 F1198.
N154 Y338.874 Z45.073 F1198.
N155 X106.886 F1198.
N156 Y338.16 Z45.676 F1198.
N157 X106.916 Y71.923 Z270.706 F1198.
N158 Y71.209 Z271.309 F1198.
N159 X107.308 Y71.21 Z271.308 F1198.
N160 Y71.923 Z270.705 F1198.
N161 X107.278 Y338.16 Z45.677 F1198.
N162 Y338.873 Z45.074 F1198.
N163 X107.67 Y338.872 F1198.
N164 Y338.159 Z45.677 F1198.
N165 X107.7 Y71.924 Z270.705 F1198.
N166 Y71.211 Z271.307 F1198.
N167 X108.092 F1198.
N168 Y71.925 Z270.704 F1198.
N169 X108.062 Y338.158 Z45.678 F1198.
N170 Y338.872 Z45.075 F1198.
N171 X108.453 Y338.871 Z45.076 F1198.
N172 Y338.158 Z45.678 F1198.
N173 X108.483 Y71.925 Z270.703 F1198.
N174 Y71.212 Z271.306 F1198.
N175 X108.875 Y71.213 Z271.305 F1198.
N176 Y71.926 Z270.703 F1198.
N177 X108.845 Y338.157 Z45.679 F1198.
N178 Y338.87 Z45.076 F1198.
N179 X109.237 Y338.869 Z45.077 F1198.
N180 Y338.156 Z45.68 F1198.
N181 X109.267 Y71.927 Z270.702 F1198.
N182 Y71.214 Z271.305 F1198.
N183 X109.659 Y71.215 Z271.304 F1198.
N184 Y71.928 Z270.701 F1198.
N185 X109.629 Y338.155 Z45.681 F1198.
N186 Y338.868 Z45.078 F1198.
N187 X110.02 Y338.867 Z45.079 F1198.
N188 Y338.154 Z45.682 F1198.
N189 X110.05 Y71.929 Z270.7 F1198.
N190 Y71.216 Z271.303 F1198.
N191 X110.442 Y71.217 Z271.302 F1198.
N192 X110.412 Y338.866 Z45.08 F1198.
N193 X110.804 Y338.865 Z45.081 F1198.
N194 X110.834 Y71.218 Z271.301 F1198.
N195 X111.113 Y71.219 F1198.
N196 X111.16 Y77.669 Z265.849 F1198.
N197 X111.183 Y82.628 Z261.658 F1198.
N198 X111.197 Y90.065 Z255.371 F1198.
N199 X111.17 Y330.57 Z52.092 F1198.
N200 Z156.092 F1198.
N201 G0 Z328.2
N202 X487.643 Y53.178
N203 Z308.617
N204 G1 Z298.617 F1198.
N205 Y53.276 Z296.36 F1198.
N206 Y53.569 Z294.12 F1198.
N207 Y54.056 Z291.914 F1198.
N208 Y54.733 Z289.759 F1198.
N209 Y55.594 Z287.671 F1198.
N210 Y56.633 Z285.665 F1198.
N211 Y57.842 Z283.757 F1198.
N212 X487.642 Y59.213 Z281.961 F1198.
N213 Y60.734 Z280.291 F1198.
N214 Y62.394 Z278.76 F1198.
N215 X487.64 Y77.669 Z265.849 F1198.
N216 X487.612 Y325.81 Z56.115 F1198.
N217 X487.63 Y330.569 Z52.092 F1198.
N218 X487.687 Y338.864 Z45.082 F1198.
N219 X487.967 Z45.081 F1198.
N220 X487.997 Y71.218 Z271.301 F1198.
N221 X488.389 Y71.217 Z271.302 F1198.
N222 X488.359 Y338.865 Z45.08 F1198.
N223 X488.75 Y338.866 Z45.079 F1198.
N224 Y338.153 Z45.682 F1198.
N225 X488.78 Y71.929 Z270.7 F1198.
N226 Y71.216 Z271.303 F1198.
N227 X489.172 Y71.215 Z271.304 F1198.
N228 Y71.928 Z270.701 F1198.
N229 X489.142 Y338.154 Z45.681 F1198.
N230 Y338.867 Z45.079 F1198.
N231 X489.534 Y338.868 Z45.078 F1198.
N232 Y338.155 Z45.681 F1198.
N233 X489.564 Y71.927 Z270.702 F1198.
N234 Y71.214 Z271.304 F1198.
N235 X489.956 Y71.213 Z271.305 F1198.
N236 Y71.927 Z270.702 F1198.
N237 X489.926 Y338.156 Z45.68 F1198.
N238 Y338.869 Z45.077 F1198.
N239 X490.317 Y338.87 Z45.076 F1198.
N240 Y338.157 Z45.679 F1198.
N241 X490.347 Y71.926 Z270.703 F1198.
N242 Y71.212 Z271.306 F1198.
N243 X490.739 Z271.307 F1198.
N244 Y71.925 Z270.704 F1198.
N245 X490.709 Y338.158 Z45.678 F1198.
N246 Y338.871 Z45.075 F1198.
N247 X491.101 Y338.872 F1198.
N248 Y338.159 Z45.677 F1198.
N249 X491.131 Y71.924 Z270.705 F1198.
N250 Y71.211 Z271.308 F1198.
N251 X491.523 Y71.21 F1198.
N252 Y71.923 Z270.705 F1198.
N253 X491.493 Y338.16 Z45.677 F1198.
N254 Y338.873 Z45.074 F1198.
N255 X491.884 Y338.874 Z45.073 F1198.
N256 Y338.161 Z45.676 F1198.
N257 X491.914 Y71.922 Z270.706 F1198.
N258 Y71.209 Z271.309 F1198.
N259 X492.306 Y71.208 Z271.31 F1198.
N260 Y71.921 Z270.707 F1198.
N261 X492.276 Y338.162 Z45.675 F1198.
N262 Y338.875 Z45.072 F1198.
N263 X492.668 Y338.876 Z45.071 F1198.
N264 Y338.163 Z45.674 F1198.
N265 X492.698 Y71.92 Z270.708 F1198.
N266 Y71.207 Z271.311 F1198.
N267 X493.09 Y71.206 F1198.
N268 Y71.92 Z270.708 F1198.
N269 X493.06 Y338.163 Z45.674 F1198.
N270 Y338.876 Z45.071 F1198.
N271 X493.451 Y338.877 F1198.
N272 Y338.163 Z45.674 F1198.
N273 X493.481 Y71.919 Z270.708 F1198.
N274 Y71.206 Z271.311 F1198.
N275 X493.873 F1198.
N276 Y71.919 Z270.709 F1198.
N277 X493.843 Y338.164 Z45.673 F1198.
N278 Y338.877 Z45.07 F1198.
N279 X494.235 F1198.
N280 Y338.164 Z45.673 F1198.
N281 X494.265 Y71.919 Z270.709 F1198.
N282 Y71.206 Z271.312 F1198.
N283 X494.657 F1198.
N284 Y71.919 Z270.709 F1198.
N285 X494.627 Y338.164 Z45.673 F1198.
N286 Y338.877 Z45.07 F1198.
N287 X495.018 Y338.878 F1198.
N288 Y338.164 Z45.673 F1198.
N289 X495.048 Y71.919 Z270.709 F1198.
N290 Y71.205 Z271.312 F1198.
N291 X495.44 F1198.
N292 Y71.918 Z270.709 F1198.
N293 X495.41 Y338.165 Z45.673 F1198.
N294 Y338.878 Z45.07 F1198.
N295 X495.802 Z45.069 F1198.
N296 Y338.165 Z45.672 F1198.
N297 X495.832 Y71.918 Z270.71 F1198.
N298 Y71.205 Z271.312 F1198.
N299 X496.224 Z271.313 F1198.
N300 Y71.918 Z270.71 F1198.
N301 X496.194 Y338.165 Z45.672 F1198.
N302 Y338.878 Z45.069 F1198.
N303 X496.585 Y338.879 F1198.
N304 Y338.165 Z45.672 F1198.
N305 X496.615 Y71.918 Z270.71 F1198.
N306 Y71.204 Z271.313 F1198.
N307 X497.007 F1198.
N308 Y71.917 Z270.71 F1198.
N309 X496.977 Y338.166 Z45.672 F1198.
N310 Y338.879 Z45.069 F1198.
N311 X497.369 F1198.
N312 Y338.166 Z45.672 F1198.
N313 X497.399 Y71.917 Z270.71 F1198.
N314 Y71.204 Z271.313 F1198.
N315 X497.791 F1198.
N316 Y71.917 Z270.711 F1198.
N317 X497.761 Y338.166 Z45.671 F1198.
N318 Y338.879 Z45.069 F1198.
N319 X498.152 F1198.
N320 Y338.166 Z45.672 F1198.
N321 X498.182 Y71.917 Z270.71 F1198.
N322 Y71.204 Z271.313 F1198.
N323 X498.574 Y71.205 Z271.312 F1198.
N324 Y71.918 Z270.71 F1198.
N325 X498.544 Y338.165 Z45.672 F1198.
N326 Y338.878 Z45.069 F1198.
N327 X498.936 Y338.877 Z45.07 F1198.
N328 Y338.164 Z45.673 F1198.
N329 X498.966 Y71.919 Z270.709 F1198.
N330 Y71.206 Z271.312 F1198.
N331 X499.358 Z271.311 F1198.
N332 Y71.919 Z270.708 F1198.
N333 X499.328 Y338.164 Z45.673 F1198.
N334 Y338.877 Z45.071 F1198.
N335 X499.719 Y338.876 F1198.
N336 Y338.163 Z45.674 F1198.
N337 X499.749 Y71.92 Z270.708 F1198.
N338 Y71.207 Z271.311 F1198.
N339 X500.141 Y71.208 Z271.31 F1198.
N340 Y71.921 Z270.707 F1198.
N341 X500.111 Y338.162 Z45.674 F1198.
N342 Y338.875 Z45.072 F1198.
N343 X500.503 F1198.
N344 Y338.162 Z45.675 F1198.
N345 X500.533 Y71.921 Z270.707 F1198.
N346 Y71.208 Z271.31 F1198.
N347 X500.925 Y71.209 Z271.309 F1198.
N348 Y71.922 Z270.706 F1198.
N349 X500.895 Y338.161 Z45.676 F1198.
N350 Y338.874 Z45.073 F1198.
N351 X501.286 F1198.
N352 Y338.16 Z45.676 F1198.
N353 X501.316 Y71.923 Z270.706 F1198.
N354 Y71.209 Z271.309 F1198.
N355 X501.708 Y71.21 Z271.308 F1198.
N356 Y71.923 Z270.705 F1198.
N357 X501.678 Y338.16 Z45.677 F1198.
N358 Y338.873 Z45.074 F1198.
N359 X502.07 Y338.872 F1198.
N360 Y338.159 Z45.677 F1198.
N361 X502.1 Y71.924 Z270.705 F1198.
N362 Y71.211 Z271.307 F1198.
N363 X502.492 F1198.
N364 Y71.925 Z270.704 F1198.
N365 X502.462 Y338.158 Z45.678 F1198.
N366 Y338.872 Z45.075 F1198.
N367 X502.853 Y338.871 Z45.076 F1198.
N368 Y338.158 Z45.678 F1198.
N369 X502.883 Y71.925 Z270.703 F1198.
N370 Y71.212 Z271.306 F1198.
N371 X503.275 Y71.213 Z271.305 F1198.
N372 Y71.926 Z270.703 F1198.
N373 X503.245 Y338.157 Z45.679 F1198.
N374 Y338.87 Z45.076 F1198.
N375 X503.637 Y338.869 Z45.077 F1198.
N376 Y338.156 Z45.68 F1198.
N377 X503.667 Y71.927 Z270.702 F1198.
N378 Y71.214 Z271.305 F1198.
N379 X504.059 Y71.215 Z271.304 F1198.
N380 Y71.928 Z270.701 F1198.
N381 X504.029 Y338.155 Z45.681 F1198.
N382 Y338.868 Z45.078 F1198.
N383 X504.42 Y338.867 Z45.079 F1198.
N384 Y338.154 Z45.682 F1198.
N385 X504.45 Y71.929 Z270.7 F1198.
N386 Y71.216 Z271.303 F1198.
N387 X504.842 Y71.217 Z271.302 F1198.
N388 X504.812 Y338.866 Z45.08 F1198.
N389 X505.204 Y338.865 Z45.081 F1198.
N390 X505.234 Y71.218 Z271.301 F1198.
N391 X505.513 Y71.219 F1198.
N392 X505.56 Y77.669 Z265.849 F1198.
N393 X505.583 Y82.628 Z261.658 F1198.
N394 X505.597 Y90.065 Z255.371 F1198.
N395 X505.57 Y330.57 Z52.092 F1198.
N396 Z156.092 F1198.
N397 G0 Z328.2
N398 M1
;(****************************************************************)  
;      END OPERATION: FIXED_CONTOUR
;(****************************************************************) 
 
;(****************************************************************)
;    START OPERATION: FIXED_CONTOUR_COPY
;     TYPE OPERATION: Fixed-axis Surface Contouring
;(****************************************************************)
N399 G0 X647.581 Y-26.422 D1
N400 Z328.2
N401 Z274.193
N402 G1 X595.581 F1198.
N403 X4.602 F1198.
N404 X-.915 Y-26.401 Z274.219 F1198.
N405 Y-25.977 Z274.72 F1198.
N406 X.915 F1198.
N407 X600.915 F1198.
N408 Y-25.499 Z275.285 F1198.
N409 X599.994 F1198.
N410 X.002 F1198.
N411 X-.915 F1198.
N412 Y-25.021 Z275.851 F1198.
N413 X.002 F1198.
N414 X599.994 F1198.
N415 X600.915 F1198.
N416 Y-24.543 Z276.416 F1198.
N417 X599.994 F1198.
N418 X.002 F1198.
N419 X-.915 F1198.
N420 Y-24.065 Z276.982 F1198.
N421 X.002 F1198.
N422 X599.994 F1198.
N423 X600.915 F1198.
N424 Y-23.587 Z277.547 F1198.
N425 X599.994 F1198.
N426 X.002 F1198.
N427 X-.915 F1198.
N428 Y-23.109 Z278.113 F1198.
N429 X.915 F1198.
N430 X600.915 F1198.
N431 Y-22.686 Z278.614 F1198.
N432 X598.075 Y-22.674 Z278.628 F1198.
N433 X588.098 Z278.666 F1198.
N434 X578.12 Z278.678 F1198.
N435 X21.88 F1198.
N436 X11.902 Z278.666 F1198.
N437 X2.062 Z278.628 F1198.
N438 X-49.937 Z278.425 F1198.
N439 G0 Z328.2
N440 M1
;(****************************************************************)  
;      END OPERATION: FIXED_CONTOUR_COPY
;(****************************************************************) 
 
N441 M5 M9
N442 T0 M6
N443 M30

(================================================================)
(TOTAL MACHINE TIME: 32.58 MIN)
(================================================================)
(END PROGRAMM UGOLNIK#2_UST1 MM)
