;           PROGRAMM: UGOLNIK#2_UST2_1
;(****************************************************************)
;          PART NAME: D:\!Work\Programs\NX\UGOLNIK#2\UGOLNIK#2.prt
;            VERSION: C:\Program Files\Siemens\NX 12.0\mach\resource\postprocessor\TMT_Sinumerik_828D_0.16\TMT_Sinumerik_828D_0.16.def
;      Creation Date: Mon Sep  9 10:00:01 2019
;(****************************************************************)
;      POSTPROCESSOR: TMT Sinumerik 828D 3-x axes (version 0.16 created Mon Sep  9 10:00:01 2019)
;(****************************************************************)
N1 G40 G17 G90
N2 G54
;(****************************************************************)
;    START OPERATION: FIXED_CONTOUR_1
;     TYPE OPERATION: Fixed-axis Surface Contouring
;(****************************************************************)
N3 T="FR 52" M6
;(****************************************************************)
; TOOL PARAMETRS: NUMBER: 0 NAME:  MILL_D52 D = 52.00mm  L = 105.00mm
; R = 0.8mm
;(****************************************************************)
N4 S1996 M3
N5 G0 X-47.255 Y474.88 D1
N6 Z268.139 M8
N7 Z29.017
N8 G3 X-21.255 Y448.88 I26. J0.0 F1198.
N9 G1 X7.345 F1198.
N10 X592.193 F1198.
N11 X601.911 Y448.839 Z29.051 F1198.
N12 X601.913 Y448.645 Z29.215 F1198.
N13 X-1.913 F1198.
N14 X-1.915 Y448.386 Z29.435 F1198.
N15 X601.915 F1198.
N16 X601.917 Y448.126 Z29.654 F1198.
N17 X-1.917 F1198.
N18 X-1.919 Y447.866 Z29.874 F1198.
N19 X601.919 F1198.
N20 X601.92 Y447.606 Z30.094 F1198.
N21 X-1.921 F1198.
N22 X-1.922 Y447.346 Z30.313 F1198.
N23 X.017 F1198.
N24 X599.983 F1198.
N25 X601.922 F1198.
N26 X601.924 Y447.086 Z30.533 F1198.
N27 X599.985 F1198.
N28 X.015 F1198.
N29 X-1.924 F1198.
N30 X-1.926 Y446.826 Z30.753 F1198.
N31 X.013 F1198.
N32 X599.987 F1198.
N33 X601.926 F1198.
N34 X601.928 Y446.566 Z30.972 F1198.
N35 X599.989 F1198.
N36 X.011 F1198.
N37 X-1.928 F1198.
N38 X-1.93 Y446.307 Z31.192 F1198.
N39 X.009 F1198.
N40 X599.991 F1198.
N41 X601.93 F1198.
N42 X601.932 Y446.047 Z31.412 F1198.
N43 X599.993 F1198.
N44 X.007 F1198.
N45 X-1.932 F1198.
N46 X-1.934 Y445.787 Z31.631 F1198.
N47 X.005 F1198.
N48 X599.995 F1198.
N49 X601.934 F1198.
N50 X601.936 Y445.527 Z31.851 F1198.
N51 X599.997 F1198.
N52 X.003 F1198.
N53 X-1.936 F1198.
N54 X-1.938 Y445.267 Z32.071 F1198.
N55 X.001 F1198.
N56 X599.999 F1198.
N57 X601.938 F1198.
N58 X601.94 Y445.007 Z32.29 F1198.
N59 X599.982 F1198.
N60 X.018 F1198.
N61 X-1.94 F1198.
N62 X-1.942 Y444.747 Z32.51 F1198.
N63 X.016 F1198.
N64 X599.984 F1198.
N65 X601.942 F1198.
N66 X601.944 Y444.487 Z32.73 F1198.
N67 X599.986 F1198.
N68 X.014 F1198.
N69 X-1.944 F1198.
N70 X-1.946 Y444.228 Z32.949 F1198.
N71 X.012 F1198.
N72 X599.988 F1198.
N73 X601.946 F1198.
N74 X601.948 Y443.968 Z33.169 F1198.
N75 X599.99 F1198.
N76 X.01 F1198.
N77 X-1.948 F1198.
N78 X-1.95 Y443.708 Z33.389 F1198.
N79 X.008 F1198.
N80 X599.992 F1198.
N81 X601.95 F1198.
N82 X601.952 Y443.448 Z33.608 F1198.
N83 X599.994 F1198.
N84 X.006 F1198.
N85 X-1.952 F1198.
N86 X-1.954 Y443.188 Z33.828 F1198.
N87 X.004 F1198.
N88 X599.996 F1198.
N89 X601.954 F1198.
N90 X601.955 Y442.928 Z34.047 F1198.
N91 X599.998 F1198.
N92 X.002 F1198.
N93 X-1.956 F1198.
N94 X-1.957 Y442.668 Z34.267 F1198.
N95 X0.0 F1198.
N96 X599.999 F1198.
N97 X601.957 F1198.
N98 X601.959 Y442.408 Z34.487 F1198.
N99 X599.983 F1198.
N100 X.017 F1198.
N101 X-1.959 F1198.
N102 X-1.961 Y442.148 Z34.706 F1198.
N103 X.015 F1198.
N104 X599.985 F1198.
N105 X601.961 F1198.
N106 X601.963 Y441.889 Z34.926 F1198.
N107 X599.987 F1198.
N108 X.013 F1198.
N109 X-1.963 F1198.
N110 X-1.965 Y441.629 Z35.146 F1198.
N111 X.012 F1198.
N112 X599.988 F1198.
N113 X601.965 F1198.
N114 X601.966 Y441.369 Z35.365 F1198.
N115 X599.99 F1198.
N116 X.01 F1198.
N117 X-1.966 F1198.
N118 X-1.967 Y441.109 Z35.585 F1198.
N119 X.009 F1198.
N120 X599.991 F1198.
N121 X601.967 F1198.
N122 X601.968 Y440.849 Z35.805 F1198.
N123 X599.992 F1198.
N124 X.008 F1198.
N125 X-1.968 F1198.
N126 X-1.97 Y440.589 Z36.024 F1198.
N127 X.007 F1198.
N128 X599.993 F1198.
N129 X601.97 F1198.
N130 X601.971 Y440.329 Z36.244 F1198.
N131 X599.994 F1198.
N132 X.006 F1198.
N133 X-1.971 F1198.
N134 X-1.972 Y440.069 Z36.464 F1198.
N135 X.004 F1198.
N136 X599.995 F1198.
N137 X601.972 F1198.
N138 X601.973 Y439.81 Z36.683 F1198.
N139 X599.997 F1198.
N140 X.003 F1198.
N141 X-1.973 F1198.
N142 X-1.974 Y439.55 Z36.903 F1198.
N143 X.002 F1198.
N144 X599.998 F1198.
N145 X601.974 F1198.
N146 X601.975 Y439.29 Z37.123 F1198.
N147 X599.999 F1198.
N148 X.001 F1198.
N149 X-1.976 F1198.
N150 X-1.977 Y439.03 Z37.342 F1198.
N151 X.018 F1198.
N152 X599.982 F1198.
N153 X601.977 F1198.
N154 X601.978 Y438.77 Z37.562 F1198.
N155 X599.983 F1198.
N156 X.017 F1198.
N157 X-1.978 F1198.
N158 X-1.979 Y438.51 Z37.782 F1198.
N159 X.016 F1198.
N160 X599.984 F1198.
N161 X601.979 F1198.
N162 X601.98 Y438.25 Z38.001 F1198.
N163 X599.985 F1198.
N164 X.015 F1198.
N165 X-1.98 F1198.
N166 X-1.981 Y437.99 Z38.221 F1198.
N167 X.013 F1198.
N168 X599.986 F1198.
N169 X601.981 F1198.
N170 X601.983 Y437.731 Z38.441 F1198.
N171 X599.988 F1198.
N172 X.012 F1198.
N173 X-1.983 F1198.
N174 X-1.984 Y437.471 Z38.66 F1198.
N175 X.011 F1198.
N176 X599.989 F1198.
N177 X601.984 F1198.
N178 X601.985 Y437.211 Z38.88 F1198.
N179 X599.99 F1198.
N180 X.01 F1198.
N181 X-1.985 F1198.
N182 X-1.986 Y436.951 Z39.1 F1198.
N183 X.009 F1198.
N184 X599.991 F1198.
N185 X601.986 F1198.
N186 X601.987 Y436.691 Z39.319 F1198.
N187 X599.992 F1198.
N188 X.008 F1198.
N189 X-1.987 F1198.
N190 Y436.431 Z39.539 F1198.
N191 X.008 F1198.
N192 X599.992 F1198.
N193 X601.987 F1198.
N194 X601.988 Y436.171 Z39.759 F1198.
N195 X599.993 F1198.
N196 X.007 F1198.
N197 X-1.988 F1198.
N198 Y435.911 Z39.978 F1198.
N199 X.007 F1198.
N200 X599.993 F1198.
N201 X601.988 F1198.
N202 X601.989 Y435.652 Z40.198 F1198.
N203 X599.994 F1198.
N204 X.006 F1198.
N205 X-1.989 F1198.
N206 Y435.392 Z40.417 F1198.
N207 X.006 F1198.
N208 X599.994 F1198.
N209 X601.989 F1198.
N210 Y435.132 Z40.637 F1198.
N211 X599.994 F1198.
N212 X.006 F1198.
N213 X-1.989 F1198.
N214 X-1.99 Y434.872 Z40.857 F1198.
N215 X.005 F1198.
N216 X599.995 F1198.
N217 X601.99 F1198.
N218 Y434.612 Z41.076 F1198.
N219 X599.995 F1198.
N220 X.005 F1198.
N221 X-1.99 F1198.
N222 X-1.991 Y434.352 Z41.296 F1198.
N223 X.004 F1198.
N224 X599.996 F1198.
N225 X601.991 F1198.
N226 Y434.092 Z41.516 F1198.
N227 X599.996 F1198.
N228 X.004 F1198.
N229 X-1.991 F1198.
N230 Y433.832 Z41.735 F1198.
N231 X.004 F1198.
N232 X599.996 F1198.
N233 X601.991 F1198.
N234 X601.992 Y433.572 Z41.955 F1198.
N235 X599.997 F1198.
N236 X.003 F1198.
N237 X-1.992 F1198.
N238 Y433.313 Z42.175 F1198.
N239 X.003 F1198.
N240 X599.997 F1198.
N241 X601.992 F1198.
N242 X601.993 Y433.053 Z42.394 F1198.
N243 X599.998 F1198.
N244 X.002 F1198.
N245 X-1.993 F1198.
N246 Y432.793 Z42.614 F1198.
N247 X.002 F1198.
N248 X599.998 F1198.
N249 X601.993 F1198.
N250 Y432.533 Z42.834 F1198.
N251 X599.998 F1198.
N252 X.002 F1198.
N253 X-1.993 F1198.
N254 X-1.994 Y432.273 Z43.053 F1198.
N255 X.001 F1198.
N256 X599.999 F1198.
N257 X601.994 F1198.
N258 Y432.013 Z43.273 F1198.
N259 X599.999 F1198.
N260 X.001 F1198.
N261 X-1.994 F1198.
N262 X-1.995 Y431.753 Z43.493 F1198.
N263 X0.0 F1198.
N264 X600. F1198.
N265 X601.995 F1198.
N266 Y431.493 Z43.712 F1198.
N267 X599.982 F1198.
N268 X0.0 F1198.
N269 X-1.995 F1198.
N270 Y431.234 Z43.932 F1198.
N271 X.018 F1198.
N272 X599.982 F1198.
N273 X601.995 F1198.
N274 X601.996 Y430.974 Z44.152 F1198.
N275 X599.982 F1198.
N276 X.018 F1198.
N277 X-1.996 F1198.
N278 Y430.714 Z44.371 F1198.
N279 X.017 F1198.
N280 X599.983 F1198.
N281 X601.996 F1198.
N282 X601.997 Y430.454 Z44.591 F1198.
N283 X599.983 F1198.
N284 X.017 F1198.
N285 X-1.997 F1198.
N286 Y430.194 Z44.811 F1198.
N287 X.016 F1198.
N288 X599.984 F1198.
N289 X601.997 F1198.
N290 Y429.934 Z45.03 F1198.
N291 X599.984 F1198.
N292 X.016 F1198.
N293 X-1.997 F1198.
N294 X-1.998 Y429.674 Z45.25 F1198.
N295 X.016 F1198.
N296 X599.984 F1198.
N297 X601.998 F1198.
N298 Y429.414 Z45.47 F1198.
N299 X599.985 F1198.
N300 X.015 F1198.
N301 X-1.998 F1198.
N302 Y429.155 Z45.689 F1198.
N303 X.015 F1198.
N304 X599.985 F1198.
N305 X601.998 F1198.
N306 Y428.895 Z45.909 F1198.
N307 X599.985 F1198.
N308 X.015 F1198.
N309 X-1.998 F1198.
N310 Y428.635 Z46.129 F1198.
N311 X.015 F1198.
N312 X599.985 F1198.
N313 X601.998 F1198.
N314 Y428.375 Z46.348 F1198.
N315 X599.985 F1198.
N316 X.015 F1198.
N317 X-1.998 F1198.
N318 Y428.115 Z46.568 F1198.
N319 X.015 F1198.
N320 X599.985 F1198.
N321 X601.998 F1198.
N322 Y427.855 Z46.787 F1198.
N323 X599.985 F1198.
N324 X.015 F1198.
N325 X-1.998 F1198.
N326 Y427.595 Z47.007 F1198.
N327 X.015 F1198.
N328 X599.985 F1198.
N329 X601.998 F1198.
N330 Y427.335 Z47.227 F1198.
N331 X599.985 F1198.
N332 X.015 F1198.
N333 X-1.998 F1198.
N334 Y427.075 Z47.446 F1198.
N335 X.015 F1198.
N336 X599.985 F1198.
N337 X601.998 F1198.
N338 Y426.816 Z47.666 F1198.
N339 X599.985 F1198.
N340 X.015 F1198.
N341 X-1.998 F1198.
N342 Y426.556 Z47.886 F1198.
N343 X.015 F1198.
N344 X599.985 F1198.
N345 X601.998 F1198.
N346 Y426.296 Z48.105 F1198.
N347 X599.985 F1198.
N348 X.015 F1198.
N349 X-1.998 F1198.
N350 Y426.036 Z48.325 F1198.
N351 X.015 F1198.
N352 X599.985 F1198.
N353 X601.998 F1198.
N354 Y425.776 Z48.545 F1198.
N355 X599.985 F1198.
N356 X.015 F1198.
N357 X-1.998 F1198.
N358 Y425.516 Z48.764 F1198.
N359 X.015 F1198.
N360 X599.985 F1198.
N361 X601.998 F1198.
N362 Y425.256 Z48.984 F1198.
N363 X599.985 F1198.
N364 X.015 F1198.
N365 X-1.998 F1198.
N366 Y424.996 Z49.204 F1198.
N367 X.015 F1198.
N368 X599.985 F1198.
N369 X601.998 F1198.
N370 Y424.737 Z49.423 F1198.
N371 X599.985 F1198.
N372 X.015 F1198.
N373 X-1.998 F1198.
N374 Y424.477 Z49.643 F1198.
N375 X.015 F1198.
N376 X599.985 F1198.
N377 X601.998 F1198.
N378 Y424.217 Z49.863 F1198.
N379 X599.985 F1198.
N380 X.015 F1198.
N381 X-1.998 F1198.
N382 Y423.957 Z50.082 F1198.
N383 X.015 F1198.
N384 X599.985 F1198.
N385 X601.998 F1198.
N386 Y423.697 Z50.302 F1198.
N387 X599.985 F1198.
N388 X.015 F1198.
N389 X-1.998 F1198.
N390 Y423.437 Z50.522 F1198.
N391 X.015 F1198.
N392 X599.985 F1198.
N393 X601.998 F1198.
N394 Y423.177 Z50.741 F1198.
N395 X599.985 F1198.
N396 X.015 F1198.
N397 X-1.998 F1198.
N398 Y422.917 Z50.961 F1198.
N399 X.015 F1198.
N400 X599.985 F1198.
N401 X601.998 F1198.
N402 Y422.658 Z51.181 F1198.
N403 X599.985 F1198.
N404 X.015 F1198.
N405 X-1.998 F1198.
N406 Y422.398 Z51.4 F1198.
N407 X.015 F1198.
N408 X599.985 F1198.
N409 X601.998 F1198.
N410 Y422.138 Z51.62 F1198.
N411 X599.985 F1198.
N412 X.015 F1198.
N413 X-1.998 F1198.
N414 Y421.878 Z51.84 F1198.
N415 X.015 F1198.
N416 X599.985 F1198.
N417 X601.998 F1198.
N418 Y421.618 Z52.059 F1198.
N419 X599.985 F1198.
N420 X.015 F1198.
N421 X-1.998 F1198.
N422 Y421.358 Z52.279 F1198.
N423 X.015 F1198.
N424 X599.985 F1198.
N425 X601.998 F1198.
N426 Y421.098 Z52.499 F1198.
N427 X599.985 F1198.
N428 X.015 F1198.
N429 X-1.998 F1198.
N430 Y420.838 Z52.718 F1198.
N431 X.015 F1198.
N432 X599.985 F1198.
N433 X601.998 F1198.
N434 Y420.579 Z52.938 F1198.
N435 X599.985 F1198.
N436 X.015 F1198.
N437 X-1.998 F1198.
N438 Y420.319 Z53.157 F1198.
N439 X.015 F1198.
N440 X599.985 F1198.
N441 X601.998 F1198.
N442 Y420.059 Z53.377 F1198.
N443 X599.985 F1198.
N444 X.015 F1198.
N445 X-1.998 F1198.
N446 Y419.799 Z53.597 F1198.
N447 X.015 F1198.
N448 X599.985 F1198.
N449 X601.998 F1198.
N450 Y419.539 Z53.816 F1198.
N451 X599.985 F1198.
N452 X.015 F1198.
N453 X-1.998 F1198.
N454 Y419.279 Z54.036 F1198.
N455 X.015 F1198.
N456 X599.985 F1198.
N457 X601.998 F1198.
N458 Y419.019 Z54.256 F1198.
N459 X599.985 F1198.
N460 X.015 F1198.
N461 X-1.998 F1198.
N462 Y418.759 Z54.475 F1198.
N463 X.015 F1198.
N464 X599.985 F1198.
N465 X601.998 F1198.
N466 Y418.499 Z54.695 F1198.
N467 X599.985 F1198.
N468 X.015 F1198.
N469 X-1.998 F1198.
N470 Y418.24 Z54.915 F1198.
N471 X.015 F1198.
N472 X599.985 F1198.
N473 X601.998 F1198.
N474 Y417.98 Z55.134 F1198.
N475 X599.985 F1198.
N476 X.015 F1198.
N477 X-1.998 F1198.
N478 Y417.72 Z55.354 F1198.
N479 X.015 F1198.
N480 X599.985 F1198.
N481 X601.998 F1198.
N482 Y417.46 Z55.574 F1198.
N483 X599.985 F1198.
N484 X.015 F1198.
N485 X-1.998 F1198.
N486 Y417.2 Z55.793 F1198.
N487 X.015 F1198.
N488 X599.985 F1198.
N489 X601.998 F1198.
N490 Y416.94 Z56.013 F1198.
N491 X599.985 F1198.
N492 X.015 F1198.
N493 X-1.998 F1198.
N494 Y416.68 Z56.233 F1198.
N495 X.015 F1198.
N496 X599.985 F1198.
N497 X601.998 F1198.
N498 Y416.42 Z56.452 F1198.
N499 X599.985 F1198.
N500 X.015 F1198.
N501 X-1.998 F1198.
N502 Y416.161 Z56.672 F1198.
N503 X.015 F1198.
N504 X599.985 F1198.
N505 X601.998 F1198.
N506 Y415.901 Z56.892 F1198.
N507 X599.985 F1198.
N508 X.015 F1198.
N509 X-1.998 F1198.
N510 Y415.641 Z57.111 F1198.
N511 X.015 F1198.
N512 X599.985 F1198.
N513 X601.998 F1198.
N514 Y415.381 Z57.331 F1198.
N515 X599.985 F1198.
N516 X.015 F1198.
N517 X-1.998 F1198.
N518 Y415.121 Z57.551 F1198.
N519 X.015 F1198.
N520 X599.985 F1198.
N521 X601.998 F1198.
N522 Y414.861 Z57.77 F1198.
N523 X599.985 F1198.
N524 X.015 F1198.
N525 X-1.998 F1198.
N526 Y414.601 Z57.99 F1198.
N527 X.015 F1198.
N528 X599.985 F1198.
N529 X601.998 F1198.
N530 Y414.341 Z58.21 F1198.
N531 X599.985 F1198.
N532 X.015 F1198.
N533 X-1.998 F1198.
N534 Y414.082 Z58.429 F1198.
N535 X.015 F1198.
N536 X599.985 F1198.
N537 X601.998 F1198.
N538 Y413.822 Z58.649 F1198.
N539 X599.985 F1198.
N540 X.015 F1198.
N541 X-1.998 F1198.
N542 Y413.562 Z58.869 F1198.
N543 X.015 F1198.
N544 X599.985 F1198.
N545 X601.998 F1198.
N546 Y413.302 Z59.088 F1198.
N547 X599.985 F1198.
N548 X.015 F1198.
N549 X-1.998 F1198.
N550 Y413.042 Z59.308 F1198.
N551 X.015 F1198.
N552 X599.985 F1198.
N553 X601.998 F1198.
N554 Y412.782 Z59.527 F1198.
N555 X599.985 F1198.
N556 X.015 F1198.
N557 X-1.998 F1198.
N558 Y412.522 Z59.747 F1198.
N559 X.015 F1198.
N560 X599.985 F1198.
N561 X601.998 F1198.
N562 Y412.262 Z59.967 F1198.
N563 X599.985 F1198.
N564 X.015 F1198.
N565 X-1.998 F1198.
N566 Y412.003 Z60.186 F1198.
N567 X.015 F1198.
N568 X599.985 F1198.
N569 X601.998 F1198.
N570 Y411.743 Z60.406 F1198.
N571 X599.985 F1198.
N572 X.015 F1198.
N573 X-1.998 F1198.
N574 Y411.483 Z60.626 F1198.
N575 X.015 F1198.
N576 X599.985 F1198.
N577 X601.998 F1198.
N578 Y411.223 Z60.845 F1198.
N579 X599.985 F1198.
N580 X.015 F1198.
N581 X-1.998 F1198.
N582 Y410.963 Z61.065 F1198.
N583 X.015 F1198.
N584 X599.985 F1198.
N585 X601.998 F1198.
N586 Y410.703 Z61.285 F1198.
N587 X599.985 F1198.
N588 X.015 F1198.
N589 X-1.998 F1198.
N590 Y410.443 Z61.504 F1198.
N591 X.015 F1198.
N592 X599.985 F1198.
N593 X601.998 F1198.
N594 X601.999 Y410.183 Z61.724 F1198.
N595 X599.985 F1198.
N596 X.015 F1198.
N597 X-1.998 F1198.
N598 Y409.923 Z61.944 F1198.
N599 X.015 F1198.
N600 X599.985 F1198.
N601 X601.999 F1198.
N602 Y409.664 Z62.163 F1198.
N603 X599.985 F1198.
N604 X.015 F1198.
N605 X-1.998 F1198.
N606 Y409.404 Z62.383 F1198.
N607 X.015 F1198.
N608 X599.985 F1198.
N609 X601.999 F1198.
N610 Y409.144 Z62.603 F1198.
N611 X599.985 F1198.
N612 X.015 F1198.
N613 X-1.998 F1198.
N614 Y408.884 Z62.822 F1198.
N615 X.015 F1198.
N616 X599.985 F1198.
N617 X601.999 F1198.
N618 Y408.624 Z63.042 F1198.
N619 X599.985 F1198.
N620 X.015 F1198.
N621 X-1.998 F1198.
N622 Y408.364 Z63.262 F1198.
N623 X.015 F1198.
N624 X599.985 F1198.
N625 X601.999 F1198.
N626 Y408.104 Z63.481 F1198.
N627 X599.985 F1198.
N628 X.015 F1198.
N629 X-1.998 F1198.
N630 Y407.844 Z63.701 F1198.
N631 X.015 F1198.
N632 X599.985 F1198.
N633 X601.999 F1198.
N634 Y407.585 Z63.921 F1198.
N635 X599.985 F1198.
N636 X.015 F1198.
N637 X-1.998 F1198.
N638 Y407.325 Z64.14 F1198.
N639 X.015 F1198.
N640 X599.985 F1198.
N641 X601.999 F1198.
N642 Y407.065 Z64.36 F1198.
N643 X599.985 F1198.
N644 X.015 F1198.
N645 X-1.998 F1198.
N646 Y406.805 Z64.58 F1198.
N647 X.015 F1198.
N648 X599.985 F1198.
N649 X601.999 F1198.
N650 Y406.545 Z64.799 F1198.
N651 X599.985 F1198.
N652 X.015 F1198.
N653 X-1.998 F1198.
N654 Y406.285 Z65.019 F1198.
N655 X.015 F1198.
N656 X599.985 F1198.
N657 X601.999 F1198.
N658 Y406.025 Z65.239 F1198.
N659 X599.985 F1198.
N660 X.015 F1198.
N661 X-1.998 F1198.
N662 Y405.765 Z65.458 F1198.
N663 X.015 F1198.
N664 X599.985 F1198.
N665 X601.999 F1198.
N666 Y405.506 Z65.678 F1198.
N667 X599.985 F1198.
N668 X.015 F1198.
N669 X-1.998 F1198.
N670 Y405.246 Z65.897 F1198.
N671 X.015 F1198.
N672 X599.985 F1198.
N673 X601.999 F1198.
N674 Y404.986 Z66.117 F1198.
N675 X599.985 F1198.
N676 X.015 F1198.
N677 X-1.998 F1198.
N678 Y404.726 Z66.337 F1198.
N679 X.015 F1198.
N680 X599.985 F1198.
N681 X601.999 F1198.
N682 Y404.466 Z66.556 F1198.
N683 X599.985 F1198.
N684 X.015 F1198.
N685 X-1.998 F1198.
N686 Y404.206 Z66.776 F1198.
N687 X.015 F1198.
N688 X599.985 F1198.
N689 X601.999 F1198.
N690 Y403.946 Z66.996 F1198.
N691 X599.985 F1198.
N692 X.015 F1198.
N693 X-1.998 F1198.
N694 Y403.686 Z67.215 F1198.
N695 X.015 F1198.
N696 X599.985 F1198.
N697 X601.999 F1198.
N698 Y403.426 Z67.435 F1198.
N699 X599.985 F1198.
N700 X.015 F1198.
N701 X-1.998 F1198.
N702 Y403.167 Z67.655 F1198.
N703 X.015 F1198.
N704 X599.985 F1198.
N705 X601.999 F1198.
N706 Y402.907 Z67.874 F1198.
N707 X599.985 F1198.
N708 X.015 F1198.
N709 X-1.998 F1198.
N710 Y402.647 Z68.094 F1198.
N711 X.015 F1198.
N712 X599.985 F1198.
N713 X601.999 F1198.
N714 Y402.387 Z68.314 F1198.
N715 X599.985 F1198.
N716 X.015 F1198.
N717 X-1.998 F1198.
N718 Y402.127 Z68.533 F1198.
N719 X.015 F1198.
N720 X599.985 F1198.
N721 X601.999 F1198.
N722 Y401.867 Z68.753 F1198.
N723 X599.985 F1198.
N724 X.015 F1198.
N725 X-1.998 F1198.
N726 Y401.607 Z68.973 F1198.
N727 X.015 F1198.
N728 X599.985 F1198.
N729 X601.999 F1198.
N730 Y401.347 Z69.192 F1198.
N731 X599.985 F1198.
N732 X.015 F1198.
N733 X-1.998 F1198.
N734 Y401.088 Z69.412 F1198.
N735 X.015 F1198.
N736 X599.985 F1198.
N737 X601.999 F1198.
N738 Y400.828 Z69.632 F1198.
N739 X599.985 F1198.
N740 X.015 F1198.
N741 X-1.998 F1198.
N742 Y400.568 Z69.851 F1198.
N743 X.015 F1198.
N744 X599.985 F1198.
N745 X601.999 F1198.
N746 Y400.308 Z70.071 F1198.
N747 X599.985 F1198.
N748 X.015 F1198.
N749 X-1.998 F1198.
N750 Y400.048 Z70.291 F1198.
N751 X.015 F1198.
N752 X599.985 F1198.
N753 X601.999 F1198.
N754 Y399.788 Z70.51 F1198.
N755 X599.985 F1198.
N756 X.015 F1198.
N757 X-1.998 F1198.
N758 Y399.528 Z70.73 F1198.
N759 X.015 F1198.
N760 X599.985 F1198.
N761 X601.999 F1198.
N762 Y399.268 Z70.95 F1198.
N763 X599.985 F1198.
N764 X.015 F1198.
N765 X-1.998 F1198.
N766 Y399.009 Z71.169 F1198.
N767 X.015 F1198.
N768 X599.985 F1198.
N769 X601.999 F1198.
N770 Y398.749 Z71.389 F1198.
N771 X599.985 F1198.
N772 X.015 F1198.
N773 X-1.998 F1198.
N774 Y398.489 Z71.609 F1198.
N775 X.015 F1198.
N776 X599.985 F1198.
N777 X601.999 F1198.
N778 Y398.229 Z71.828 F1198.
N779 X599.985 F1198.
N780 X.015 F1198.
N781 X-1.998 F1198.
N782 Y397.969 Z72.048 F1198.
N783 X.015 F1198.
N784 X599.985 F1198.
N785 X601.999 F1198.
N786 Y397.709 Z72.267 F1198.
N787 X599.985 F1198.
N788 X.015 F1198.
N789 X-1.998 F1198.
N790 Y397.449 Z72.487 F1198.
N791 X.015 F1198.
N792 X599.985 F1198.
N793 X601.999 F1198.
N794 Y397.189 Z72.707 F1198.
N795 X599.985 F1198.
N796 X.015 F1198.
N797 X-1.998 F1198.
N798 Y396.93 Z72.926 F1198.
N799 X.015 F1198.
N800 X599.985 F1198.
N801 X601.999 F1198.
N802 Y396.67 Z73.146 F1198.
N803 X599.985 F1198.
N804 X.015 F1198.
N805 X-1.998 F1198.
N806 Y396.41 Z73.366 F1198.
N807 X.015 F1198.
N808 X599.985 F1198.
N809 X601.999 F1198.
N810 Y396.15 Z73.585 F1198.
N811 X599.985 F1198.
N812 X.015 F1198.
N813 X-1.998 F1198.
N814 Y395.89 Z73.805 F1198.
N815 X.015 F1198.
N816 X599.985 F1198.
N817 X601.999 F1198.
N818 Y395.63 Z74.025 F1198.
N819 X599.985 F1198.
N820 X.015 F1198.
N821 X-1.998 F1198.
N822 Y395.37 Z74.244 F1198.
N823 X.015 F1198.
N824 X599.985 F1198.
N825 X601.999 F1198.
N826 Y395.11 Z74.464 F1198.
N827 X599.985 F1198.
N828 X.015 F1198.
N829 X-1.998 F1198.
N830 Y394.85 Z74.684 F1198.
N831 X.015 F1198.
N832 X599.985 F1198.
N833 X601.999 F1198.
N834 Y394.591 Z74.903 F1198.
N835 X599.985 F1198.
N836 X.015 F1198.
N837 X-1.998 F1198.
N838 Y394.331 Z75.123 F1198.
N839 X.015 F1198.
N840 X599.985 F1198.
N841 X601.999 F1198.
N842 Y394.071 Z75.343 F1198.
N843 X599.985 F1198.
N844 X.015 F1198.
N845 X-1.998 F1198.
N846 Y393.811 Z75.562 F1198.
N847 X.015 F1198.
N848 X599.985 F1198.
N849 X601.999 F1198.
N850 Y393.551 Z75.782 F1198.
N851 X599.985 F1198.
N852 X.015 F1198.
N853 X-1.998 F1198.
N854 Y393.291 Z76.002 F1198.
N855 X.015 F1198.
N856 X599.985 F1198.
N857 X601.999 F1198.
N858 Y393.031 Z76.221 F1198.
N859 X599.985 F1198.
N860 X.015 F1198.
N861 X-1.998 F1198.
N862 Y392.771 Z76.441 F1198.
N863 X.015 F1198.
N864 X599.985 F1198.
N865 X601.999 F1198.
N866 Y392.512 Z76.661 F1198.
N867 X599.985 F1198.
N868 X.015 F1198.
N869 X-1.998 F1198.
N870 Y392.252 Z76.88 F1198.
N871 X.015 F1198.
N872 X599.985 F1198.
N873 X601.999 F1198.
N874 Y391.992 Z77.1 F1198.
N875 X599.985 F1198.
N876 X.015 F1198.
N877 X-1.998 F1198.
N878 Y391.732 Z77.32 F1198.
N879 X.015 F1198.
N880 X599.985 F1198.
N881 X601.999 F1198.
N882 Y391.472 Z77.539 F1198.
N883 X599.985 F1198.
N884 X.015 F1198.
N885 X-1.998 F1198.
N886 Y391.212 Z77.759 F1198.
N887 X.015 F1198.
N888 X599.985 F1198.
N889 X601.999 F1198.
N890 Y390.952 Z77.979 F1198.
N891 X599.985 F1198.
N892 X.015 F1198.
N893 X-1.998 F1198.
N894 Y390.692 Z78.198 F1198.
N895 X.015 F1198.
N896 X599.985 F1198.
N897 X601.999 F1198.
N898 Y390.433 Z78.418 F1198.
N899 X599.985 F1198.
N900 X.015 F1198.
N901 X-1.998 F1198.
N902 Y390.173 Z78.637 F1198.
N903 X.015 F1198.
N904 X599.985 F1198.
N905 X601.999 F1198.
N906 Y389.913 Z78.857 F1198.
N907 X599.985 F1198.
N908 X.015 F1198.
N909 X-1.998 F1198.
N910 Y389.653 Z79.077 F1198.
N911 X.015 F1198.
N912 X599.985 F1198.
N913 X601.999 F1198.
N914 Y389.393 Z79.296 F1198.
N915 X599.985 F1198.
N916 X.015 F1198.
N917 X-1.998 F1198.
N918 Y389.133 Z79.516 F1198.
N919 X.015 F1198.
N920 X599.985 F1198.
N921 X601.999 F1198.
N922 Y388.873 Z79.736 F1198.
N923 X599.985 F1198.
N924 X.015 F1198.
N925 X-1.998 F1198.
N926 Y388.613 Z79.955 F1198.
N927 X.015 F1198.
N928 X599.985 F1198.
N929 X601.999 F1198.
N930 Y388.353 Z80.175 F1198.
N931 X599.985 F1198.
N932 X.015 F1198.
N933 X-1.998 F1198.
N934 Y388.094 Z80.395 F1198.
N935 X.015 F1198.
N936 X599.985 F1198.
N937 X601.999 F1198.
N938 Y387.834 Z80.614 F1198.
N939 X599.985 F1198.
N940 X.015 F1198.
N941 X-1.998 F1198.
N942 Y387.574 Z80.834 F1198.
N943 X.015 F1198.
N944 X599.985 F1198.
N945 X601.999 F1198.
N946 Y387.314 Z81.054 F1198.
N947 X599.985 F1198.
N948 X.015 F1198.
N949 X-1.998 F1198.
N950 Y387.054 Z81.273 F1198.
N951 X.015 F1198.
N952 X599.985 F1198.
N953 X601.999 F1198.
N954 Y386.794 Z81.493 F1198.
N955 X599.985 F1198.
N956 X.015 F1198.
N957 X-1.998 F1198.
N958 Y386.534 Z81.713 F1198.
N959 X.015 F1198.
N960 X599.985 F1198.
N961 X601.999 F1198.
N962 Y386.274 Z81.932 F1198.
N963 X599.985 F1198.
N964 X.015 F1198.
N965 X-1.998 F1198.
N966 Y386.015 Z82.152 F1198.
N967 X.015 F1198.
N968 X599.985 F1198.
N969 X601.999 F1198.
N970 Y385.755 Z82.372 F1198.
N971 X599.985 F1198.
N972 X.015 F1198.
N973 X-1.998 F1198.
N974 Y385.495 Z82.591 F1198.
N975 X.015 F1198.
N976 X599.985 F1198.
N977 X601.999 F1198.
N978 Y385.235 Z82.811 F1198.
N979 X599.985 F1198.
N980 X.015 F1198.
N981 X-1.998 F1198.
N982 Y384.975 Z83.031 F1198.
N983 X.015 F1198.
N984 X599.985 F1198.
N985 X601.999 F1198.
N986 Y384.715 Z83.25 F1198.
N987 X599.985 F1198.
N988 X.015 F1198.
N989 X-1.998 F1198.
N990 Y384.455 Z83.47 F1198.
N991 X.015 F1198.
N992 X599.985 F1198.
N993 X601.999 F1198.
N994 Y384.195 Z83.69 F1198.
N995 X599.985 F1198.
N996 X.015 F1198.
N997 X-1.998 F1198.
N998 Y383.936 Z83.909 F1198.
N999 X.015 F1198.
N1000 X599.985 F1198.
N1001 X601.999 F1198.
N1002 Y383.676 Z84.129 F1198.
N1003 X599.985 F1198.
N1004 X.015 F1198.
N1005 X-1.998 F1198.
N1006 Y383.416 Z84.349 F1198.
N1007 X.015 F1198.
N1008 X599.985 F1198.
N1009 X601.999 F1198.
N1010 Y383.156 Z84.568 F1198.
N1011 X599.985 F1198.
N1012 X.015 F1198.
N1013 X-1.998 F1198.
N1014 Y382.896 Z84.788 F1198.
N1015 X.015 F1198.
N1016 X599.985 F1198.
N1017 X601.999 F1198.
N1018 Y382.636 Z85.007 F1198.
N1019 X599.985 Z85.008 F1198.
N1020 X.015 F1198.
N1021 X-1.998 Z85.007 F1198.
N1022 Y382.376 Z85.227 F1198.
N1023 X.015 F1198.
N1024 X599.985 F1198.
N1025 X601.999 F1198.
N1026 Y382.116 Z85.447 F1198.
N1027 X599.985 F1198.
N1028 X.015 F1198.
N1029 X-1.998 F1198.
N1030 Y381.857 Z85.666 F1198.
N1031 X.015 F1198.
N1032 X599.985 F1198.
N1033 X601.999 F1198.
N1034 Y381.597 Z85.886 F1198.
N1035 X599.985 F1198.
N1036 X.015 F1198.
N1037 X-1.998 F1198.
N1038 Y381.337 Z86.106 F1198.
N1039 X.015 F1198.
N1040 X599.985 F1198.
N1041 X601.999 F1198.
N1042 Y381.077 Z86.325 F1198.
N1043 X599.985 F1198.
N1044 X.015 F1198.
N1045 X-1.998 F1198.
N1046 Y380.817 Z86.545 F1198.
N1047 X.015 F1198.
N1048 X599.985 F1198.
N1049 X601.999 F1198.
N1050 Y380.557 Z86.765 F1198.
N1051 X599.985 F1198.
N1052 X.015 F1198.
N1053 X-1.998 F1198.
N1054 Y380.297 Z86.984 F1198.
N1055 X.015 F1198.
N1056 X599.985 F1198.
N1057 X601.999 F1198.
N1058 Y380.037 Z87.204 F1198.
N1059 X599.985 F1198.
N1060 X.015 F1198.
N1061 X-1.998 F1198.
N1062 Y379.777 Z87.424 F1198.
N1063 X.015 F1198.
N1064 X599.985 F1198.
N1065 X601.999 F1198.
N1066 Y379.518 Z87.643 F1198.
N1067 X599.985 F1198.
N1068 X.015 F1198.
N1069 X-1.998 F1198.
N1070 Y379.258 Z87.863 F1198.
N1071 X.015 F1198.
N1072 X599.985 F1198.
N1073 X601.999 F1198.
N1074 Y378.998 Z88.083 F1198.
N1075 X599.985 F1198.
N1076 X.015 F1198.
N1077 X-1.998 F1198.
N1078 Y378.738 Z88.302 F1198.
N1079 X.015 F1198.
N1080 X599.985 F1198.
N1081 X601.999 F1198.
N1082 Y378.478 Z88.522 F1198.
N1083 X599.985 F1198.
N1084 X.015 F1198.
N1085 X-1.998 F1198.
N1086 Y378.218 Z88.742 F1198.
N1087 X.015 F1198.
N1088 X599.985 F1198.
N1089 X601.999 F1198.
N1090 Y377.958 Z88.961 F1198.
N1091 X599.985 F1198.
N1092 X.015 F1198.
N1093 X-1.998 F1198.
N1094 Y377.698 Z89.181 F1198.
N1095 X.015 F1198.
N1096 X599.985 F1198.
N1097 X601.999 F1198.
N1098 Y377.439 Z89.401 F1198.
N1099 X599.985 F1198.
N1100 X.015 F1198.
N1101 X-1.998 F1198.
N1102 Y377.179 Z89.62 F1198.
N1103 X.015 F1198.
N1104 X599.985 F1198.
N1105 X601.999 F1198.
N1106 Y376.919 Z89.84 F1198.
N1107 X599.985 F1198.
N1108 X.015 F1198.
N1109 X-1.998 F1198.
N1110 Y376.659 Z90.06 F1198.
N1111 X.015 F1198.
N1112 X599.985 F1198.
N1113 X601.999 F1198.
N1114 Y376.399 Z90.279 F1198.
N1115 X599.985 F1198.
N1116 X.015 F1198.
N1117 X-1.998 F1198.
N1118 Y376.139 Z90.499 F1198.
N1119 X.015 F1198.
N1120 X599.985 F1198.
N1121 X601.999 F1198.
N1122 Y375.879 Z90.719 F1198.
N1123 X599.985 F1198.
N1124 X.015 F1198.
N1125 X-1.998 F1198.
N1126 Y375.619 Z90.938 F1198.
N1127 X.015 F1198.
N1128 X599.985 F1198.
N1129 X601.999 F1198.
N1130 Y375.36 Z91.158 F1198.
N1131 X599.985 F1198.
N1132 X.015 F1198.
N1133 X-1.998 F1198.
N1134 Y375.1 Z91.378 F1198.
N1135 X.015 F1198.
N1136 X599.985 F1198.
N1137 X601.999 F1198.
N1138 Y374.84 Z91.597 F1198.
N1139 X599.985 F1198.
N1140 X.015 F1198.
N1141 X-1.998 F1198.
N1142 Y374.58 Z91.817 F1198.
N1143 X.015 F1198.
N1144 X599.985 F1198.
N1145 X601.999 F1198.
N1146 Y374.32 Z92.036 F1198.
N1147 X599.985 F1198.
N1148 X.015 F1198.
N1149 X-1.998 F1198.
N1150 Y374.06 Z92.256 F1198.
N1151 X.015 F1198.
N1152 X599.985 F1198.
N1153 X601.999 F1198.
N1154 Y373.8 Z92.476 F1198.
N1155 X599.985 F1198.
N1156 X.015 F1198.
N1157 X-1.998 F1198.
N1158 Y373.54 Z92.695 F1198.
N1159 X.015 F1198.
N1160 X599.985 F1198.
N1161 X601.999 F1198.
N1162 Y373.28 Z92.915 F1198.
N1163 X599.985 F1198.
N1164 X.015 F1198.
N1165 X-1.998 F1198.
N1166 Y373.021 Z93.135 F1198.
N1167 X.015 F1198.
N1168 X599.985 F1198.
N1169 X601.999 F1198.
N1170 Y372.761 Z93.354 F1198.
N1171 X599.985 F1198.
N1172 X.015 F1198.
N1173 X-1.998 F1198.
N1174 Y372.501 Z93.574 F1198.
N1175 X.015 F1198.
N1176 X599.985 F1198.
N1177 X601.999 F1198.
N1178 Y372.241 Z93.794 F1198.
N1179 X599.985 F1198.
N1180 X.015 F1198.
N1181 X-1.998 F1198.
N1182 Y371.981 Z94.013 F1198.
N1183 X.015 F1198.
N1184 X599.985 F1198.
N1185 X601.999 F1198.
N1186 Y371.721 Z94.233 F1198.
N1187 X599.985 F1198.
N1188 X.015 F1198.
N1189 X-1.998 F1198.
N1190 Y371.461 Z94.453 F1198.
N1191 X.016 F1198.
N1192 X599.985 F1198.
N1193 X601.999 F1198.
N1194 Y371.201 Z94.672 F1198.
N1195 X599.985 F1198.
N1196 X.016 F1198.
N1197 X-1.998 F1198.
N1198 Y370.942 Z94.892 F1198.
N1199 X.016 F1198.
N1200 X599.985 F1198.
N1201 X601.999 F1198.
N1202 Y370.682 Z95.112 F1198.
N1203 X599.985 F1198.
N1204 X.016 F1198.
N1205 X-1.998 F1198.
N1206 Y370.422 Z95.331 F1198.
N1207 X.016 F1198.
N1208 X599.985 F1198.
N1209 X601.999 F1198.
N1210 Y370.162 Z95.551 F1198.
N1211 X599.985 F1198.
N1212 X.016 F1198.
N1213 X-1.998 F1198.
N1214 Y369.902 Z95.771 F1198.
N1215 X.016 F1198.
N1216 X599.985 F1198.
N1217 X601.999 F1198.
N1218 Y369.642 Z95.99 F1198.
N1219 X599.985 F1198.
N1220 X.016 F1198.
N1221 X-1.998 F1198.
N1222 Y369.382 Z96.21 F1198.
N1223 X.016 F1198.
N1224 X599.985 F1198.
N1225 X601.999 F1198.
N1226 Y369.122 Z96.43 F1198.
N1227 X599.985 F1198.
N1228 X.016 F1198.
N1229 X-1.998 F1198.
N1230 Y368.863 Z96.649 F1198.
N1231 X.016 F1198.
N1232 X599.985 F1198.
N1233 X601.999 F1198.
N1234 Y368.603 Z96.869 F1198.
N1235 X599.985 F1198.
N1236 X.016 F1198.
N1237 X-1.998 F1198.
N1238 Y368.343 Z97.089 F1198.
N1239 X.016 F1198.
N1240 X599.985 F1198.
N1241 X601.999 F1198.
N1242 Y368.083 Z97.308 F1198.
N1243 X599.985 F1198.
N1244 X.016 F1198.
N1245 X-1.998 F1198.
N1246 Y367.823 Z97.528 F1198.
N1247 X.016 F1198.
N1248 X599.985 F1198.
N1249 X601.999 F1198.
N1250 Y367.563 Z97.748 F1198.
N1251 X599.985 F1198.
N1252 X.016 F1198.
N1253 X-1.998 F1198.
N1254 Y367.303 Z97.967 F1198.
N1255 X.016 F1198.
N1256 X599.985 F1198.
N1257 X601.999 F1198.
N1258 Y367.043 Z98.187 F1198.
N1259 X599.985 F1198.
N1260 X.016 F1198.
N1261 X-1.998 F1198.
N1262 Y366.784 Z98.406 F1198.
N1263 X.016 F1198.
N1264 X599.985 F1198.
N1265 X601.999 F1198.
N1266 Y366.524 Z98.626 F1198.
N1267 X599.985 F1198.
N1268 X.016 F1198.
N1269 X-1.998 F1198.
N1270 Y366.264 Z98.846 F1198.
N1271 X.016 F1198.
N1272 X599.985 F1198.
N1273 X601.999 F1198.
N1274 Y366.004 Z99.065 F1198.
N1275 X599.985 F1198.
N1276 X.016 F1198.
N1277 X-1.998 F1198.
N1278 Y365.744 Z99.285 F1198.
N1279 X.016 F1198.
N1280 X599.985 F1198.
N1281 X601.999 F1198.
N1282 Y365.484 Z99.505 F1198.
N1283 X599.985 F1198.
N1284 X.016 F1198.
N1285 X-1.998 F1198.
N1286 Y365.224 Z99.724 F1198.
N1287 X.016 F1198.
N1288 X599.985 F1198.
N1289 X601.999 F1198.
N1290 Y364.964 Z99.944 F1198.
N1291 X599.985 F1198.
N1292 X.016 F1198.
N1293 X-1.998 F1198.
N1294 Y364.704 Z100.164 F1198.
N1295 X.016 F1198.
N1296 X599.985 F1198.
N1297 X601.999 F1198.
N1298 Y364.445 Z100.383 F1198.
N1299 X599.985 F1198.
N1300 X.016 F1198.
N1301 X-1.998 F1198.
N1302 Y364.185 Z100.603 F1198.
N1303 X.016 F1198.
N1304 X599.985 F1198.
N1305 X601.999 F1198.
N1306 Y363.925 Z100.823 F1198.
N1307 X599.985 F1198.
N1308 X.016 F1198.
N1309 X-1.998 F1198.
N1310 Y363.665 Z101.042 F1198.
N1311 X.016 F1198.
N1312 X599.985 F1198.
N1313 X601.999 F1198.
N1314 Y363.405 Z101.262 F1198.
N1315 X599.985 F1198.
N1316 X.016 F1198.
N1317 X-1.998 F1198.
N1318 Y363.145 Z101.482 F1198.
N1319 X.016 F1198.
N1320 X599.985 F1198.
N1321 X601.999 F1198.
N1322 Y362.885 Z101.701 F1198.
N1323 X599.985 F1198.
N1324 X.016 F1198.
N1325 X-1.998 F1198.
N1326 Y362.625 Z101.921 F1198.
N1327 X.016 F1198.
N1328 X599.985 F1198.
N1329 X601.999 F1198.
N1330 Y362.366 Z102.141 F1198.
N1331 X599.985 F1198.
N1332 X.016 F1198.
N1333 X-1.998 F1198.
N1334 Y362.106 Z102.36 F1198.
N1335 X.016 F1198.
N1336 X599.985 F1198.
N1337 X601.999 F1198.
N1338 Y361.846 Z102.58 F1198.
N1339 X599.985 F1198.
N1340 X.016 F1198.
N1341 X-1.998 F1198.
N1342 Y361.586 Z102.8 F1198.
N1343 X.016 F1198.
N1344 X599.985 F1198.
N1345 X601.999 F1198.
N1346 Y361.326 Z103.019 F1198.
N1347 X599.985 F1198.
N1348 X.016 F1198.
N1349 X-1.998 F1198.
N1350 Y361.066 Z103.239 F1198.
N1351 X.016 F1198.
N1352 X599.985 F1198.
N1353 X601.999 F1198.
N1354 Y360.806 Z103.459 F1198.
N1355 X599.985 F1198.
N1356 X.016 F1198.
N1357 X-1.998 F1198.
N1358 Y360.546 Z103.678 F1198.
N1359 X.016 F1198.
N1360 X599.985 F1198.
N1361 X601.999 F1198.
N1362 Y360.287 Z103.898 F1198.
N1363 X599.985 F1198.
N1364 X.016 F1198.
N1365 X-1.998 F1198.
N1366 Y360.027 Z104.118 F1198.
N1367 X.016 F1198.
N1368 X599.985 F1198.
N1369 X601.999 F1198.
N1370 Y359.767 Z104.337 F1198.
N1371 X599.985 F1198.
N1372 X.016 F1198.
N1373 X-1.998 F1198.
N1374 Y359.507 Z104.557 F1198.
N1375 X.016 F1198.
N1376 X599.985 F1198.
N1377 X601.999 F1198.
N1378 Y359.247 Z104.776 F1198.
N1379 X599.985 F1198.
N1380 X.016 F1198.
N1381 X-1.998 F1198.
N1382 Y358.987 Z104.996 F1198.
N1383 X.016 F1198.
N1384 X599.985 F1198.
N1385 X601.999 F1198.
N1386 Y358.727 Z105.216 F1198.
N1387 X599.985 F1198.
N1388 X.016 F1198.
N1389 X-1.998 F1198.
N1390 Y358.467 Z105.435 F1198.
N1391 X.016 F1198.
N1392 X599.985 F1198.
N1393 X601.999 F1198.
N1394 Y358.208 Z105.655 F1198.
N1395 X599.985 F1198.
N1396 X.016 F1198.
N1397 X-1.998 F1198.
N1398 Y357.948 Z105.875 F1198.
N1399 X.016 F1198.
N1400 X599.985 F1198.
N1401 X601.999 F1198.
N1402 Y357.688 Z106.094 F1198.
N1403 X599.985 F1198.
N1404 X.016 F1198.
N1405 X-1.998 F1198.
N1406 Y357.428 Z106.314 F1198.
N1407 X.016 F1198.
N1408 X599.986 F1198.
N1409 X601.999 F1198.
N1410 Y357.168 Z106.534 F1198.
N1411 X599.986 F1198.
N1412 X.016 F1198.
N1413 X-1.998 F1198.
N1414 Y356.908 Z106.753 F1198.
N1415 X.016 F1198.
N1416 X599.986 F1198.
N1417 X601.999 F1198.
N1418 Y356.648 Z106.973 F1198.
N1419 X599.986 F1198.
N1420 X.016 F1198.
N1421 X-1.998 F1198.
N1422 Y356.388 Z107.193 F1198.
N1423 X.016 F1198.
N1424 X599.986 F1198.
N1425 X601.999 F1198.
N1426 Y356.128 Z107.412 F1198.
N1427 X599.986 F1198.
N1428 X.016 F1198.
N1429 X-1.998 F1198.
N1430 Y355.869 Z107.632 F1198.
N1431 X.016 F1198.
N1432 X599.986 F1198.
N1433 X601.999 F1198.
N1434 Y355.609 Z107.852 F1198.
N1435 X599.986 F1198.
N1436 X.016 F1198.
N1437 X-1.998 F1198.
N1438 Y355.349 Z108.071 F1198.
N1439 X.016 F1198.
N1440 X599.986 F1198.
N1441 X601.999 F1198.
N1442 Y355.089 Z108.291 F1198.
N1443 X599.986 F1198.
N1444 X.016 F1198.
N1445 X-1.998 F1198.
N1446 Y354.829 Z108.511 F1198.
N1447 X.016 F1198.
N1448 X599.986 F1198.
N1449 X601.999 F1198.
N1450 Y354.569 Z108.73 F1198.
N1451 X599.986 F1198.
N1452 X.016 F1198.
N1453 X-1.998 F1198.
N1454 Y354.309 Z108.95 F1198.
N1455 X.016 F1198.
N1456 X599.986 F1198.
N1457 X601.999 F1198.
N1458 Y354.049 Z109.17 F1198.
N1459 X599.986 F1198.
N1460 X.016 F1198.
N1461 X-1.998 F1198.
N1462 Y353.79 Z109.389 F1198.
N1463 X.016 F1198.
N1464 X599.986 F1198.
N1465 X601.999 F1198.
N1466 Y353.53 Z109.609 F1198.
N1467 X599.986 F1198.
N1468 X.016 F1198.
N1469 X-1.998 F1198.
N1470 Y353.27 Z109.829 F1198.
N1471 X.016 F1198.
N1472 X599.986 F1198.
N1473 X601.999 F1198.
N1474 Y353.01 Z110.048 F1198.
N1475 X599.986 F1198.
N1476 X.016 F1198.
N1477 X-1.998 F1198.
N1478 Y352.75 Z110.268 F1198.
N1479 X.016 F1198.
N1480 X599.986 F1198.
N1481 X601.999 F1198.
N1482 Y352.49 Z110.488 F1198.
N1483 X599.986 F1198.
N1484 X.016 F1198.
N1485 X-1.998 F1198.
N1486 Y352.23 Z110.707 F1198.
N1487 X.016 F1198.
N1488 X599.986 F1198.
N1489 X601.999 F1198.
N1490 Y351.97 Z110.927 F1198.
N1491 X599.986 F1198.
N1492 X.016 F1198.
N1493 X-1.998 F1198.
N1494 Y351.711 Z111.146 F1198.
N1495 X.016 F1198.
N1496 X599.986 F1198.
N1497 X601.999 F1198.
N1498 Y351.451 Z111.366 F1198.
N1499 X599.986 F1198.
N1500 X.016 F1198.
N1501 X-1.998 F1198.
N1502 Y351.191 Z111.586 F1198.
N1503 X.016 F1198.
N1504 X599.986 F1198.
N1505 X601.999 F1198.
N1506 Y350.931 Z111.805 F1198.
N1507 X599.986 F1198.
N1508 X.016 F1198.
N1509 X-1.998 F1198.
N1510 Y350.671 Z112.025 F1198.
N1511 X.016 F1198.
N1512 X599.986 F1198.
N1513 X601.999 F1198.
N1514 Y350.411 Z112.245 F1198.
N1515 X599.986 F1198.
N1516 X.016 F1198.
N1517 X-1.998 F1198.
N1518 Y350.151 Z112.464 F1198.
N1519 X.016 F1198.
N1520 X599.986 F1198.
N1521 X601.999 F1198.
N1522 Y349.891 Z112.684 F1198.
N1523 X599.986 F1198.
N1524 X.016 F1198.
N1525 X-1.998 F1198.
N1526 Y349.631 Z112.904 F1198.
N1527 X.016 F1198.
N1528 X599.986 F1198.
N1529 X601.999 F1198.
N1530 Y349.372 Z113.123 F1198.
N1531 X599.986 F1198.
N1532 X.016 F1198.
N1533 X-1.998 F1198.
N1534 Y349.112 Z113.343 F1198.
N1535 X.016 F1198.
N1536 X599.986 F1198.
N1537 X601.999 F1198.
N1538 Y348.852 Z113.563 F1198.
N1539 X599.986 F1198.
N1540 X.016 F1198.
N1541 X-1.998 F1198.
N1542 Y348.592 Z113.782 F1198.
N1543 X.016 F1198.
N1544 X599.986 F1198.
N1545 X601.999 F1198.
N1546 Y348.332 Z114.002 F1198.
N1547 X599.986 F1198.
N1548 X.016 F1198.
N1549 X-1.998 F1198.
N1550 Y348.072 Z114.222 F1198.
N1551 X.016 F1198.
N1552 X599.986 F1198.
N1553 X601.999 F1198.
N1554 Y347.812 Z114.441 F1198.
N1555 X599.986 F1198.
N1556 X.016 F1198.
N1557 X-1.998 F1198.
N1558 Y347.552 Z114.661 F1198.
N1559 X.016 F1198.
N1560 X599.986 F1198.
N1561 X601.999 F1198.
N1562 Y347.293 Z114.881 F1198.
N1563 X599.986 F1198.
N1564 X.016 F1198.
N1565 X-1.998 F1198.
N1566 Y347.033 Z115.1 F1198.
N1567 X.016 F1198.
N1568 X599.986 F1198.
N1569 X601.999 F1198.
N1570 Y346.773 Z115.32 F1198.
N1571 X599.986 F1198.
N1572 X.016 F1198.
N1573 X-1.998 F1198.
N1574 Y346.513 Z115.54 F1198.
N1575 X.016 F1198.
N1576 X599.986 F1198.
N1577 X601.999 F1198.
N1578 Y346.253 Z115.759 F1198.
N1579 X599.986 F1198.
N1580 X.016 F1198.
N1581 X-1.998 F1198.
N1582 Y345.993 Z115.979 F1198.
N1583 X.016 F1198.
N1584 X599.986 F1198.
N1585 X601.999 F1198.
N1586 Y345.733 Z116.199 F1198.
N1587 X599.986 F1198.
N1588 X.016 F1198.
N1589 X-1.998 F1198.
N1590 Y345.473 Z116.418 F1198.
N1591 X.016 F1198.
N1592 X599.986 F1198.
N1593 X601.999 F1198.
N1594 Y345.214 Z116.638 F1198.
N1595 X599.986 F1198.
N1596 X.016 F1198.
N1597 X-1.998 F1198.
N1598 Y344.954 Z116.858 F1198.
N1599 X.016 F1198.
N1600 X599.986 F1198.
N1601 X601.999 F1198.
N1602 Y344.694 Z117.077 F1198.
N1603 X599.986 F1198.
N1604 X.016 F1198.
N1605 X-1.998 F1198.
N1606 Y344.434 Z117.297 F1198.
N1607 X.016 F1198.
N1608 X599.986 F1198.
N1609 X601.999 F1198.
N1610 Y344.174 Z117.516 F1198.
N1611 X599.986 F1198.
N1612 X.016 F1198.
N1613 X-1.998 F1198.
N1614 Y343.914 Z117.736 F1198.
N1615 X.016 F1198.
N1616 X599.986 F1198.
N1617 X601.999 F1198.
N1618 Y343.654 Z117.956 F1198.
N1619 X599.986 F1198.
N1620 X.016 F1198.
N1621 X-1.998 F1198.
N1622 Y343.394 Z118.175 F1198.
N1623 X.016 F1198.
N1624 X599.986 F1198.
N1625 X601.999 F1198.
N1626 Y343.135 Z118.395 F1198.
N1627 X599.986 F1198.
N1628 X.016 F1198.
N1629 X-1.998 F1198.
N1630 Y342.875 Z118.615 F1198.
N1631 X.016 F1198.
N1632 X599.986 F1198.
N1633 X601.999 F1198.
N1634 Y342.615 Z118.834 F1198.
N1635 X599.986 F1198.
N1636 X.016 F1198.
N1637 X-1.998 F1198.
N1638 Y342.355 Z119.054 F1198.
N1639 X.016 F1198.
N1640 X599.986 F1198.
N1641 X601.999 F1198.
N1642 Y342.095 Z119.274 F1198.
N1643 X599.986 F1198.
N1644 X.016 F1198.
N1645 X-1.998 F1198.
N1646 Y341.835 Z119.493 F1198.
N1647 X.016 F1198.
N1648 X599.986 F1198.
N1649 X601.999 F1198.
N1650 Y341.575 Z119.713 F1198.
N1651 X599.986 F1198.
N1652 X.016 F1198.
N1653 X-1.998 F1198.
N1654 Y341.315 Z119.933 F1198.
N1655 X.016 F1198.
N1656 X599.986 F1198.
N1657 X601.999 F1198.
N1658 Y341.055 Z120.152 F1198.
N1659 X599.986 F1198.
N1660 X.016 F1198.
N1661 X-1.998 F1198.
N1662 Y340.796 Z120.372 F1198.
N1663 X.016 F1198.
N1664 X599.986 F1198.
N1665 X601.999 F1198.
N1666 Y340.536 Z120.592 F1198.
N1667 X599.986 F1198.
N1668 X.016 F1198.
N1669 X-1.998 F1198.
N1670 Y340.276 Z120.811 F1198.
N1671 X.016 F1198.
N1672 X599.986 F1198.
N1673 X601.999 F1198.
N1674 Y340.016 Z121.031 F1198.
N1675 X599.986 F1198.
N1676 X.016 F1198.
N1677 X-1.998 F1198.
N1678 Y339.756 Z121.251 F1198.
N1679 X.016 F1198.
N1680 X599.986 F1198.
N1681 X601.999 F1198.
N1682 Y339.496 Z121.47 F1198.
N1683 X599.986 F1198.
N1684 X.016 F1198.
N1685 X-1.998 F1198.
N1686 Y339.236 Z121.69 F1198.
N1687 X.016 F1198.
N1688 X599.986 F1198.
N1689 X601.999 F1198.
N1690 Y338.976 Z121.91 F1198.
N1691 X599.986 F1198.
N1692 X.016 F1198.
N1693 X-1.998 F1198.
N1694 Y338.717 Z122.129 F1198.
N1695 X.016 F1198.
N1696 X599.986 F1198.
N1697 X601.999 F1198.
N1698 Y338.457 Z122.349 F1198.
N1699 X599.986 F1198.
N1700 X.016 F1198.
N1701 X-1.998 F1198.
N1702 Y338.197 Z122.569 F1198.
N1703 X.016 F1198.
N1704 X599.986 F1198.
N1705 X601.999 F1198.
N1706 Y337.937 Z122.788 F1198.
N1707 X599.986 F1198.
N1708 X.016 F1198.
N1709 X-1.998 F1198.
N1710 Y337.677 Z123.008 F1198.
N1711 X.016 F1198.
N1712 X599.986 F1198.
N1713 X601.999 F1198.
N1714 Y337.417 Z123.228 F1198.
N1715 X599.986 F1198.
N1716 X.016 F1198.
N1717 X-1.998 F1198.
N1718 Y337.157 Z123.447 F1198.
N1719 X.016 F1198.
N1720 X599.986 F1198.
N1721 X601.999 F1198.
N1722 Y336.897 Z123.667 F1198.
N1723 X599.986 F1198.
N1724 X.016 F1198.
N1725 X-1.998 F1198.
N1726 Y336.638 Z123.886 F1198.
N1727 X.016 F1198.
N1728 X599.986 F1198.
N1729 X601.999 F1198.
N1730 Y336.378 Z124.106 F1198.
N1731 X599.986 F1198.
N1732 X.016 F1198.
N1733 X-1.998 F1198.
N1734 Y336.118 Z124.326 F1198.
N1735 X.016 F1198.
N1736 X599.986 F1198.
N1737 X601.999 F1198.
N1738 Y335.858 Z124.545 F1198.
N1739 X599.986 F1198.
N1740 X.016 F1198.
N1741 X-1.998 F1198.
N1742 Y335.598 Z124.765 F1198.
N1743 X.016 F1198.
N1744 X599.986 F1198.
N1745 X601.999 F1198.
N1746 Y335.338 Z124.985 F1198.
N1747 X599.986 F1198.
N1748 X.016 F1198.
N1749 X-1.998 F1198.
N1750 Y335.078 Z125.204 F1198.
N1751 X.016 F1198.
N1752 X599.986 F1198.
N1753 X601.999 F1198.
N1754 Y334.818 Z125.424 F1198.
N1755 X599.986 F1198.
N1756 X.016 F1198.
N1757 X-1.998 F1198.
N1758 Y334.558 Z125.644 F1198.
N1759 X.016 F1198.
N1760 X599.986 F1198.
N1761 X601.999 F1198.
N1762 Y334.299 Z125.863 F1198.
N1763 X599.986 F1198.
N1764 X.016 F1198.
N1765 X-1.998 F1198.
N1766 Y334.039 Z126.083 F1198.
N1767 X.016 F1198.
N1768 X599.986 F1198.
N1769 X601.999 F1198.
N1770 Y333.779 Z126.303 F1198.
N1771 X599.986 F1198.
N1772 X.016 F1198.
N1773 X-1.998 F1198.
N1774 Y333.519 Z126.522 F1198.
N1775 X.016 F1198.
N1776 X599.986 F1198.
N1777 X601.999 F1198.
N1778 Y333.259 Z126.742 F1198.
N1779 X599.986 F1198.
N1780 X.016 F1198.
N1781 X-1.998 F1198.
N1782 Y332.999 Z126.962 F1198.
N1783 X.016 F1198.
N1784 X599.986 F1198.
N1785 X601.999 F1198.
N1786 Y332.739 Z127.181 F1198.
N1787 X599.986 F1198.
N1788 X.016 F1198.
N1789 X-1.998 F1198.
N1790 Y332.479 Z127.401 F1198.
N1791 X.016 F1198.
N1792 X599.986 F1198.
N1793 X601.999 F1198.
N1794 Y332.22 Z127.621 F1198.
N1795 X599.986 F1198.
N1796 X.016 F1198.
N1797 X-1.998 F1198.
N1798 Y331.96 Z127.84 F1198.
N1799 X.016 F1198.
N1800 X599.986 F1198.
N1801 X601.999 F1198.
N1802 Y331.7 Z128.06 F1198.
N1803 X599.986 F1198.
N1804 X.016 F1198.
N1805 X-1.998 F1198.
N1806 Y331.44 Z128.28 F1198.
N1807 X.016 F1198.
N1808 X599.986 F1198.
N1809 X601.999 F1198.
N1810 Y331.18 Z128.499 F1198.
N1811 X599.986 F1198.
N1812 X.016 F1198.
N1813 X-1.998 F1198.
N1814 Y330.92 Z128.719 F1198.
N1815 X.016 F1198.
N1816 X599.986 F1198.
N1817 X601.999 F1198.
N1818 Y330.66 Z128.939 F1198.
N1819 X599.986 F1198.
N1820 X.016 F1198.
N1821 X-1.998 F1198.
N1822 Y330.4 Z129.158 F1198.
N1823 X.016 F1198.
N1824 X599.986 F1198.
N1825 X601.999 F1198.
N1826 Y330.141 Z129.378 F1198.
N1827 X599.986 F1198.
N1828 X.016 F1198.
N1829 X-1.998 F1198.
N1830 Y329.881 Z129.598 F1198.
N1831 X.016 F1198.
N1832 X599.986 F1198.
N1833 X601.999 F1198.
N1834 Y329.621 Z129.817 F1198.
N1835 X599.986 F1198.
N1836 X.016 F1198.
N1837 X-1.998 F1198.
N1838 Y329.361 Z130.037 F1198.
N1839 X.016 F1198.
N1840 X599.986 F1198.
N1841 X601.999 F1198.
N1842 Y329.101 Z130.256 F1198.
N1843 X599.986 F1198.
N1844 X.016 F1198.
N1845 X-1.998 F1198.
N1846 Y328.841 Z130.476 F1198.
N1847 X.016 F1198.
N1848 X599.986 F1198.
N1849 X601.999 F1198.
N1850 Y328.581 Z130.696 F1198.
N1851 X599.986 F1198.
N1852 X.016 F1198.
N1853 X-1.998 F1198.
N1854 Y328.321 Z130.915 F1198.
N1855 X.016 F1198.
N1856 X599.986 F1198.
N1857 X601.999 F1198.
N1858 Y328.062 Z131.135 F1198.
N1859 X599.986 F1198.
N1860 X.016 F1198.
N1861 X-1.998 F1198.
N1862 Y327.802 Z131.355 F1198.
N1863 X.016 F1198.
N1864 X599.986 F1198.
N1865 X601.999 F1198.
N1866 Y327.542 Z131.574 F1198.
N1867 X599.986 F1198.
N1868 X.016 F1198.
N1869 X-1.998 F1198.
N1870 Y327.282 Z131.794 F1198.
N1871 X.016 F1198.
N1872 X599.986 F1198.
N1873 X601.999 F1198.
N1874 Y327.022 Z132.014 F1198.
N1875 X599.986 F1198.
N1876 X.016 F1198.
N1877 X-1.998 F1198.
N1878 Y326.762 Z132.233 F1198.
N1879 X.016 F1198.
N1880 X599.986 F1198.
N1881 X601.999 F1198.
N1882 Y326.502 Z132.453 F1198.
N1883 X599.986 F1198.
N1884 X.016 F1198.
N1885 X-1.998 F1198.
N1886 Y326.242 Z132.673 F1198.
N1887 X.016 F1198.
N1888 X599.986 F1198.
N1889 X601.999 F1198.
N1890 Y325.982 Z132.892 F1198.
N1891 X599.986 F1198.
N1892 X.016 F1198.
N1893 X-1.998 F1198.
N1894 Y325.723 Z133.112 F1198.
N1895 X.016 F1198.
N1896 X599.986 F1198.
N1897 X601.999 F1198.
N1898 Y325.463 Z133.332 F1198.
N1899 X599.986 F1198.
N1900 X.016 F1198.
N1901 X-1.998 F1198.
N1902 Y325.203 Z133.551 F1198.
N1903 X.016 F1198.
N1904 X599.986 F1198.
N1905 X601.999 F1198.
N1906 Y324.943 Z133.771 F1198.
N1907 X599.986 F1198.
N1908 X.016 F1198.
N1909 X-1.998 F1198.
N1910 Y324.683 Z133.991 F1198.
N1911 X.016 F1198.
N1912 X599.986 F1198.
N1913 X601.999 F1198.
N1914 Y324.423 Z134.21 F1198.
N1915 X599.986 F1198.
N1916 X.016 F1198.
N1917 X-1.998 F1198.
N1918 Y324.163 Z134.43 F1198.
N1919 X.016 F1198.
N1920 X599.986 F1198.
N1921 X601.999 F1198.
N1922 Y323.903 Z134.65 F1198.
N1923 X599.986 F1198.
N1924 X.016 F1198.
N1925 X-1.998 F1198.
N1926 Y323.644 Z134.869 F1198.
N1927 X.016 F1198.
N1928 X599.986 F1198.
N1929 X601.999 F1198.
N1930 Y323.384 Z135.089 F1198.
N1931 X599.986 F1198.
N1932 X.016 F1198.
N1933 X-1.998 F1198.
N1934 Y323.124 Z135.309 F1198.
N1935 X.016 F1198.
N1936 X599.986 F1198.
N1937 X601.999 F1198.
N1938 Y322.864 Z135.528 F1198.
N1939 X599.986 F1198.
N1940 X.016 F1198.
N1941 X-1.998 F1198.
N1942 Y322.604 Z135.748 F1198.
N1943 X.016 F1198.
N1944 X599.986 F1198.
N1945 X601.999 F1198.
N1946 Y322.344 Z135.968 F1198.
N1947 X599.986 F1198.
N1948 X.016 F1198.
N1949 X-1.998 F1198.
N1950 Y322.084 Z136.187 F1198.
N1951 X.016 F1198.
N1952 X599.986 F1198.
N1953 X601.999 F1198.
N1954 Y321.824 Z136.407 F1198.
N1955 X599.986 F1198.
N1956 X.016 F1198.
N1957 X-1.998 F1198.
N1958 Y321.565 Z136.626 F1198.
N1959 X.016 F1198.
N1960 X599.986 F1198.
N1961 X601.999 F1198.
N1962 Y321.305 Z136.846 F1198.
N1963 X599.986 F1198.
N1964 X.016 F1198.
N1965 X-1.998 F1198.
N1966 Y321.045 Z137.066 F1198.
N1967 X.016 F1198.
N1968 X599.986 F1198.
N1969 X601.999 F1198.
N1970 Y320.785 Z137.285 F1198.
N1971 X599.986 F1198.
N1972 X.016 F1198.
N1973 X-1.998 F1198.
N1974 Y320.525 Z137.505 F1198.
N1975 X.016 F1198.
N1976 X599.986 F1198.
N1977 X601.999 F1198.
N1978 Y320.265 Z137.725 F1198.
N1979 X599.986 F1198.
N1980 X.016 F1198.
N1981 X-1.998 F1198.
N1982 Y320.005 Z137.944 F1198.
N1983 X.016 F1198.
N1984 X599.986 F1198.
N1985 X601.999 F1198.
N1986 Y319.745 Z138.164 F1198.
N1987 X599.986 F1198.
N1988 X.016 F1198.
N1989 X-1.998 F1198.
N1990 Y319.486 Z138.384 F1198.
N1991 X.016 F1198.
N1992 X599.986 F1198.
N1993 X601.999 F1198.
N1994 Y319.226 Z138.603 F1198.
N1995 X599.986 F1198.
N1996 X.016 F1198.
N1997 X-1.998 F1198.
N1998 Y318.966 Z138.823 F1198.
N1999 X.016 F1198.
N2000 X599.986 F1198.
N2001 X601.999 F1198.
N2002 Y318.706 Z139.043 F1198.
N2003 X599.986 F1198.
N2004 X.016 F1198.
N2005 X-1.998 F1198.
N2006 Y318.446 Z139.262 F1198.
N2007 X.016 F1198.
N2008 X599.986 F1198.
N2009 X601.999 F1198.
N2010 Y318.186 Z139.482 F1198.
N2011 X599.986 F1198.
N2012 X.016 F1198.
N2013 X-1.998 F1198.
N2014 Y317.926 Z139.702 F1198.
N2015 X.016 F1198.
N2016 X599.986 F1198.
N2017 X601.999 F1198.
N2018 Y317.666 Z139.921 F1198.
N2019 X599.986 F1198.
N2020 X.016 F1198.
N2021 X-1.998 F1198.
N2022 Y317.406 Z140.141 F1198.
N2023 X.016 F1198.
N2024 X599.986 F1198.
N2025 X601.999 F1198.
N2026 Y317.147 Z140.361 F1198.
N2027 X599.986 F1198.
N2028 X.016 F1198.
N2029 X-1.998 F1198.
N2030 Y316.887 Z140.58 F1198.
N2031 X.016 F1198.
N2032 X599.986 F1198.
N2033 X601.999 F1198.
N2034 Y316.627 Z140.8 F1198.
N2035 X599.986 F1198.
N2036 X.016 F1198.
N2037 X-1.998 F1198.
N2038 Y316.367 Z141.02 F1198.
N2039 X.016 F1198.
N2040 X599.986 F1198.
N2041 X601.999 F1198.
N2042 Y316.107 Z141.239 F1198.
N2043 X599.986 F1198.
N2044 X.016 F1198.
N2045 X-1.998 F1198.
N2046 Y315.847 Z141.459 F1198.
N2047 X.016 F1198.
N2048 X599.986 F1198.
N2049 X601.999 F1198.
N2050 Y315.587 Z141.679 F1198.
N2051 X599.986 F1198.
N2052 X.016 F1198.
N2053 X-1.998 F1198.
N2054 Y315.327 Z141.898 F1198.
N2055 X.016 F1198.
N2056 X599.986 F1198.
N2057 X601.999 F1198.
N2058 Y315.068 Z142.118 F1198.
N2059 X599.986 F1198.
N2060 X.016 F1198.
N2061 X-1.998 F1198.
N2062 Y314.808 Z142.338 F1198.
N2063 X.016 F1198.
N2064 X599.986 F1198.
N2065 X601.999 F1198.
N2066 Y314.548 Z142.557 F1198.
N2067 X599.986 F1198.
N2068 X.016 F1198.
N2069 X-1.998 F1198.
N2070 Y314.288 Z142.777 F1198.
N2071 X.016 F1198.
N2072 X599.986 F1198.
N2073 X601.999 F1198.
N2074 Y314.028 Z142.996 F1198.
N2075 X599.986 F1198.
N2076 X.016 F1198.
N2077 X-1.998 F1198.
N2078 Y313.768 Z143.216 F1198.
N2079 X.016 F1198.
N2080 X599.986 F1198.
N2081 X601.999 F1198.
N2082 Y313.508 Z143.436 F1198.
N2083 X599.986 F1198.
N2084 X.016 F1198.
N2085 X-1.998 F1198.
N2086 Y313.248 Z143.655 F1198.
N2087 X.016 F1198.
N2088 X599.986 F1198.
N2089 X601.999 F1198.
N2090 Y312.989 Z143.875 F1198.
N2091 X599.986 F1198.
N2092 X.016 F1198.
N2093 X-1.998 F1198.
N2094 Y312.729 Z144.095 F1198.
N2095 X.016 F1198.
N2096 X599.986 F1198.
N2097 X601.999 F1198.
N2098 Y312.469 Z144.314 F1198.
N2099 X599.986 F1198.
N2100 X.016 F1198.
N2101 X-1.998 F1198.
N2102 Y312.209 Z144.534 F1198.
N2103 X.016 F1198.
N2104 X599.986 F1198.
N2105 X601.999 F1198.
N2106 Y311.949 Z144.754 F1198.
N2107 X599.986 F1198.
N2108 X.016 F1198.
N2109 X-1.998 F1198.
N2110 Y311.689 Z144.973 F1198.
N2111 X.016 F1198.
N2112 X599.986 F1198.
N2113 X601.999 F1198.
N2114 Y311.429 Z145.193 F1198.
N2115 X599.986 F1198.
N2116 X.016 F1198.
N2117 X-1.998 F1198.
N2118 Y311.169 Z145.413 F1198.
N2119 X.016 F1198.
N2120 X599.986 F1198.
N2121 X601.999 F1198.
N2122 Y310.909 Z145.632 F1198.
N2123 X599.986 F1198.
N2124 X.016 F1198.
N2125 X-1.998 F1198.
N2126 Y310.65 Z145.852 F1198.
N2127 X.016 F1198.
N2128 X599.986 F1198.
N2129 X601.999 F1198.
N2130 Y310.39 Z146.072 F1198.
N2131 X599.986 F1198.
N2132 X.016 F1198.
N2133 X-1.998 F1198.
N2134 Y310.13 Z146.291 F1198.
N2135 X.016 F1198.
N2136 X599.986 F1198.
N2137 X601.999 F1198.
N2138 Y309.87 Z146.511 F1198.
N2139 X599.986 F1198.
N2140 X.016 F1198.
N2141 X-1.998 F1198.
N2142 Y309.61 Z146.731 F1198.
N2143 X.016 F1198.
N2144 X599.986 F1198.
N2145 X601.999 F1198.
N2146 Y309.35 Z146.95 F1198.
N2147 X599.986 F1198.
N2148 X.016 F1198.
N2149 X-1.998 F1198.
N2150 Y309.09 Z147.17 F1198.
N2151 X.016 F1198.
N2152 X599.986 F1198.
N2153 X601.999 F1198.
N2154 Y308.83 Z147.39 F1198.
N2155 X599.986 F1198.
N2156 X.016 F1198.
N2157 X-1.998 F1198.
N2158 Y308.571 Z147.609 F1198.
N2159 X.016 F1198.
N2160 X599.986 F1198.
N2161 X601.999 F1198.
N2162 Y308.311 Z147.829 F1198.
N2163 X599.986 F1198.
N2164 X.016 F1198.
N2165 X-1.998 F1198.
N2166 Y308.051 Z148.049 F1198.
N2167 X.016 F1198.
N2168 X599.986 F1198.
N2169 X601.999 F1198.
N2170 Y307.791 Z148.268 F1198.
N2171 X599.986 F1198.
N2172 X.016 F1198.
N2173 X-1.998 F1198.
N2174 Y307.531 Z148.488 F1198.
N2175 X.016 F1198.
N2176 X599.986 F1198.
N2177 X601.999 F1198.
N2178 Y307.271 Z148.708 F1198.
N2179 X599.986 F1198.
N2180 X.016 F1198.
N2181 X-1.998 F1198.
N2182 Y307.011 Z148.927 F1198.
N2183 X.016 F1198.
N2184 X599.986 F1198.
N2185 X601.999 F1198.
N2186 Y306.751 Z149.147 F1198.
N2187 X599.986 F1198.
N2188 X.016 F1198.
N2189 X-1.998 F1198.
N2190 Y306.492 Z149.366 F1198.
N2191 X.016 F1198.
N2192 X599.986 F1198.
N2193 X601.999 F1198.
N2194 Y306.232 Z149.586 F1198.
N2195 X599.986 F1198.
N2196 X.016 F1198.
N2197 X-1.998 F1198.
N2198 Y305.972 Z149.806 F1198.
N2199 X.016 F1198.
N2200 X599.986 F1198.
N2201 X601.999 F1198.
N2202 Y305.712 Z150.025 F1198.
N2203 X599.986 F1198.
N2204 X.016 F1198.
N2205 X-1.998 F1198.
N2206 Y305.452 Z150.245 F1198.
N2207 X.016 F1198.
N2208 X599.986 F1198.
N2209 X601.999 F1198.
N2210 Y305.192 Z150.465 F1198.
N2211 X599.986 F1198.
N2212 X.016 F1198.
N2213 X-1.998 F1198.
N2214 Y304.932 Z150.684 F1198.
N2215 X.016 F1198.
N2216 X599.986 F1198.
N2217 X601.999 F1198.
N2218 Y304.672 Z150.904 F1198.
N2219 X599.986 F1198.
N2220 X.016 F1198.
N2221 X-1.998 F1198.
N2222 Y304.413 Z151.124 F1198.
N2223 X.016 F1198.
N2224 X599.986 F1198.
N2225 X601.999 F1198.
N2226 Y304.153 Z151.343 F1198.
N2227 X599.986 F1198.
N2228 X.016 F1198.
N2229 X-1.998 F1198.
N2230 Y303.893 Z151.563 F1198.
N2231 X.016 F1198.
N2232 X599.986 F1198.
N2233 X601.999 F1198.
N2234 Y303.633 Z151.783 F1198.
N2235 X599.986 F1198.
N2236 X.016 F1198.
N2237 X-1.998 F1198.
N2238 Y303.373 Z152.002 F1198.
N2239 X.016 F1198.
N2240 X599.986 F1198.
N2241 X601.999 F1198.
N2242 Y303.113 Z152.222 F1198.
N2243 X599.986 F1198.
N2244 X.016 F1198.
N2245 X-1.998 F1198.
N2246 Y302.853 Z152.442 F1198.
N2247 X.016 F1198.
N2248 X599.986 F1198.
N2249 X601.999 F1198.
N2250 Y302.593 Z152.661 F1198.
N2251 X599.986 F1198.
N2252 X.016 F1198.
N2253 X-1.998 F1198.
N2254 Y302.333 Z152.881 F1198.
N2255 X.016 F1198.
N2256 X599.986 F1198.
N2257 X601.999 F1198.
N2258 Y302.074 Z153.101 F1198.
N2259 X599.986 F1198.
N2260 X.016 F1198.
N2261 X-1.998 F1198.
N2262 Y301.814 Z153.32 F1198.
N2263 X.016 F1198.
N2264 X599.986 F1198.
N2265 X601.999 F1198.
N2266 Y301.554 Z153.54 F1198.
N2267 X599.986 F1198.
N2268 X.016 F1198.
N2269 X-1.998 F1198.
N2270 Y301.294 Z153.76 F1198.
N2271 X.016 F1198.
N2272 X599.986 F1198.
N2273 X601.999 F1198.
N2274 Y301.034 Z153.979 F1198.
N2275 X599.986 F1198.
N2276 X.016 F1198.
N2277 X-1.998 F1198.
N2278 Y300.774 Z154.199 F1198.
N2279 X.016 F1198.
N2280 X599.986 F1198.
N2281 X601.999 F1198.
N2282 Y300.514 Z154.419 F1198.
N2283 X599.986 F1198.
N2284 X.016 F1198.
N2285 X-1.998 F1198.
N2286 Y300.254 Z154.638 F1198.
N2287 X.016 F1198.
N2288 X599.986 F1198.
N2289 X601.999 F1198.
N2290 Y299.995 Z154.858 F1198.
N2291 X599.986 F1198.
N2292 X.016 F1198.
N2293 X-1.998 F1198.
N2294 Y299.735 Z155.078 F1198.
N2295 X.016 F1198.
N2296 X599.986 F1198.
N2297 X601.999 F1198.
N2298 Y299.475 Z155.297 F1198.
N2299 X599.986 F1198.
N2300 X.016 F1198.
N2301 X-1.998 F1198.
N2302 Y299.215 Z155.517 F1198.
N2303 X.016 F1198.
N2304 X599.986 F1198.
N2305 X601.999 F1198.
N2306 Y298.955 Z155.737 F1198.
N2307 X599.986 F1198.
N2308 X.016 F1198.
N2309 X-1.998 F1198.
N2310 Y298.695 Z155.956 F1198.
N2311 X.016 F1198.
N2312 X599.986 F1198.
N2313 X601.999 F1198.
N2314 Y298.435 Z156.176 F1198.
N2315 X599.986 F1198.
N2316 X.016 F1198.
N2317 X-1.998 F1198.
N2318 Y298.175 Z156.395 F1198.
N2319 X.016 F1198.
N2320 X599.986 F1198.
N2321 X601.999 F1198.
N2322 Y297.916 Z156.615 F1198.
N2323 X599.986 F1198.
N2324 X.016 F1198.
N2325 X-1.998 F1198.
N2326 Y297.656 Z156.835 F1198.
N2327 X.016 F1198.
N2328 X599.986 F1198.
N2329 X601.999 F1198.
N2330 Y297.396 Z157.054 F1198.
N2331 X599.986 F1198.
N2332 X.016 F1198.
N2333 X-1.998 F1198.
N2334 Y297.136 Z157.274 F1198.
N2335 X.016 F1198.
N2336 X599.986 F1198.
N2337 X601.999 F1198.
N2338 Y296.876 Z157.494 F1198.
N2339 X599.986 F1198.
N2340 X.016 F1198.
N2341 X-1.998 F1198.
N2342 Y296.616 Z157.713 F1198.
N2343 X.016 F1198.
N2344 X599.986 F1198.
N2345 X601.999 F1198.
N2346 Y296.356 Z157.933 F1198.
N2347 X599.986 F1198.
N2348 X.016 F1198.
N2349 X-1.998 F1198.
N2350 Y296.096 Z158.153 F1198.
N2351 X.016 F1198.
N2352 X599.986 F1198.
N2353 X601.999 F1198.
N2354 Y295.836 Z158.372 F1198.
N2355 X599.986 F1198.
N2356 X.016 F1198.
N2357 X-1.998 F1198.
N2358 Y295.577 Z158.592 F1198.
N2359 X.016 F1198.
N2360 X599.986 F1198.
N2361 X601.999 F1198.
N2362 X602. Y295.317 Z158.812 F1198.
N2363 X599.986 F1198.
N2364 X.016 F1198.
N2365 X-1.998 F1198.
N2366 Y295.057 Z159.031 F1198.
N2367 X.016 F1198.
N2368 X599.986 F1198.
N2369 X602. F1198.
N2370 Y294.797 Z159.251 F1198.
N2371 X599.986 F1198.
N2372 X.016 F1198.
N2373 X-1.998 F1198.
N2374 Y294.537 Z159.471 F1198.
N2375 X.016 F1198.
N2376 X599.986 F1198.
N2377 X602. F1198.
N2378 Y294.277 Z159.69 F1198.
N2379 X599.986 F1198.
N2380 X.016 F1198.
N2381 X-1.998 F1198.
N2382 Y294.017 Z159.91 F1198.
N2383 X.016 F1198.
N2384 X599.986 F1198.
N2385 X602. F1198.
N2386 Y293.757 Z160.13 F1198.
N2387 X599.986 F1198.
N2388 X.016 F1198.
N2389 X-1.998 F1198.
N2390 Y293.498 Z160.349 F1198.
N2391 X.016 F1198.
N2392 X599.986 F1198.
N2393 X602. F1198.
N2394 Y293.238 Z160.569 F1198.
N2395 X599.986 F1198.
N2396 X.016 F1198.
N2397 X-1.998 F1198.
N2398 Y292.978 Z160.789 F1198.
N2399 X.016 F1198.
N2400 X599.986 F1198.
N2401 X602. F1198.
N2402 Y292.718 Z161.008 F1198.
N2403 X599.986 F1198.
N2404 X.016 F1198.
N2405 X-1.998 F1198.
N2406 Y292.458 Z161.228 F1198.
N2407 X.016 F1198.
N2408 X599.986 F1198.
N2409 X602. F1198.
N2410 Y292.198 Z161.448 F1198.
N2411 X599.986 F1198.
N2412 X.016 F1198.
N2413 X-1.998 F1198.
N2414 Y291.938 Z161.667 F1198.
N2415 X.016 F1198.
N2416 X599.986 F1198.
N2417 X602. F1198.
N2418 Y291.678 Z161.887 F1198.
N2419 X599.986 F1198.
N2420 X.016 F1198.
N2421 X-1.998 F1198.
N2422 Y291.419 Z162.107 F1198.
N2423 X.016 F1198.
N2424 X599.986 F1198.
N2425 X602. F1198.
N2426 Y291.159 Z162.326 F1198.
N2427 X599.986 F1198.
N2428 X.016 F1198.
N2429 X-1.998 F1198.
N2430 Y290.899 Z162.546 F1198.
N2431 X.016 F1198.
N2432 X599.986 F1198.
N2433 X602. F1198.
N2434 Y290.639 Z162.765 F1198.
N2435 X599.986 F1198.
N2436 X.016 F1198.
N2437 X-1.998 F1198.
N2438 Y290.379 Z162.985 F1198.
N2439 X.016 F1198.
N2440 X599.986 F1198.
N2441 X602. F1198.
N2442 Y290.119 Z163.205 F1198.
N2443 X599.986 F1198.
N2444 X.016 F1198.
N2445 X-1.998 F1198.
N2446 Y289.859 Z163.424 F1198.
N2447 X.016 F1198.
N2448 X599.986 F1198.
N2449 X602. F1198.
N2450 Y289.599 Z163.644 F1198.
N2451 X599.986 F1198.
N2452 X.016 F1198.
N2453 X-1.998 F1198.
N2454 Y289.34 Z163.864 F1198.
N2455 X.016 F1198.
N2456 X599.986 F1198.
N2457 X602. F1198.
N2458 Y289.08 Z164.083 F1198.
N2459 X599.986 F1198.
N2460 X.016 F1198.
N2461 X-1.998 F1198.
N2462 Y288.82 Z164.303 F1198.
N2463 X.016 F1198.
N2464 X599.986 F1198.
N2465 X602. F1198.
N2466 Y288.56 Z164.523 F1198.
N2467 X599.986 F1198.
N2468 X.016 F1198.
N2469 X-1.998 F1198.
N2470 Y288.3 Z164.742 F1198.
N2471 X.016 F1198.
N2472 X599.986 F1198.
N2473 X602. F1198.
N2474 Y288.04 Z164.962 F1198.
N2475 X599.986 F1198.
N2476 X.016 F1198.
N2477 X-1.998 F1198.
N2478 Y287.78 Z165.182 F1198.
N2479 X.016 F1198.
N2480 X599.986 F1198.
N2481 X602. F1198.
N2482 Y287.52 Z165.401 F1198.
N2483 X599.986 F1198.
N2484 X.016 F1198.
N2485 X-1.998 F1198.
N2486 Y287.26 Z165.621 F1198.
N2487 X.016 F1198.
N2488 X599.986 F1198.
N2489 X602. F1198.
N2490 Y287.001 Z165.841 F1198.
N2491 X599.986 F1198.
N2492 X.016 F1198.
N2493 X-1.998 F1198.
N2494 Y286.741 Z166.06 F1198.
N2495 X.016 F1198.
N2496 X599.986 F1198.
N2497 X602. F1198.
N2498 Y286.481 Z166.28 F1198.
N2499 X599.986 F1198.
N2500 X.016 F1198.
N2501 X-1.998 F1198.
N2502 Y286.221 Z166.5 F1198.
N2503 X.016 F1198.
N2504 X599.986 F1198.
N2505 X602. F1198.
N2506 Y285.961 Z166.719 F1198.
N2507 X599.986 F1198.
N2508 X.016 F1198.
N2509 X-1.998 F1198.
N2510 Y285.701 Z166.939 F1198.
N2511 X.016 F1198.
N2512 X599.986 F1198.
N2513 X602. F1198.
N2514 Y285.441 Z167.159 F1198.
N2515 X599.986 F1198.
N2516 X.016 F1198.
N2517 X-1.998 F1198.
N2518 Y285.181 Z167.378 F1198.
N2519 X.016 F1198.
N2520 X599.986 F1198.
N2521 X602. F1198.
N2522 Y284.922 Z167.598 F1198.
N2523 X599.986 F1198.
N2524 X.016 F1198.
N2525 X-1.998 F1198.
N2526 Y284.662 Z167.818 F1198.
N2527 X.016 F1198.
N2528 X599.986 F1198.
N2529 X602. F1198.
N2530 Y284.402 Z168.037 F1198.
N2531 X599.986 F1198.
N2532 X.016 F1198.
N2533 X-1.998 F1198.
N2534 Y284.142 Z168.257 F1198.
N2535 X.016 F1198.
N2536 X599.986 F1198.
N2537 X602. F1198.
N2538 Y283.882 Z168.477 F1198.
N2539 X599.986 F1198.
N2540 X.016 F1198.
N2541 X-1.998 F1198.
N2542 Y283.622 Z168.696 F1198.
N2543 X.016 F1198.
N2544 X599.986 F1198.
N2545 X602. F1198.
N2546 Y283.362 Z168.916 F1198.
N2547 X599.986 F1198.
N2548 X.016 F1198.
N2549 X-1.998 F1198.
N2550 Y283.102 Z169.135 F1198.
N2551 X.016 F1198.
N2552 X599.986 F1198.
N2553 X602. F1198.
N2554 Y282.843 Z169.355 F1198.
N2555 X599.986 F1198.
N2556 X.016 F1198.
N2557 X-1.998 F1198.
N2558 Y282.583 Z169.575 F1198.
N2559 X.016 F1198.
N2560 X599.986 F1198.
N2561 X602. F1198.
N2562 Y282.323 Z169.794 F1198.
N2563 X599.986 F1198.
N2564 X.016 F1198.
N2565 X-1.997 F1198.
N2566 Y282.063 Z170.014 F1198.
N2567 X.016 F1198.
N2568 X599.986 F1198.
N2569 X602. F1198.
N2570 Y281.803 Z170.234 F1198.
N2571 X599.986 F1198.
N2572 X.016 F1198.
N2573 X-1.997 F1198.
N2574 Y281.543 Z170.453 F1198.
N2575 X.016 F1198.
N2576 X599.986 F1198.
N2577 X602. F1198.
N2578 Y281.283 Z170.673 F1198.
N2579 X599.986 F1198.
N2580 X.016 F1198.
N2581 X-1.997 F1198.
N2582 Y281.023 Z170.893 F1198.
N2583 X.016 F1198.
N2584 X599.986 F1198.
N2585 X602. F1198.
N2586 Y280.763 Z171.112 F1198.
N2587 X599.986 F1198.
N2588 X.016 F1198.
N2589 X-1.997 F1198.
N2590 Y280.504 Z171.332 F1198.
N2591 X.016 F1198.
N2592 X599.986 F1198.
N2593 X602. F1198.
N2594 Y280.244 Z171.552 F1198.
N2595 X599.986 F1198.
N2596 X.016 F1198.
N2597 X-1.997 F1198.
N2598 Y279.984 Z171.771 F1198.
N2599 X.016 F1198.
N2600 X599.986 F1198.
N2601 X602. F1198.
N2602 Y279.724 Z171.991 F1198.
N2603 X599.986 F1198.
N2604 X.016 F1198.
N2605 X-1.997 F1198.
N2606 Y279.464 Z172.211 F1198.
N2607 X.016 F1198.
N2608 X599.986 F1198.
N2609 X602. F1198.
N2610 Y279.204 Z172.43 F1198.
N2611 X599.986 F1198.
N2612 X.016 F1198.
N2613 X-1.997 F1198.
N2614 Y278.944 Z172.65 F1198.
N2615 X.016 F1198.
N2616 X599.986 F1198.
N2617 X602. F1198.
N2618 Y278.684 Z172.87 F1198.
N2619 X599.986 F1198.
N2620 X.016 F1198.
N2621 X-1.997 F1198.
N2622 Y278.425 Z173.089 F1198.
N2623 X.016 F1198.
N2624 X599.986 F1198.
N2625 X602. F1198.
N2626 Y278.165 Z173.309 F1198.
N2627 X599.986 F1198.
N2628 X.016 F1198.
N2629 X-1.997 F1198.
N2630 Y277.905 Z173.529 F1198.
N2631 X.016 F1198.
N2632 X599.986 F1198.
N2633 X602. F1198.
N2634 Y277.645 Z173.748 F1198.
N2635 X599.986 F1198.
N2636 X.016 F1198.
N2637 X-1.997 F1198.
N2638 Y277.385 Z173.968 F1198.
N2639 X.016 F1198.
N2640 X599.986 F1198.
N2641 X602. F1198.
N2642 Y277.125 Z174.188 F1198.
N2643 X599.986 F1198.
N2644 X.016 F1198.
N2645 X-1.997 F1198.
N2646 Y276.865 Z174.407 F1198.
N2647 X.016 F1198.
N2648 X599.986 F1198.
N2649 X602. F1198.
N2650 Y276.605 Z174.627 F1198.
N2651 X599.986 F1198.
N2652 X.016 F1198.
N2653 X-1.997 F1198.
N2654 Y276.346 Z174.847 F1198.
N2655 X.016 F1198.
N2656 X599.986 F1198.
N2657 X602. F1198.
N2658 Y276.086 Z175.066 F1198.
N2659 X599.986 F1198.
N2660 X.016 F1198.
N2661 X-1.997 F1198.
N2662 Y275.826 Z175.286 F1198.
N2663 X.016 F1198.
N2664 X599.986 F1198.
N2665 X602. F1198.
N2666 Y275.566 Z175.505 F1198.
N2667 X599.986 F1198.
N2668 X.016 F1198.
N2669 X-1.997 F1198.
N2670 Y275.306 Z175.725 F1198.
N2671 X.016 F1198.
N2672 X599.986 F1198.
N2673 X602. F1198.
N2674 Y275.046 Z175.945 F1198.
N2675 X599.986 F1198.
N2676 X.016 F1198.
N2677 X-1.997 F1198.
N2678 Y274.786 Z176.164 F1198.
N2679 X.016 F1198.
N2680 X599.986 F1198.
N2681 X602. F1198.
N2682 Y274.526 Z176.384 F1198.
N2683 X599.986 F1198.
N2684 X.016 F1198.
N2685 X-1.997 F1198.
N2686 Y274.267 Z176.604 F1198.
N2687 X.016 F1198.
N2688 X599.986 F1198.
N2689 X602. F1198.
N2690 Y274.007 Z176.823 F1198.
N2691 X599.986 F1198.
N2692 X.016 F1198.
N2693 X-1.997 F1198.
N2694 Y273.747 Z177.043 F1198.
N2695 X.016 F1198.
N2696 X599.986 F1198.
N2697 X602. F1198.
N2698 Y273.487 Z177.263 F1198.
N2699 X599.986 F1198.
N2700 X.016 F1198.
N2701 X-1.997 F1198.
N2702 Y273.227 Z177.482 F1198.
N2703 X.016 F1198.
N2704 X599.986 F1198.
N2705 X602. F1198.
N2706 Y272.967 Z177.702 F1198.
N2707 X599.986 F1198.
N2708 X.016 F1198.
N2709 X-1.997 F1198.
N2710 Y272.707 Z177.922 F1198.
N2711 X.016 F1198.
N2712 X599.986 F1198.
N2713 X602. F1198.
N2714 Y272.447 Z178.141 F1198.
N2715 X599.986 F1198.
N2716 X.016 F1198.
N2717 X-1.997 F1198.
N2718 Y272.187 Z178.361 F1198.
N2719 X.016 F1198.
N2720 X599.986 F1198.
N2721 X602. F1198.
N2722 Y271.928 Z178.581 F1198.
N2723 X599.986 F1198.
N2724 X.016 F1198.
N2725 X-1.997 F1198.
N2726 Y271.668 Z178.8 F1198.
N2727 X.016 F1198.
N2728 X599.986 F1198.
N2729 X602. F1198.
N2730 Y271.408 Z179.02 F1198.
N2731 X599.986 F1198.
N2732 X.016 F1198.
N2733 X-1.997 F1198.
N2734 Y271.148 Z179.24 F1198.
N2735 X.016 F1198.
N2736 X599.986 F1198.
N2737 X602. F1198.
N2738 Y270.888 Z179.459 F1198.
N2739 X599.986 F1198.
N2740 X.016 F1198.
N2741 X-1.997 F1198.
N2742 Y270.628 Z179.679 F1198.
N2743 X.016 F1198.
N2744 X599.986 F1198.
N2745 X602. F1198.
N2746 Y270.368 Z179.899 F1198.
N2747 X599.986 F1198.
N2748 X.016 F1198.
N2749 X-1.997 F1198.
N2750 Y270.108 Z180.118 F1198.
N2751 X.016 F1198.
N2752 X599.986 F1198.
N2753 X602. F1198.
N2754 Y269.849 Z180.338 F1198.
N2755 X599.986 F1198.
N2756 X.016 F1198.
N2757 X-1.997 F1198.
N2758 Y269.589 Z180.558 F1198.
N2759 X.016 F1198.
N2760 X599.986 F1198.
N2761 X602. F1198.
N2762 Y269.329 Z180.777 F1198.
N2763 X599.986 F1198.
N2764 X.016 F1198.
N2765 X-1.997 F1198.
N2766 Y269.069 Z180.997 F1198.
N2767 X.016 F1198.
N2768 X599.986 F1198.
N2769 X602. F1198.
N2770 Y268.809 Z181.217 F1198.
N2771 X599.986 F1198.
N2772 X.016 F1198.
N2773 X-1.997 F1198.
N2774 Y268.549 Z181.436 F1198.
N2775 X.016 F1198.
N2776 X599.986 F1198.
N2777 X602. F1198.
N2778 Y268.289 Z181.656 F1198.
N2779 X599.986 F1198.
N2780 X.016 F1198.
N2781 X-1.997 F1198.
N2782 Y268.029 Z181.875 F1198.
N2783 X.016 F1198.
N2784 X599.986 F1198.
N2785 X602. F1198.
N2786 Y267.77 Z182.095 F1198.
N2787 X599.986 F1198.
N2788 X.016 F1198.
N2789 X-1.997 F1198.
N2790 Y267.51 Z182.315 F1198.
N2791 X.016 F1198.
N2792 X599.986 F1198.
N2793 X602. F1198.
N2794 Y267.25 Z182.534 F1198.
N2795 X599.986 F1198.
N2796 X.016 F1198.
N2797 X-1.997 F1198.
N2798 Y266.99 Z182.754 F1198.
N2799 X.016 F1198.
N2800 X599.986 F1198.
N2801 X602. F1198.
N2802 Y266.73 Z182.974 F1198.
N2803 X599.986 F1198.
N2804 X.016 F1198.
N2805 X-1.997 F1198.
N2806 Y266.47 Z183.193 F1198.
N2807 X.016 F1198.
N2808 X599.986 F1198.
N2809 X602. F1198.
N2810 Y266.21 Z183.413 F1198.
N2811 X599.986 F1198.
N2812 X.016 F1198.
N2813 X-1.997 F1198.
N2814 Y265.95 Z183.633 F1198.
N2815 X.016 F1198.
N2816 X599.986 F1198.
N2817 X602. F1198.
N2818 Y265.691 Z183.852 F1198.
N2819 X599.986 F1198.
N2820 X.016 F1198.
N2821 X-1.997 F1198.
N2822 Y265.431 Z184.072 F1198.
N2823 X.016 F1198.
N2824 X599.986 F1198.
N2825 X602. F1198.
N2826 Y265.171 Z184.292 F1198.
N2827 X599.986 F1198.
N2828 X.016 F1198.
N2829 X-1.997 F1198.
N2830 Y264.911 Z184.511 F1198.
N2831 X.016 F1198.
N2832 X599.986 F1198.
N2833 X602. F1198.
N2834 Y264.651 Z184.731 F1198.
N2835 X599.986 F1198.
N2836 X.016 F1198.
N2837 X-1.997 F1198.
N2838 Y264.391 Z184.951 F1198.
N2839 X.016 F1198.
N2840 X599.986 F1198.
N2841 X602. F1198.
N2842 Y264.131 Z185.17 F1198.
N2843 X599.986 F1198.
N2844 X.016 F1198.
N2845 X-1.997 F1198.
N2846 Y263.871 Z185.39 F1198.
N2847 X.016 F1198.
N2848 X599.986 F1198.
N2849 X602. F1198.
N2850 Y263.611 Z185.61 F1198.
N2851 X599.986 F1198.
N2852 X.016 F1198.
N2853 X-1.997 F1198.
N2854 Y263.352 Z185.829 F1198.
N2855 X.016 F1198.
N2856 X599.986 F1198.
N2857 X602. F1198.
N2858 Y263.092 Z186.049 F1198.
N2859 X599.986 F1198.
N2860 X.016 F1198.
N2861 X-1.997 F1198.
N2862 Y262.832 Z186.269 F1198.
N2863 X.016 F1198.
N2864 X599.986 F1198.
N2865 X602. F1198.
N2866 Y262.572 Z186.488 F1198.
N2867 X599.986 F1198.
N2868 X.016 F1198.
N2869 X-1.997 F1198.
N2870 Y262.312 Z186.708 F1198.
N2871 X.016 F1198.
N2872 X599.986 F1198.
N2873 X602. F1198.
N2874 Y262.052 Z186.928 F1198.
N2875 X599.986 F1198.
N2876 X.016 F1198.
N2877 X-1.997 F1198.
N2878 Y261.792 Z187.147 F1198.
N2879 X.016 F1198.
N2880 X599.986 F1198.
N2881 X602. F1198.
N2882 Y261.532 Z187.367 F1198.
N2883 X599.986 F1198.
N2884 X.016 F1198.
N2885 X-1.997 F1198.
N2886 Y261.273 Z187.587 F1198.
N2887 X.016 F1198.
N2888 X599.986 F1198.
N2889 X602. F1198.
N2890 Y261.013 Z187.806 F1198.
N2891 X599.986 F1198.
N2892 X.016 F1198.
N2893 X-1.997 F1198.
N2894 Y260.753 Z188.026 F1198.
N2895 X.016 F1198.
N2896 X599.986 F1198.
N2897 X602. F1198.
N2898 Y260.493 Z188.245 F1198.
N2899 X599.986 F1198.
N2900 X.016 F1198.
N2901 X-1.997 F1198.
N2902 Y260.233 Z188.465 F1198.
N2903 X.016 F1198.
N2904 X599.986 F1198.
N2905 X602. F1198.
N2906 Y259.973 Z188.685 F1198.
N2907 X599.986 F1198.
N2908 X.016 F1198.
N2909 X-1.997 F1198.
N2910 Y259.713 Z188.904 F1198.
N2911 X.016 F1198.
N2912 X599.986 F1198.
N2913 X602. F1198.
N2914 Y259.453 Z189.124 F1198.
N2915 X599.986 F1198.
N2916 X.016 F1198.
N2917 X-1.997 F1198.
N2918 Y259.194 Z189.344 F1198.
N2919 X.016 F1198.
N2920 X599.986 F1198.
N2921 X602. F1198.
N2922 Y258.934 Z189.563 F1198.
N2923 X599.986 F1198.
N2924 X.016 F1198.
N2925 X-1.997 F1198.
N2926 Y258.674 Z189.783 F1198.
N2927 X.016 F1198.
N2928 X599.986 F1198.
N2929 X602. F1198.
N2930 Y258.414 Z190.003 F1198.
N2931 X599.986 F1198.
N2932 X.016 F1198.
N2933 X-1.997 F1198.
N2934 Y258.154 Z190.222 F1198.
N2935 X.016 F1198.
N2936 X599.986 F1198.
N2937 X602. F1198.
N2938 Y257.894 Z190.442 F1198.
N2939 X599.986 F1198.
N2940 X.016 F1198.
N2941 X-1.997 F1198.
N2942 Y257.634 Z190.662 F1198.
N2943 X.016 F1198.
N2944 X599.986 F1198.
N2945 X602. F1198.
N2946 Y257.374 Z190.881 F1198.
N2947 X599.986 F1198.
N2948 X.016 F1198.
N2949 X-1.997 F1198.
N2950 Y257.114 Z191.101 F1198.
N2951 X.016 F1198.
N2952 X599.986 F1198.
N2953 X602. F1198.
N2954 Y256.855 Z191.321 F1198.
N2955 X599.986 F1198.
N2956 X.016 F1198.
N2957 X-1.997 F1198.
N2958 Y256.595 Z191.54 F1198.
N2959 X.016 F1198.
N2960 X599.986 F1198.
N2961 X602. F1198.
N2962 Y256.335 Z191.76 F1198.
N2963 X599.986 F1198.
N2964 X.016 F1198.
N2965 X-1.997 F1198.
N2966 Y256.075 Z191.98 F1198.
N2967 X.016 F1198.
N2968 X599.986 F1198.
N2969 X602. F1198.
N2970 Y255.815 Z192.199 F1198.
N2971 X599.986 F1198.
N2972 X.016 F1198.
N2973 X-1.997 F1198.
N2974 Y255.555 Z192.419 F1198.
N2975 X.016 F1198.
N2976 X599.986 F1198.
N2977 X602. F1198.
N2978 Y255.295 Z192.639 F1198.
N2979 X599.986 F1198.
N2980 X.016 F1198.
N2981 X-1.997 F1198.
N2982 Y255.035 Z192.858 F1198.
N2983 X.016 F1198.
N2984 X599.986 F1198.
N2985 X602. F1198.
N2986 Y254.776 Z193.078 F1198.
N2987 X599.986 F1198.
N2988 X.016 F1198.
N2989 X-1.997 F1198.
N2990 Y254.516 Z193.298 F1198.
N2991 X.016 F1198.
N2992 X599.986 F1198.
N2993 X602. F1198.
N2994 Y254.256 Z193.517 F1198.
N2995 X599.986 F1198.
N2996 X.016 F1198.
N2997 X-1.997 F1198.
N2998 Y253.996 Z193.737 F1198.
N2999 X.016 F1198.
N3000 X599.986 F1198.
N3001 X602. F1198.
N3002 Y253.736 Z193.957 F1198.
N3003 X599.986 F1198.
N3004 X.016 F1198.
N3005 X-1.997 F1198.
N3006 Y253.476 Z194.176 F1198.
N3007 X.016 F1198.
N3008 X599.986 F1198.
N3009 X602. F1198.
N3010 Y253.216 Z194.396 F1198.
N3011 X599.986 F1198.
N3012 X.016 F1198.
N3013 X-1.997 F1198.
N3014 Y252.956 Z194.615 F1198.
N3015 X.016 F1198.
N3016 X599.986 F1198.
N3017 X602. F1198.
N3018 Y252.697 Z194.835 F1198.
N3019 X599.986 F1198.
N3020 X.016 F1198.
N3021 X-1.997 F1198.
N3022 Y252.437 Z195.055 F1198.
N3023 X.016 F1198.
N3024 X599.986 F1198.
N3025 X602. F1198.
N3026 Y252.177 Z195.274 F1198.
N3027 X599.986 F1198.
N3028 X.016 F1198.
N3029 X-1.997 F1198.
N3030 Y251.917 Z195.494 F1198.
N3031 X.016 F1198.
N3032 X599.986 F1198.
N3033 X602. F1198.
N3034 Y251.657 Z195.714 F1198.
N3035 X599.986 F1198.
N3036 X.016 F1198.
N3037 X-1.997 F1198.
N3038 Y251.397 Z195.933 F1198.
N3039 X.016 F1198.
N3040 X599.986 F1198.
N3041 X602. F1198.
N3042 Y251.137 Z196.153 F1198.
N3043 X599.986 F1198.
N3044 X.016 F1198.
N3045 X-1.997 F1198.
N3046 Y250.877 Z196.373 F1198.
N3047 X.016 F1198.
N3048 X599.986 F1198.
N3049 X602. F1198.
N3050 Y250.618 Z196.592 F1198.
N3051 X599.986 F1198.
N3052 X.016 F1198.
N3053 X-1.997 F1198.
N3054 Y250.358 Z196.812 F1198.
N3055 X.016 F1198.
N3056 X599.986 F1198.
N3057 X602. F1198.
N3058 Y250.098 Z197.032 F1198.
N3059 X599.986 F1198.
N3060 X.016 F1198.
N3061 X-1.997 F1198.
N3062 Y249.838 Z197.251 F1198.
N3063 X.016 F1198.
N3064 X599.986 F1198.
N3065 X602. F1198.
N3066 Y249.578 Z197.471 F1198.
N3067 X599.986 F1198.
N3068 X.016 F1198.
N3069 X-1.997 F1198.
N3070 Y249.318 Z197.691 F1198.
N3071 X.016 F1198.
N3072 X599.986 F1198.
N3073 X602. F1198.
N3074 Y249.058 Z197.91 F1198.
N3075 X599.986 F1198.
N3076 X.016 F1198.
N3077 X-1.997 F1198.
N3078 Y248.798 Z198.13 F1198.
N3079 X.016 F1198.
N3080 X599.986 F1198.
N3081 X602. F1198.
N3082 Y248.538 Z198.35 F1198.
N3083 X599.986 F1198.
N3084 X.016 F1198.
N3085 X-1.997 F1198.
N3086 Y248.279 Z198.569 F1198.
N3087 X.016 F1198.
N3088 X599.986 F1198.
N3089 X602. F1198.
N3090 Y248.019 Z198.789 F1198.
N3091 X599.986 F1198.
N3092 X.016 F1198.
N3093 X-1.997 F1198.
N3094 Y247.759 Z199.009 F1198.
N3095 X.016 F1198.
N3096 X599.986 F1198.
N3097 X602. F1198.
N3098 Y247.499 Z199.228 F1198.
N3099 X599.986 F1198.
N3100 X.016 F1198.
N3101 X-1.997 F1198.
N3102 Y247.239 Z199.448 F1198.
N3103 X.016 F1198.
N3104 X599.986 F1198.
N3105 X602. F1198.
N3106 Y246.979 Z199.668 F1198.
N3107 X599.986 F1198.
N3108 X.016 F1198.
N3109 X-1.997 F1198.
N3110 Y246.719 Z199.887 F1198.
N3111 X.016 F1198.
N3112 X599.986 F1198.
N3113 X602. F1198.
N3114 Y246.459 Z200.107 F1198.
N3115 X599.986 F1198.
N3116 X.016 F1198.
N3117 X-1.997 F1198.
N3118 Y246.2 Z200.327 F1198.
N3119 X.016 F1198.
N3120 X599.986 F1198.
N3121 X602. F1198.
N3122 Y245.94 Z200.546 F1198.
N3123 X599.986 F1198.
N3124 X.016 F1198.
N3125 X-1.997 F1198.
N3126 Y245.68 Z200.766 F1198.
N3127 X.016 F1198.
N3128 X599.986 F1198.
N3129 X602. F1198.
N3130 Y245.42 Z200.985 F1198.
N3131 X599.986 F1198.
N3132 X.016 F1198.
N3133 X-1.997 F1198.
N3134 Y245.16 Z201.205 F1198.
N3135 X.016 F1198.
N3136 X599.986 F1198.
N3137 X602. F1198.
N3138 Y244.9 Z201.425 F1198.
N3139 X599.986 F1198.
N3140 X.016 F1198.
N3141 X-1.997 F1198.
N3142 Y244.64 Z201.644 F1198.
N3143 X.016 F1198.
N3144 X599.986 F1198.
N3145 X602. F1198.
N3146 Y244.38 Z201.864 F1198.
N3147 X599.986 F1198.
N3148 X.016 F1198.
N3149 X-1.997 F1198.
N3150 Y244.121 Z202.084 F1198.
N3151 X.016 F1198.
N3152 X599.986 F1198.
N3153 X602. F1198.
N3154 Y243.861 Z202.303 F1198.
N3155 X599.986 F1198.
N3156 X.016 F1198.
N3157 X-1.997 F1198.
N3158 Y243.601 Z202.523 F1198.
N3159 X.016 F1198.
N3160 X599.986 F1198.
N3161 X601.999 F1198.
N3162 Y243.341 Z202.743 F1198.
N3163 X599.986 F1198.
N3164 X.016 F1198.
N3165 X-1.997 F1198.
N3166 Y243.081 Z202.962 F1198.
N3167 X.016 F1198.
N3168 X599.986 F1198.
N3169 X601.999 F1198.
N3170 Y242.821 Z203.182 F1198.
N3171 X599.986 F1198.
N3172 X.016 F1198.
N3173 X-1.997 F1198.
N3174 Y242.561 Z203.402 F1198.
N3175 X.016 F1198.
N3176 X599.986 F1198.
N3177 X601.999 F1198.
N3178 Y242.301 Z203.621 F1198.
N3179 X599.986 F1198.
N3180 X.016 F1198.
N3181 X-1.997 F1198.
N3182 Y242.041 Z203.841 F1198.
N3183 X.016 F1198.
N3184 X599.986 F1198.
N3185 X601.999 F1198.
N3186 Y241.782 Z204.061 F1198.
N3187 X599.986 F1198.
N3188 X.016 F1198.
N3189 X-1.997 F1198.
N3190 Y241.522 Z204.28 F1198.
N3191 X.016 F1198.
N3192 X599.986 F1198.
N3193 X601.999 F1198.
N3194 Y241.262 Z204.5 F1198.
N3195 X599.985 F1198.
N3196 X.016 F1198.
N3197 X-1.997 F1198.
N3198 Y241.002 Z204.72 F1198.
N3199 X.016 F1198.
N3200 X599.985 F1198.
N3201 X601.999 F1198.
N3202 Y240.742 Z204.939 F1198.
N3203 X599.985 F1198.
N3204 X.016 F1198.
N3205 X-1.997 F1198.
N3206 Y240.482 Z205.159 F1198.
N3207 X.016 F1198.
N3208 X599.985 F1198.
N3209 X601.999 F1198.
N3210 Y240.222 Z205.379 F1198.
N3211 X599.985 F1198.
N3212 X.016 F1198.
N3213 X-1.997 F1198.
N3214 Y239.962 Z205.598 F1198.
N3215 X.016 F1198.
N3216 X599.985 F1198.
N3217 X601.999 F1198.
N3218 Y239.703 Z205.818 F1198.
N3219 X599.985 F1198.
N3220 X.016 F1198.
N3221 X-1.997 F1198.
N3222 Y239.443 Z206.038 F1198.
N3223 X.016 F1198.
N3224 X599.985 F1198.
N3225 X601.999 F1198.
N3226 X601.998 Y239.183 Z206.257 F1198.
N3227 X599.985 F1198.
N3228 X.016 F1198.
N3229 X-1.997 F1198.
N3230 Y238.923 Z206.477 F1198.
N3231 X.016 F1198.
N3232 X599.985 F1198.
N3233 X601.998 F1198.
N3234 Y238.663 Z206.697 F1198.
N3235 X599.985 F1198.
N3236 X.016 F1198.
N3237 X-1.997 F1198.
N3238 Y238.403 Z206.916 F1198.
N3239 X.016 F1198.
N3240 X599.985 F1198.
N3241 X601.998 F1198.
N3242 Y238.143 Z207.136 F1198.
N3243 X599.985 F1198.
N3244 X.016 F1198.
N3245 X-1.997 F1198.
N3246 Y237.883 Z207.355 F1198.
N3247 X.016 F1198.
N3248 X599.985 F1198.
N3249 X601.998 F1198.
N3250 Y237.624 Z207.575 F1198.
N3251 X599.985 F1198.
N3252 X.016 F1198.
N3253 X-1.997 F1198.
N3254 Y237.364 Z207.795 F1198.
N3255 X.016 F1198.
N3256 X599.985 F1198.
N3257 X601.998 F1198.
N3258 Y237.104 Z208.014 F1198.
N3259 X599.985 F1198.
N3260 X.016 F1198.
N3261 X-1.997 F1198.
N3262 Y236.844 Z208.234 F1198.
N3263 X.016 F1198.
N3264 X599.984 F1198.
N3265 X601.998 F1198.
N3266 Y236.584 Z208.454 F1198.
N3267 X599.984 F1198.
N3268 X.016 F1198.
N3269 X-1.997 F1198.
N3270 Y236.324 Z208.673 F1198.
N3271 X.016 F1198.
N3272 X599.984 F1198.
N3273 X601.998 F1198.
N3274 Y236.064 Z208.893 F1198.
N3275 X599.984 F1198.
N3276 X.016 F1198.
N3277 X-1.997 F1198.
N3278 Y235.804 Z209.113 F1198.
N3279 X.016 F1198.
N3280 X599.984 F1198.
N3281 X601.998 F1198.
N3282 Y235.545 Z209.332 F1198.
N3283 X599.984 F1198.
N3284 X.016 F1198.
N3285 X-1.997 F1198.
N3286 Y235.285 Z209.552 F1198.
N3287 X.016 F1198.
N3288 X599.984 F1198.
N3289 X601.998 F1198.
N3290 Y235.025 Z209.772 F1198.
N3291 X599.984 F1198.
N3292 X.016 F1198.
N3293 X-1.997 F1198.
N3294 Y234.765 Z209.991 F1198.
N3295 X.016 F1198.
N3296 X599.984 F1198.
N3297 X601.997 F1198.
N3298 Y234.505 Z210.211 F1198.
N3299 X599.984 F1198.
N3300 X.016 F1198.
N3301 X-1.997 F1198.
N3302 Y234.245 Z210.431 F1198.
N3303 X.016 F1198.
N3304 X599.984 F1198.
N3305 X601.997 F1198.
N3306 Y233.985 Z210.65 F1198.
N3307 X599.984 F1198.
N3308 X.016 F1198.
N3309 X-1.997 F1198.
N3310 Y233.725 Z210.87 F1198.
N3311 X.016 F1198.
N3312 X599.984 F1198.
N3313 X601.997 F1198.
N3314 Y233.465 Z211.09 F1198.
N3315 X599.984 F1198.
N3316 X.016 F1198.
N3317 X-1.997 F1198.
N3318 Y233.206 Z211.309 F1198.
N3319 X.016 F1198.
N3320 X599.984 F1198.
N3321 X601.997 F1198.
N3322 Y232.946 Z211.529 F1198.
N3323 X599.984 F1198.
N3324 X.016 F1198.
N3325 X-1.997 F1198.
N3326 Y232.686 Z211.749 F1198.
N3327 X.016 F1198.
N3328 X599.984 F1198.
N3329 X601.997 F1198.
N3330 Y232.426 Z211.968 F1198.
N3331 X599.983 F1198.
N3332 X.016 F1198.
N3333 X-1.997 F1198.
N3334 Y232.166 Z212.188 F1198.
N3335 X.016 F1198.
N3336 X599.983 F1198.
N3337 X601.997 F1198.
N3338 Y231.906 Z212.408 F1198.
N3339 X599.983 F1198.
N3340 X.016 F1198.
N3341 X-1.997 F1198.
N3342 Y231.646 Z212.627 F1198.
N3343 X.016 F1198.
N3344 X599.983 F1198.
N3345 X601.997 F1198.
N3346 Y231.386 Z212.847 F1198.
N3347 X599.983 F1198.
N3348 X.016 F1198.
N3349 X-1.997 F1198.
N3350 Y231.127 Z213.067 F1198.
N3351 X.016 F1198.
N3352 X599.983 F1198.
N3353 X601.997 F1198.
N3354 Y230.867 Z213.286 F1198.
N3355 X599.983 F1198.
N3356 X.016 F1198.
N3357 X-1.997 F1198.
N3358 Y230.607 Z213.506 F1198.
N3359 X.016 F1198.
N3360 X599.983 F1198.
N3361 X601.997 F1198.
N3362 X601.996 Y230.347 Z213.725 F1198.
N3363 X599.983 F1198.
N3364 X.016 F1198.
N3365 X-1.997 F1198.
N3366 Y230.087 Z213.945 F1198.
N3367 X.016 F1198.
N3368 X599.983 F1198.
N3369 X601.996 F1198.
N3370 Y229.827 Z214.165 F1198.
N3371 X599.983 F1198.
N3372 X.016 F1198.
N3373 X-1.997 F1198.
N3374 Y229.567 Z214.384 F1198.
N3375 X.016 F1198.
N3376 X599.983 F1198.
N3377 X601.996 F1198.
N3378 Y229.307 Z214.604 F1198.
N3379 X599.983 F1198.
N3380 X.016 F1198.
N3381 X-1.997 F1198.
N3382 Y229.048 Z214.824 F1198.
N3383 X.016 F1198.
N3384 X599.983 F1198.
N3385 X601.996 F1198.
N3386 Y228.788 Z215.043 F1198.
N3387 X599.983 F1198.
N3388 X.016 F1198.
N3389 X-1.997 F1198.
N3390 Y228.528 Z215.263 F1198.
N3391 X.016 F1198.
N3392 X599.983 F1198.
N3393 X601.996 F1198.
N3394 Y228.268 Z215.483 F1198.
N3395 X599.983 F1198.
N3396 X.016 F1198.
N3397 X-1.997 F1198.
N3398 Y228.008 Z215.702 F1198.
N3399 X.016 F1198.
N3400 X599.982 F1198.
N3401 X601.996 F1198.
N3402 Y227.748 Z215.922 F1198.
N3403 X599.982 F1198.
N3404 X.016 F1198.
N3405 X-1.997 F1198.
N3406 Y227.488 Z216.142 F1198.
N3407 X.016 F1198.
N3408 X599.982 F1198.
N3409 X601.996 F1198.
N3410 Y227.228 Z216.361 F1198.
N3411 X599.982 F1198.
N3412 X.016 F1198.
N3413 X-1.997 F1198.
N3414 Y226.968 Z216.581 F1198.
N3415 X.016 F1198.
N3416 X599.982 F1198.
N3417 X601.996 F1198.
N3418 Y226.709 Z216.801 F1198.
N3419 X599.982 F1198.
N3420 X.016 F1198.
N3421 X-1.997 F1198.
N3422 Y226.449 Z217.02 F1198.
N3423 X.016 F1198.
N3424 X599.982 F1198.
N3425 X601.996 F1198.
N3426 Y226.189 Z217.24 F1198.
N3427 X599.982 F1198.
N3428 X.016 F1198.
N3429 X-1.997 F1198.
N3430 Y225.929 Z217.46 F1198.
N3431 X.016 F1198.
N3432 X599.982 F1198.
N3433 X601.995 F1198.
N3434 Y225.669 Z217.679 F1198.
N3435 X599.982 F1198.
N3436 X.016 F1198.
N3437 X-1.997 F1198.
N3438 Y225.409 Z217.899 F1198.
N3439 X.016 F1198.
N3440 X599.982 F1198.
N3441 X601.995 F1198.
N3442 Y225.149 Z218.119 F1198.
N3443 X599.982 F1198.
N3444 X.016 F1198.
N3445 X-1.997 F1198.
N3446 Y224.889 Z218.338 F1198.
N3447 X.016 F1198.
N3448 X599.982 F1198.
N3449 X601.995 F1198.
N3450 Y224.63 Z218.558 F1198.
N3451 X599.982 F1198.
N3452 X.016 F1198.
N3453 X-1.997 F1198.
N3454 Y224.37 Z218.778 F1198.
N3455 X.016 F1198.
N3456 X599.982 F1198.
N3457 X601.995 F1198.
N3458 Y224.11 Z218.997 F1198.
N3459 X599.982 F1198.
N3460 X.016 F1198.
N3461 X-1.997 F1198.
N3462 Y223.85 Z219.217 F1198.
N3463 X.016 F1198.
N3464 X600. F1198.
N3465 X601.995 F1198.
N3466 Y223.59 Z219.437 F1198.
N3467 X600. F1198.
N3468 X.016 F1198.
N3469 X-1.997 F1198.
N3470 Y223.33 Z219.656 F1198.
N3471 X.016 F1198.
N3472 X600. F1198.
N3473 X601.995 F1198.
N3474 Y223.07 Z219.876 F1198.
N3475 X600. F1198.
N3476 X.017 F1198.
N3477 X-1.996 F1198.
N3478 Y222.81 Z220.096 F1198.
N3479 X.018 F1198.
N3480 X600. F1198.
N3481 X601.995 F1198.
N3482 Y222.551 Z220.315 F1198.
N3483 X600. F1198.
N3484 X.018 F1198.
N3485 X-1.995 F1198.
N3486 Y222.291 Z220.535 F1198.
N3487 X0.0 F1198.
N3488 X600. F1198.
N3489 X601.995 F1198.
N3490 Y222.031 Z220.754 F1198.
N3491 X600. F1198.
N3492 X.001 F1198.
N3493 X-1.994 F1198.
N3494 Y221.771 Z220.974 F1198.
N3495 X.001 F1198.
N3496 X599.999 F1198.
N3497 X601.995 F1198.
N3498 X601.994 Y221.511 Z221.194 F1198.
N3499 X599.999 F1198.
N3500 X.002 F1198.
N3501 X-1.993 F1198.
N3502 X-1.992 Y221.251 Z221.413 F1198.
N3503 X.003 F1198.
N3504 X599.999 F1198.
N3505 X601.994 F1198.
N3506 Y220.991 Z221.633 F1198.
N3507 X599.999 F1198.
N3508 X.003 F1198.
N3509 X-1.992 F1198.
N3510 X-1.991 Y220.731 Z221.853 F1198.
N3511 X.004 F1198.
N3512 X599.999 F1198.
N3513 X601.994 F1198.
N3514 X601.993 Y220.472 Z222.072 F1198.
N3515 X599.998 F1198.
N3516 X.004 F1198.
N3517 X-1.991 F1198.
N3518 X-1.99 Y220.212 Z222.292 F1198.
N3519 X.005 F1198.
N3520 X599.997 F1198.
N3521 X601.992 F1198.
N3522 Y219.952 Z222.512 F1198.
N3523 X599.997 F1198.
N3524 X.005 F1198.
N3525 X-1.99 F1198.
N3526 X-1.989 Y219.692 Z222.731 F1198.
N3527 X.006 F1198.
N3528 X599.996 F1198.
N3529 X601.991 F1198.
N3530 X601.99 Y219.432 Z222.951 F1198.
N3531 X599.995 F1198.
N3532 X.007 F1198.
N3533 X-1.988 F1198.
N3534 Y219.172 Z223.171 F1198.
N3535 X.007 F1198.
N3536 X599.995 F1198.
N3537 X601.989 F1198.
N3538 Y218.912 Z223.39 F1198.
N3539 X599.994 F1198.
N3540 X.008 F1198.
N3541 X-1.987 F1198.
N3542 Y218.652 Z223.61 F1198.
N3543 X.008 F1198.
N3544 X599.993 F1198.
N3545 X601.988 F1198.
N3546 X601.987 Y218.392 Z223.83 F1198.
N3547 X599.992 F1198.
N3548 X.009 F1198.
N3549 X-1.986 F1198.
N3550 X-1.985 Y218.133 Z224.049 F1198.
N3551 X.009 F1198.
N3552 X599.992 F1198.
N3553 X601.987 F1198.
N3554 X601.986 Y217.873 Z224.269 F1198.
N3555 X599.991 F1198.
N3556 X.01 F1198.
N3557 X-1.985 F1198.
N3558 X-1.984 Y217.613 Z224.489 F1198.
N3559 X.011 F1198.
N3560 X599.99 F1198.
N3561 X601.985 F1198.
N3562 X601.984 Y217.353 Z224.708 F1198.
N3563 X599.99 F1198.
N3564 X.011 F1198.
N3565 X-1.984 F1198.
N3566 X-1.983 Y217.093 Z224.928 F1198.
N3567 X.012 F1198.
N3568 X599.989 F1198.
N3569 X601.984 F1198.
N3570 X601.983 Y216.833 Z225.148 F1198.
N3571 X599.988 F1198.
N3572 X.012 F1198.
N3573 X-1.983 F1198.
N3574 X-1.982 Y216.573 Z225.367 F1198.
N3575 X.013 F1198.
N3576 X599.987 F1198.
N3577 X601.982 F1198.
N3578 Y216.313 Z225.587 F1198.
N3579 X599.987 F1198.
N3580 X.013 F1198.
N3581 X-1.981 F1198.
N3582 Y216.054 Z225.807 F1198.
N3583 X.014 F1198.
N3584 X599.986 F1198.
N3585 X601.981 F1198.
N3586 X601.98 Y215.794 Z226.026 F1198.
N3587 X599.985 F1198.
N3588 X.015 F1198.
N3589 X-1.98 F1198.
N3590 X-1.978 Y215.534 Z226.246 F1198.
N3591 X.017 F1198.
N3592 X599.983 F1198.
N3593 X601.978 F1198.
N3594 X601.977 Y215.274 Z226.466 F1198.
N3595 X599.982 F1198.
N3596 X.018 F1198.
N3597 X-1.977 F1198.
N3598 X-1.975 Y215.014 Z226.685 F1198.
N3599 X.001 F1198.
N3600 X599.999 F1198.
N3601 X601.975 F1198.
N3602 X601.974 Y214.754 Z226.905 F1198.
N3603 X599.997 F1198.
N3604 X.003 F1198.
N3605 X-1.974 F1198.
N3606 X-1.972 Y214.494 Z227.124 F1198.
N3607 X.004 F1198.
N3608 X599.996 F1198.
N3609 X601.972 F1198.
N3610 X601.971 Y214.234 Z227.344 F1198.
N3611 X599.994 F1198.
N3612 X.006 F1198.
N3613 X-1.971 F1198.
N3614 X-1.969 Y213.975 Z227.564 F1198.
N3615 X.007 F1198.
N3616 X599.993 F1198.
N3617 X601.969 F1198.
N3618 X601.968 Y213.715 Z227.783 F1198.
N3619 X599.991 F1198.
N3620 X.009 F1198.
N3621 X-1.968 F1198.
N3622 X-1.966 Y213.455 Z228.003 F1198.
N3623 X.01 F1198.
N3624 X599.99 F1198.
N3625 X601.966 F1198.
N3626 X601.965 Y213.195 Z228.223 F1198.
N3627 X599.988 F1198.
N3628 X.011 F1198.
N3629 X-1.965 F1198.
N3630 X-1.963 Y212.935 Z228.442 F1198.
N3631 X.013 F1198.
N3632 X599.987 F1198.
N3633 X601.963 F1198.
N3634 X601.962 Y212.675 Z228.662 F1198.
N3635 X599.985 F1198.
N3636 X.014 F1198.
N3637 X-1.962 F1198.
N3638 X-1.96 Y212.415 Z228.882 F1198.
N3639 X.016 F1198.
N3640 X599.984 F1198.
N3641 X601.96 F1198.
N3642 X601.959 Y212.155 Z229.101 F1198.
N3643 X599.983 F1198.
N3644 X.017 F1198.
N3645 X-1.959 F1198.
N3646 X-1.958 Y211.896 Z229.321 F1198.
N3647 X0.0 F1198.
N3648 X599.999 F1198.
N3649 X601.957 F1198.
N3650 X601.956 Y211.636 Z229.541 F1198.
N3651 X599.998 F1198.
N3652 X.002 F1198.
N3653 X-1.956 F1198.
N3654 X-1.955 Y211.376 Z229.76 F1198.
N3655 X.003 F1198.
N3656 X599.997 F1198.
N3657 X601.954 F1198.
N3658 X601.953 Y211.116 Z229.98 F1198.
N3659 X599.995 F1198.
N3660 X.005 F1198.
N3661 X-1.953 F1198.
N3662 X-1.951 Y210.856 Z230.2 F1198.
N3663 X.007 F1198.
N3664 X599.993 F1198.
N3665 X601.951 F1198.
N3666 X601.949 Y210.596 Z230.419 F1198.
N3667 X599.991 F1198.
N3668 X.009 F1198.
N3669 X-1.949 F1198.
N3670 X-1.947 Y210.336 Z230.639 F1198.
N3671 X.011 F1198.
N3672 X599.989 F1198.
N3673 X601.947 F1198.
N3674 X601.945 Y210.076 Z230.859 F1198.
N3675 X599.987 F1198.
N3676 X.013 F1198.
N3677 X-1.945 F1198.
N3678 X-1.943 Y209.816 Z231.078 F1198.
N3679 X.015 F1198.
N3680 X599.985 F1198.
N3681 X601.943 F1198.
N3682 X601.941 Y209.557 Z231.298 F1198.
N3683 X599.983 F1198.
N3684 X.017 F1198.
N3685 X-1.941 F1198.
N3686 X-1.939 Y209.297 Z231.518 F1198.
N3687 X0.0 F1198.
N3688 X600. F1198.
N3689 X601.939 F1198.
N3690 X601.937 Y209.037 Z231.737 F1198.
N3691 X599.998 F1198.
N3692 X.002 F1198.
N3693 X-1.937 F1198.
N3694 X-1.935 Y208.777 Z231.957 F1198.
N3695 X.004 F1198.
N3696 X599.996 F1198.
N3697 X601.935 F1198.
N3698 X601.933 Y208.517 Z232.177 F1198.
N3699 X599.994 F1198.
N3700 X.006 F1198.
N3701 X-1.933 F1198.
N3702 X-1.931 Y208.257 Z232.396 F1198.
N3703 X.008 F1198.
N3704 X599.992 F1198.
N3705 X601.931 F1198.
N3706 X601.929 Y207.997 Z232.616 F1198.
N3707 X599.99 F1198.
N3708 X.01 F1198.
N3709 X-1.929 F1198.
N3710 X-1.927 Y207.737 Z232.836 F1198.
N3711 X.012 F1198.
N3712 X599.988 F1198.
N3713 X601.927 F1198.
N3714 X601.925 Y207.478 Z233.055 F1198.
N3715 X599.986 F1198.
N3716 X.014 F1198.
N3717 X-1.925 F1198.
N3718 X-1.923 Y207.218 Z233.275 F1198.
N3719 X.016 F1198.
N3720 X599.984 F1198.
N3721 X601.923 F1198.
N3722 X601.921 Y206.958 Z233.494 F1198.
N3723 X-1.921 F1198.
N3724 X-1.919 Y206.698 Z233.714 F1198.
N3725 X601.919 F1198.
N3726 X601.917 Y206.438 Z233.934 F1198.
N3727 X-1.917 F1198.
N3728 X-1.915 Y206.178 Z234.153 F1198.
N3729 X601.915 F1198.
N3730 X601.913 Y205.918 Z234.373 F1198.
N3731 X-1.913 F1198.
N3732 X-1.911 Y205.724 Z234.537 F1198.
N3733 X7.345 Y205.684 Z234.571 F1198.
N3734 X592.213 F1198.
N3735 Z285.524 F1198.
N3736 M1
;(****************************************************************)  
;      END OPERATION: FIXED_CONTOUR_1
;(****************************************************************) 
 
N3737 M5 M9
N3738 T0 M6
N3739 M30
(================================================================)
(TOTAL MACHINE TIME: 472.99 MIN)
(================================================================)
(END PROGRAMM UGOLNIK#2_UST2_1 MM)
