;           PROGRAMM: UGOLNIK#2_UST2_2
WORKPIECE(,"",,"BOX",64,0,300,-80,0,0,600,500)
;(****************************************************************)
;          PART NAME: D:\!Work\Programs\NX\UGOLNIK#2\UGOLNIK#2.prt
;            VERSION: C:\Program Files\Siemens\NX 12.0\mach\resource\postprocessor\TMT_Sinumerik_828D_0.16\TMT_Sinumerik_828D_0.16.def
;      Creation Date: Mon Sep  9 10:00:13 2019
;(****************************************************************)
;      POSTPROCESSOR: TMT Sinumerik 828D 3-x axes (version 0.16 created Mon Sep  9 10:00:13 2019)
;(****************************************************************)
N1 G40 G17 G90
N2 G54
;(****************************************************************)
;    START OPERATION: FIXED_CONTOUR_1_COPY
;     TYPE OPERATION: Fixed-axis Surface Contouring
;(****************************************************************)
N3 T="FR 52" M6
;(****************************************************************)
; TOOL PARAMETRS: NUMBER: 0 NAME:  MILL_D52 D = 52.00mm  L = 105.00mm
; R = 0.8mm
;(****************************************************************)
N4 S1996 M3
N5 G0 X642.274 Y-53.091 D1
N6 Z233.887 M8
N7 Z24.741
N8 G3 X616.274 Y-27.091 I-26. J0.0 F1198.
N9 G1 X587.674 F1198.
N10 X13.047 F1198.
N11 X7.346 Y-27.079 Z24.755 F1198.
N12 X-1.911 Y-27.045 Z24.796 F1198.
N13 X-1.912 Y-26.902 Z24.965 F1198.
N14 X601.913 F1198.
N15 X601.914 Y-26.702 Z25.201 F1198.
N16 X-1.914 F1198.
N17 X-1.916 Y-26.502 Z25.438 F1198.
N18 X601.916 F1198.
N19 X601.918 Y-26.303 Z25.674 F1198.
N20 X-1.918 F1198.
N21 X-1.92 Y-26.103 Z25.91 F1198.
N22 X601.92 F1198.
N23 X601.922 Y-25.903 Z26.147 F1198.
N24 X-1.922 F1198.
N25 X-1.923 Y-25.703 Z26.383 F1198.
N26 X.016 F1198.
N27 X599.984 F1198.
N28 X601.924 F1198.
N29 X601.926 Y-25.504 Z26.619 F1198.
N30 X599.986 F1198.
N31 X.014 F1198.
N32 X-1.925 F1198.
N33 X-1.927 Y-25.304 Z26.856 F1198.
N34 X.012 F1198.
N35 X599.988 F1198.
N36 X601.927 F1198.
N37 X601.929 Y-25.104 Z27.092 F1198.
N38 X599.99 F1198.
N39 X.01 F1198.
N40 X-1.929 F1198.
N41 X-1.931 Y-24.904 Z27.328 F1198.
N42 X.009 F1198.
N43 X599.992 F1198.
N44 X601.931 F1198.
N45 X601.933 Y-24.704 Z27.565 F1198.
N46 X599.994 F1198.
N47 X.007 F1198.
N48 X-1.933 F1198.
N49 X-1.935 Y-24.505 Z27.801 F1198.
N50 X.005 F1198.
N51 X599.995 F1198.
N52 X601.935 F1198.
N53 X601.937 Y-24.305 Z28.038 F1198.
N54 X599.997 F1198.
N55 X.003 F1198.
N56 X-1.936 F1198.
N57 X-1.938 Y-24.105 Z28.274 F1198.
N58 X.001 F1198.
N59 X599.999 F1198.
N60 X601.938 F1198.
N61 X601.94 Y-23.905 Z28.51 F1198.
N62 X599.982 F1198.
N63 X.018 F1198.
N64 X-1.94 F1198.
N65 X-1.942 Y-23.706 Z28.747 F1198.
N66 X.016 F1198.
N67 X599.984 F1198.
N68 X601.942 F1198.
N69 X601.944 Y-23.506 Z28.983 F1198.
N70 X599.986 F1198.
N71 X.014 F1198.
N72 X-1.944 F1198.
N73 X-1.946 Y-23.306 Z29.219 F1198.
N74 X.012 F1198.
N75 X599.988 F1198.
N76 X601.946 F1198.
N77 X601.948 Y-23.106 Z29.456 F1198.
N78 X599.99 F1198.
N79 X.01 F1198.
N80 X-1.947 F1198.
N81 X-1.949 Y-22.907 Z29.692 F1198.
N82 X.009 F1198.
N83 X599.992 F1198.
N84 X601.95 F1198.
N85 X601.951 Y-22.707 Z29.928 F1198.
N86 X599.993 F1198.
N87 X.007 F1198.
N88 X-1.951 F1198.
N89 X-1.953 Y-22.507 Z30.165 F1198.
N90 X.005 F1198.
N91 X599.995 F1198.
N92 X601.953 F1198.
N93 X601.954 Y-22.307 Z30.401 F1198.
N94 X599.997 F1198.
N95 X.004 F1198.
N96 X-1.954 F1198.
N97 X-1.956 Y-22.107 Z30.637 F1198.
N98 X.002 F1198.
N99 X599.998 F1198.
N100 X601.956 F1198.
N101 X601.957 Y-21.908 Z30.874 F1198.
N102 X599.999 F1198.
N103 X.001 F1198.
N104 X-1.957 F1198.
N105 X-1.958 Y-21.708 Z31.11 F1198.
N106 X.018 F1198.
N107 X599.982 F1198.
N108 X601.958 F1198.
N109 X601.959 Y-21.508 Z31.347 F1198.
N110 X599.983 F1198.
N111 X.017 F1198.
N112 X-1.959 F1198.
N113 X-1.961 Y-21.308 Z31.583 F1198.
N114 X.016 F1198.
N115 X599.984 F1198.
N116 X601.961 F1198.
N117 X601.962 Y-21.109 Z31.819 F1198.
N118 X599.986 F1198.
N119 X.015 F1198.
N120 X-1.962 F1198.
N121 X-1.963 Y-20.909 Z32.056 F1198.
N122 X.013 F1198.
N123 X599.987 F1198.
N124 X601.963 F1198.
N125 X601.964 Y-20.709 Z32.292 F1198.
N126 X599.988 F1198.
N127 X.012 F1198.
N128 X-1.964 F1198.
N129 X-1.966 Y-20.509 Z32.528 F1198.
N130 X.011 F1198.
N131 X599.989 F1198.
N132 X601.966 F1198.
N133 X601.967 Y-20.309 Z32.765 F1198.
N134 X599.991 F1198.
N135 X.01 F1198.
N136 X-1.967 F1198.
N137 X-1.968 Y-20.11 Z33.001 F1198.
N138 X.008 F1198.
N139 X599.992 F1198.
N140 X601.968 F1198.
N141 X601.969 Y-19.91 Z33.237 F1198.
N142 X599.993 F1198.
N143 X.007 F1198.
N144 X-1.969 F1198.
N145 X-1.971 Y-19.71 Z33.474 F1198.
N146 X.006 F1198.
N147 X599.994 F1198.
N148 X601.971 F1198.
N149 X601.972 Y-19.51 Z33.71 F1198.
N150 X599.996 F1198.
N151 X.005 F1198.
N152 X-1.972 F1198.
N153 X-1.973 Y-19.311 Z33.947 F1198.
N154 X.003 F1198.
N155 X599.997 F1198.
N156 X601.973 F1198.
N157 X601.974 Y-19.111 Z34.183 F1198.
N158 X599.998 F1198.
N159 X.002 F1198.
N160 X-1.974 F1198.
N161 X-1.976 Y-18.911 Z34.419 F1198.
N162 X.001 F1198.
N163 X599.999 F1198.
N164 X601.976 F1198.
N165 X601.977 Y-18.711 Z34.656 F1198.
N166 X599.982 F1198.
N167 X.018 F1198.
N168 X-1.977 F1198.
N169 X-1.978 Y-18.511 Z34.892 F1198.
N170 X.017 F1198.
N171 X599.983 F1198.
N172 X601.978 F1198.
N173 X601.979 Y-18.312 Z35.128 F1198.
N174 X599.985 F1198.
N175 X.016 F1198.
N176 X-1.979 F1198.
N177 X-1.981 Y-18.112 Z35.365 F1198.
N178 X.014 F1198.
N179 X599.986 F1198.
N180 X601.981 F1198.
N181 X601.982 Y-17.912 Z35.601 F1198.
N182 X599.987 F1198.
N183 X.013 F1198.
N184 X-1.982 F1198.
N185 X-1.983 Y-17.712 Z35.837 F1198.
N186 X.012 F1198.
N187 X599.988 F1198.
N188 X601.983 F1198.
N189 X601.984 Y-17.513 Z36.074 F1198.
N190 X599.989 F1198.
N191 X.011 F1198.
N192 X-1.984 F1198.
N193 X-1.985 Y-17.313 Z36.31 F1198.
N194 X.01 F1198.
N195 X599.99 F1198.
N196 X601.985 F1198.
N197 Y-17.113 Z36.546 F1198.
N198 X599.99 F1198.
N199 X.01 F1198.
N200 X-1.985 F1198.
N201 Y-16.913 Z36.783 F1198.
N202 X.01 F1198.
N203 X599.991 F1198.
N204 X601.986 F1198.
N205 Y-16.713 Z37.019 F1198.
N206 X599.991 F1198.
N207 X.009 F1198.
N208 X-1.986 F1198.
N209 Y-16.514 Z37.256 F1198.
N210 X.009 F1198.
N211 X599.991 F1198.
N212 X601.986 F1198.
N213 X601.987 Y-16.314 Z37.492 F1198.
N214 X599.992 F1198.
N215 X.008 F1198.
N216 X-1.987 F1198.
N217 Y-16.114 Z37.728 F1198.
N218 X.008 F1198.
N219 X599.992 F1198.
N220 X601.987 F1198.
N221 Y-15.914 Z37.965 F1198.
N222 X599.992 F1198.
N223 X.008 F1198.
N224 X-1.987 F1198.
N225 X-1.988 Y-15.715 Z38.201 F1198.
N226 X.007 F1198.
N227 X599.993 F1198.
N228 X601.988 F1198.
N229 Y-15.515 Z38.437 F1198.
N230 X599.993 F1198.
N231 X.007 F1198.
N232 X-1.988 F1198.
N233 X-1.989 Y-15.315 Z38.674 F1198.
N234 X.006 F1198.
N235 X599.994 F1198.
N236 X601.989 F1198.
N237 Y-15.115 Z38.91 F1198.
N238 X599.994 F1198.
N239 X.006 F1198.
N240 X-1.989 F1198.
N241 Y-14.915 Z39.146 F1198.
N242 X.006 F1198.
N243 X599.994 F1198.
N244 X601.989 F1198.
N245 X601.99 Y-14.716 Z39.383 F1198.
N246 X599.995 F1198.
N247 X.005 F1198.
N248 X-1.99 F1198.
N249 Y-14.516 Z39.619 F1198.
N250 X.005 F1198.
N251 X599.995 F1198.
N252 X601.99 F1198.
N253 X601.991 Y-14.316 Z39.856 F1198.
N254 X599.996 F1198.
N255 X.005 F1198.
N256 X-1.99 F1198.
N257 X-1.991 Y-14.116 Z40.092 F1198.
N258 X.004 F1198.
N259 X599.996 F1198.
N260 X601.991 F1198.
N261 Y-13.917 Z40.328 F1198.
N262 X599.996 F1198.
N263 X.004 F1198.
N264 X-1.991 F1198.
N265 X-1.992 Y-13.717 Z40.565 F1198.
N266 X.003 F1198.
N267 X599.997 F1198.
N268 X601.992 F1198.
N269 Y-13.517 Z40.801 F1198.
N270 X599.997 F1198.
N271 X.003 F1198.
N272 X-1.992 F1198.
N273 Y-13.317 Z41.037 F1198.
N274 X.003 F1198.
N275 X599.997 F1198.
N276 X601.992 F1198.
N277 X601.993 Y-13.117 Z41.274 F1198.
N278 X599.998 F1198.
N279 X.002 F1198.
N280 X-1.993 F1198.
N281 Y-12.918 Z41.51 F1198.
N282 X.002 F1198.
N283 X599.998 F1198.
N284 X601.993 F1198.
N285 X601.994 Y-12.718 Z41.746 F1198.
N286 X599.999 F1198.
N287 X.001 F1198.
N288 X-1.994 F1198.
N289 Y-12.518 Z41.983 F1198.
N290 X.001 F1198.
N291 X599.999 F1198.
N292 X601.994 F1198.
N293 Y-12.318 Z42.219 F1198.
N294 X599.999 F1198.
N295 X.001 F1198.
N296 X-1.994 F1198.
N297 X-1.995 Y-12.119 Z42.455 F1198.
N298 X0.0 F1198.
N299 X600. F1198.
N300 X601.995 F1198.
N301 Y-11.919 Z42.692 F1198.
N302 X599.982 F1198.
N303 X.018 F1198.
N304 X-1.995 F1198.
N305 Y-11.719 Z42.928 F1198.
N306 X.018 F1198.
N307 X599.982 F1198.
N308 X601.995 F1198.
N309 X601.996 Y-11.519 Z43.165 F1198.
N310 X599.982 F1198.
N311 X.018 F1198.
N312 X-1.996 F1198.
N313 Y-11.319 Z43.401 F1198.
N314 X.017 F1198.
N315 X599.983 F1198.
N316 X601.996 F1198.
N317 X601.997 Y-11.12 Z43.637 F1198.
N318 X599.983 F1198.
N319 X.017 F1198.
N320 X-1.997 F1198.
N321 Y-10.92 Z43.874 F1198.
N322 X.016 F1198.
N323 X599.984 F1198.
N324 X601.997 F1198.
N325 Y-10.72 Z44.11 F1198.
N326 X599.984 F1198.
N327 X.016 F1198.
N328 X-1.997 F1198.
N329 X-1.998 Y-10.52 Z44.346 F1198.
N330 X.016 F1198.
N331 X599.984 F1198.
N332 X601.998 F1198.
N333 Y-10.321 Z44.583 F1198.
N334 X599.985 F1198.
N335 X.015 F1198.
N336 X-1.998 F1198.
N337 X-1.999 Y-10.121 Z44.819 F1198.
N338 X.015 F1198.
N339 X599.985 F1198.
N340 X601.999 F1198.
N341 Y-9.921 Z45.055 F1198.
N342 X599.985 F1198.
N343 X.015 F1198.
N344 X-1.999 F1198.
N345 Y-9.721 Z45.292 F1198.
N346 X.015 F1198.
N347 X599.985 F1198.
N348 X601.999 F1198.
N349 Y-9.522 Z45.528 F1198.
N350 X599.985 F1198.
N351 X.015 F1198.
N352 X-1.999 F1198.
N353 Y-9.322 Z45.765 F1198.
N354 X.015 F1198.
N355 X599.985 F1198.
N356 X601.999 F1198.
N357 Y-9.122 Z46.001 F1198.
N358 X599.985 F1198.
N359 X.015 F1198.
N360 X-1.999 F1198.
N361 Y-8.922 Z46.237 F1198.
N362 X.015 F1198.
N363 X599.985 F1198.
N364 X601.999 F1198.
N365 Y-8.722 Z46.474 F1198.
N366 X599.985 F1198.
N367 X.015 F1198.
N368 X-1.999 F1198.
N369 Y-8.523 Z46.71 F1198.
N370 X.015 F1198.
N371 X599.985 F1198.
N372 X601.999 F1198.
N373 Y-8.323 Z46.946 F1198.
N374 X599.985 F1198.
N375 X.015 F1198.
N376 X-1.999 F1198.
N377 Y-8.123 Z47.183 F1198.
N378 X.015 F1198.
N379 X599.985 F1198.
N380 X601.999 F1198.
N381 Y-7.923 Z47.419 F1198.
N382 X599.985 F1198.
N383 X.015 F1198.
N384 X-1.999 F1198.
N385 Y-7.724 Z47.655 F1198.
N386 X.015 F1198.
N387 X599.985 F1198.
N388 X601.999 F1198.
N389 Y-7.524 Z47.892 F1198.
N390 X599.985 F1198.
N391 X.015 F1198.
N392 X-1.999 F1198.
N393 Y-7.324 Z48.128 F1198.
N394 X.015 F1198.
N395 X599.985 F1198.
N396 X601.999 F1198.
N397 Y-7.124 Z48.364 F1198.
N398 X599.985 F1198.
N399 X.015 F1198.
N400 X-1.999 F1198.
N401 Y-6.924 Z48.601 F1198.
N402 X.015 F1198.
N403 X599.985 F1198.
N404 X601.999 F1198.
N405 Y-6.725 Z48.837 F1198.
N406 X599.985 F1198.
N407 X.015 F1198.
N408 X-1.999 F1198.
N409 Y-6.525 Z49.074 F1198.
N410 X.015 F1198.
N411 X599.985 F1198.
N412 X601.999 F1198.
N413 Y-6.325 Z49.31 F1198.
N414 X599.985 F1198.
N415 X.015 F1198.
N416 X-1.999 F1198.
N417 Y-6.125 Z49.546 F1198.
N418 X.015 F1198.
N419 X599.985 F1198.
N420 X601.999 F1198.
N421 Y-5.926 Z49.783 F1198.
N422 X599.985 F1198.
N423 X.015 F1198.
N424 X-1.999 F1198.
N425 Y-5.726 Z50.019 F1198.
N426 X.015 F1198.
N427 X599.985 F1198.
N428 X601.999 F1198.
N429 Y-5.526 Z50.255 F1198.
N430 X599.985 F1198.
N431 X.015 F1198.
N432 X-1.999 F1198.
N433 Y-5.326 Z50.492 F1198.
N434 X.015 F1198.
N435 X599.985 F1198.
N436 X601.999 F1198.
N437 Y-5.126 Z50.728 F1198.
N438 X599.985 F1198.
N439 X.015 F1198.
N440 X-1.999 F1198.
N441 Y-4.927 Z50.964 F1198.
N442 X.015 F1198.
N443 X599.985 F1198.
N444 X601.999 F1198.
N445 Y-4.727 Z51.201 F1198.
N446 X599.985 F1198.
N447 X.015 F1198.
N448 X-1.999 F1198.
N449 Y-4.527 Z51.437 F1198.
N450 X.015 F1198.
N451 X599.985 F1198.
N452 X601.999 F1198.
N453 Y-4.327 Z51.674 F1198.
N454 X599.985 F1198.
N455 X.015 F1198.
N456 X-1.999 F1198.
N457 Y-4.128 Z51.91 F1198.
N458 X.015 F1198.
N459 X599.985 F1198.
N460 X601.999 F1198.
N461 Y-3.928 Z52.146 F1198.
N462 X599.985 F1198.
N463 X.015 F1198.
N464 X-1.999 F1198.
N465 Y-3.728 Z52.383 F1198.
N466 X.015 F1198.
N467 X599.985 F1198.
N468 X601.999 F1198.
N469 Y-3.528 Z52.619 F1198.
N470 X599.985 F1198.
N471 X.015 F1198.
N472 X-1.999 F1198.
N473 Y-3.328 Z52.855 F1198.
N474 X.015 F1198.
N475 X599.985 F1198.
N476 X601.999 F1198.
N477 Y-3.129 Z53.092 F1198.
N478 X599.985 F1198.
N479 X.015 F1198.
N480 X-1.999 F1198.
N481 Y-2.929 Z53.328 F1198.
N482 X.015 F1198.
N483 X599.985 F1198.
N484 X601.999 F1198.
N485 Y-2.729 Z53.564 F1198.
N486 X599.985 F1198.
N487 X.015 F1198.
N488 X-1.999 F1198.
N489 Y-2.529 Z53.801 F1198.
N490 X.015 F1198.
N491 X599.985 F1198.
N492 X601.999 F1198.
N493 Y-2.33 Z54.037 F1198.
N494 X599.985 F1198.
N495 X.015 F1198.
N496 X-1.999 F1198.
N497 Y-2.13 Z54.273 F1198.
N498 X.015 F1198.
N499 X599.985 F1198.
N500 X601.999 F1198.
N501 Y-1.93 Z54.51 F1198.
N502 X599.985 F1198.
N503 X.015 F1198.
N504 X-1.999 F1198.
N505 Y-1.73 Z54.746 F1198.
N506 X.015 F1198.
N507 X599.985 F1198.
N508 X601.999 F1198.
N509 Y-1.53 Z54.983 F1198.
N510 X599.985 F1198.
N511 X.015 F1198.
N512 X-1.999 F1198.
N513 Y-1.331 Z55.219 F1198.
N514 X.015 F1198.
N515 X599.985 F1198.
N516 X601.999 F1198.
N517 Y-1.131 Z55.455 F1198.
N518 X599.985 F1198.
N519 X.015 F1198.
N520 X-1.999 F1198.
N521 Y-.931 Z55.692 F1198.
N522 X.015 F1198.
N523 X599.985 F1198.
N524 X601.999 F1198.
N525 Y-.731 Z55.928 F1198.
N526 X599.985 F1198.
N527 X.015 F1198.
N528 X-1.999 F1198.
N529 Y-.532 Z56.164 F1198.
N530 X.015 F1198.
N531 X599.985 F1198.
N532 X601.999 F1198.
N533 Y-.332 Z56.401 F1198.
N534 X599.985 F1198.
N535 X.015 F1198.
N536 X-1.999 F1198.
N537 Y-.132 Z56.637 F1198.
N538 X.015 F1198.
N539 X599.985 F1198.
N540 X601.999 F1198.
N541 Y.068 Z56.873 F1198.
N542 X599.985 F1198.
N543 X.015 F1198.
N544 X-1.999 F1198.
N545 Y.268 Z57.11 F1198.
N546 X.015 F1198.
N547 X599.985 F1198.
N548 X601.999 F1198.
N549 Y.467 Z57.346 F1198.
N550 X599.985 F1198.
N551 X.015 F1198.
N552 X-1.999 F1198.
N553 Y.667 Z57.583 F1198.
N554 X.015 F1198.
N555 X599.985 F1198.
N556 X601.999 F1198.
N557 Y.867 Z57.819 F1198.
N558 X599.985 F1198.
N559 X.015 F1198.
N560 X-1.999 F1198.
N561 Y1.067 Z58.055 F1198.
N562 X.015 F1198.
N563 X599.985 F1198.
N564 X601.999 F1198.
N565 Y1.266 Z58.292 F1198.
N566 X599.985 F1198.
N567 X.015 F1198.
N568 X-1.999 F1198.
N569 Y1.466 Z58.528 F1198.
N570 X.015 F1198.
N571 X599.985 F1198.
N572 X601.999 F1198.
N573 Y1.666 Z58.764 F1198.
N574 X599.985 F1198.
N575 X.015 F1198.
N576 X-1.999 F1198.
N577 Y1.866 Z59.001 F1198.
N578 X.015 F1198.
N579 X599.985 F1198.
N580 X601.999 F1198.
N581 Y2.066 Z59.237 F1198.
N582 X599.985 F1198.
N583 X.015 F1198.
N584 X-1.999 F1198.
N585 Y2.265 Z59.473 F1198.
N586 X.015 F1198.
N587 X599.985 F1198.
N588 X601.999 F1198.
N589 Y2.465 Z59.71 F1198.
N590 X599.985 F1198.
N591 X.015 F1198.
N592 X-1.999 F1198.
N593 Y2.665 Z59.946 F1198.
N594 X.015 F1198.
N595 X599.985 F1198.
N596 X601.999 F1198.
N597 Y2.865 Z60.182 F1198.
N598 X599.985 F1198.
N599 X.015 F1198.
N600 X-1.999 F1198.
N601 Y3.064 Z60.419 F1198.
N602 X.015 F1198.
N603 X599.985 F1198.
N604 X601.999 F1198.
N605 Y3.264 Z60.655 F1198.
N606 X599.985 F1198.
N607 X.015 F1198.
N608 X-1.999 F1198.
N609 Y3.464 Z60.892 F1198.
N610 X.015 F1198.
N611 X599.985 F1198.
N612 X601.999 F1198.
N613 Y3.664 Z61.128 F1198.
N614 X599.985 F1198.
N615 X.015 F1198.
N616 X-1.999 F1198.
N617 Y3.863 Z61.364 F1198.
N618 X.015 F1198.
N619 X599.985 F1198.
N620 X601.999 F1198.
N621 Y4.063 Z61.601 F1198.
N622 X599.985 F1198.
N623 X.015 F1198.
N624 X-1.999 F1198.
N625 Y4.263 Z61.837 F1198.
N626 X.015 F1198.
N627 X599.985 F1198.
N628 X601.999 F1198.
N629 Y4.463 Z62.073 F1198.
N630 X599.985 F1198.
N631 X.015 F1198.
N632 X-1.999 F1198.
N633 Y4.663 Z62.31 F1198.
N634 X.015 F1198.
N635 X599.985 F1198.
N636 X601.999 F1198.
N637 Y4.862 Z62.546 F1198.
N638 X599.985 F1198.
N639 X.015 F1198.
N640 X-1.999 F1198.
N641 Y5.062 Z62.782 F1198.
N642 X.015 F1198.
N643 X599.985 F1198.
N644 X601.999 F1198.
N645 Y5.262 Z63.019 F1198.
N646 X599.985 F1198.
N647 X.015 F1198.
N648 X-1.999 F1198.
N649 Y5.462 Z63.255 F1198.
N650 X.015 F1198.
N651 X599.985 F1198.
N652 X601.999 F1198.
N653 Y5.661 Z63.491 F1198.
N654 X599.985 F1198.
N655 X.015 F1198.
N656 X-1.999 F1198.
N657 Y5.861 Z63.728 F1198.
N658 X.015 F1198.
N659 X599.985 F1198.
N660 X601.999 F1198.
N661 Y6.061 Z63.964 F1198.
N662 X599.985 F1198.
N663 X.015 F1198.
N664 X-1.999 F1198.
N665 Y6.261 Z64.201 F1198.
N666 X.015 F1198.
N667 X599.985 F1198.
N668 X601.999 F1198.
N669 Y6.461 Z64.437 F1198.
N670 X599.985 F1198.
N671 X.015 F1198.
N672 X-1.999 F1198.
N673 Y6.66 Z64.673 F1198.
N674 X.015 F1198.
N675 X599.985 F1198.
N676 X601.999 F1198.
N677 Y6.86 Z64.91 F1198.
N678 X599.985 F1198.
N679 X.015 F1198.
N680 X-1.999 F1198.
N681 Y7.06 Z65.146 F1198.
N682 X.015 F1198.
N683 X599.985 F1198.
N684 X601.999 F1198.
N685 Y7.26 Z65.382 F1198.
N686 X599.985 F1198.
N687 X.015 F1198.
N688 X-1.999 F1198.
N689 Y7.459 Z65.619 F1198.
N690 X.015 F1198.
N691 X599.985 F1198.
N692 X601.999 F1198.
N693 X601.998 Y7.659 Z65.855 F1198.
N694 X599.985 F1198.
N695 X.015 F1198.
N696 X-1.999 F1198.
N697 Y7.859 Z66.091 F1198.
N698 X.015 F1198.
N699 X599.985 F1198.
N700 X601.998 F1198.
N701 Y8.059 Z66.328 F1198.
N702 X599.985 F1198.
N703 X.015 F1198.
N704 X-1.999 F1198.
N705 Y8.259 Z66.564 F1198.
N706 X.015 F1198.
N707 X599.985 F1198.
N708 X601.998 F1198.
N709 Y8.458 Z66.801 F1198.
N710 X599.985 F1198.
N711 X.015 F1198.
N712 X-1.999 F1198.
N713 Y8.658 Z67.037 F1198.
N714 X.015 F1198.
N715 X599.985 F1198.
N716 X601.998 F1198.
N717 Y8.858 Z67.273 F1198.
N718 X599.985 F1198.
N719 X.015 F1198.
N720 X-1.999 F1198.
N721 Y9.058 Z67.51 F1198.
N722 X.015 F1198.
N723 X599.985 F1198.
N724 X601.998 F1198.
N725 Y9.257 Z67.746 F1198.
N726 X599.985 F1198.
N727 X.015 F1198.
N728 X-1.999 F1198.
N729 Y9.457 Z67.982 F1198.
N730 X.015 F1198.
N731 X599.985 F1198.
N732 X601.998 F1198.
N733 Y9.657 Z68.219 F1198.
N734 X599.985 F1198.
N735 X.015 F1198.
N736 X-1.999 F1198.
N737 Y9.857 Z68.455 F1198.
N738 X.015 F1198.
N739 X599.985 F1198.
N740 X601.998 F1198.
N741 Y10.057 Z68.691 F1198.
N742 X599.985 F1198.
N743 X.015 F1198.
N744 X-1.999 F1198.
N745 Y10.256 Z68.928 F1198.
N746 X.015 F1198.
N747 X599.985 F1198.
N748 X601.998 F1198.
N749 Y10.456 Z69.164 F1198.
N750 X599.985 F1198.
N751 X.015 F1198.
N752 X-1.999 F1198.
N753 Y10.656 Z69.4 F1198.
N754 X.015 F1198.
N755 X599.985 F1198.
N756 X601.998 F1198.
N757 Y10.856 Z69.637 F1198.
N758 X599.985 F1198.
N759 X.015 F1198.
N760 X-1.999 F1198.
N761 Y11.055 Z69.873 F1198.
N762 X.015 F1198.
N763 X599.985 F1198.
N764 X601.998 F1198.
N765 Y11.255 Z70.11 F1198.
N766 X599.985 F1198.
N767 X.015 F1198.
N768 X-1.999 F1198.
N769 Y11.455 Z70.346 F1198.
N770 X.015 F1198.
N771 X599.985 F1198.
N772 X601.998 F1198.
N773 Y11.655 Z70.582 F1198.
N774 X599.985 F1198.
N775 X.015 F1198.
N776 X-1.999 F1198.
N777 Y11.855 Z70.819 F1198.
N778 X.015 F1198.
N779 X599.985 F1198.
N780 X601.998 F1198.
N781 Y12.054 Z71.055 F1198.
N782 X599.985 F1198.
N783 X.015 F1198.
N784 X-1.999 F1198.
N785 Y12.254 Z71.291 F1198.
N786 X.015 F1198.
N787 X599.985 F1198.
N788 X601.998 F1198.
N789 Y12.454 Z71.528 F1198.
N790 X599.985 F1198.
N791 X.015 F1198.
N792 X-1.999 F1198.
N793 Y12.654 Z71.764 F1198.
N794 X.015 F1198.
N795 X599.985 F1198.
N796 X601.998 F1198.
N797 Y12.853 Z72. F1198.
N798 X599.985 F1198.
N799 X.015 F1198.
N800 X-1.999 F1198.
N801 Y13.053 Z72.237 F1198.
N802 X.015 F1198.
N803 X599.985 F1198.
N804 X601.998 F1198.
N805 Y13.253 Z72.473 F1198.
N806 X599.985 F1198.
N807 X.015 F1198.
N808 X-1.999 F1198.
N809 Y13.453 Z72.71 F1198.
N810 X.015 F1198.
N811 X599.985 F1198.
N812 X601.998 F1198.
N813 Y13.653 Z72.946 F1198.
N814 X599.985 F1198.
N815 X.015 F1198.
N816 X-1.999 F1198.
N817 Y13.852 Z73.182 F1198.
N818 X.015 F1198.
N819 X599.985 F1198.
N820 X601.998 F1198.
N821 Y14.052 Z73.419 F1198.
N822 X599.985 F1198.
N823 X.015 F1198.
N824 X-1.999 F1198.
N825 X-1.998 Y14.252 Z73.655 F1198.
N826 X.015 F1198.
N827 X599.985 F1198.
N828 X601.998 F1198.
N829 Y14.452 Z73.891 F1198.
N830 X599.985 F1198.
N831 X.015 F1198.
N832 X-1.998 F1198.
N833 Y14.651 Z74.128 F1198.
N834 X.015 F1198.
N835 X599.985 F1198.
N836 X601.998 F1198.
N837 Y14.851 Z74.364 F1198.
N838 X599.985 F1198.
N839 X.015 F1198.
N840 X-1.998 F1198.
N841 Y15.051 Z74.6 F1198.
N842 X.015 F1198.
N843 X599.985 F1198.
N844 X601.998 F1198.
N845 Y15.251 Z74.837 F1198.
N846 X599.985 F1198.
N847 X.015 F1198.
N848 X-1.998 F1198.
N849 Y15.451 Z75.073 F1198.
N850 X.015 F1198.
N851 X599.985 F1198.
N852 X601.998 F1198.
N853 Y15.65 Z75.309 F1198.
N854 X599.985 F1198.
N855 X.015 F1198.
N856 X-1.998 F1198.
N857 Y15.85 Z75.546 F1198.
N858 X.015 F1198.
N859 X599.985 F1198.
N860 X601.998 F1198.
N861 Y16.05 Z75.782 F1198.
N862 X599.985 F1198.
N863 X.015 F1198.
N864 X-1.998 F1198.
N865 Y16.25 Z76.019 F1198.
N866 X.015 F1198.
N867 X599.985 F1198.
N868 X601.998 F1198.
N869 Y16.449 Z76.255 F1198.
N870 X599.985 F1198.
N871 X.015 F1198.
N872 X-1.998 F1198.
N873 Y16.649 Z76.491 F1198.
N874 X.015 F1198.
N875 X599.985 F1198.
N876 X601.998 F1198.
N877 Y16.849 Z76.728 F1198.
N878 X599.985 F1198.
N879 X.015 F1198.
N880 X-1.998 F1198.
N881 Y17.049 Z76.964 F1198.
N882 X.015 F1198.
N883 X599.985 F1198.
N884 X601.998 F1198.
N885 Y17.248 Z77.2 F1198.
N886 X599.985 F1198.
N887 X.015 F1198.
N888 X-1.998 F1198.
N889 Y17.448 Z77.437 F1198.
N890 X.015 F1198.
N891 X599.985 F1198.
N892 X601.998 F1198.
N893 Y17.648 Z77.673 F1198.
N894 X599.985 F1198.
N895 X.015 F1198.
N896 X-1.998 F1198.
N897 Y17.848 Z77.909 F1198.
N898 X.015 F1198.
N899 X599.985 F1198.
N900 X601.998 F1198.
N901 Y18.048 Z78.146 F1198.
N902 X599.985 F1198.
N903 X.015 F1198.
N904 X-1.998 F1198.
N905 Y18.247 Z78.382 F1198.
N906 X.015 F1198.
N907 X599.985 F1198.
N908 X601.998 F1198.
N909 Y18.447 Z78.619 F1198.
N910 X599.985 F1198.
N911 X.015 F1198.
N912 X-1.998 F1198.
N913 Y18.647 Z78.855 F1198.
N914 X.015 F1198.
N915 X599.985 F1198.
N916 X601.998 F1198.
N917 Y18.847 Z79.091 F1198.
N918 X599.985 F1198.
N919 X.015 F1198.
N920 X-1.998 F1198.
N921 Y19.046 Z79.328 F1198.
N922 X.015 F1198.
N923 X599.985 F1198.
N924 X601.998 F1198.
N925 Y19.246 Z79.564 F1198.
N926 X599.985 F1198.
N927 X.015 F1198.
N928 X-1.998 F1198.
N929 Y19.446 Z79.8 F1198.
N930 X.015 F1198.
N931 X599.985 F1198.
N932 X601.998 F1198.
N933 Y19.646 Z80.037 F1198.
N934 X599.985 F1198.
N935 X.015 F1198.
N936 X-1.998 F1198.
N937 Y19.846 Z80.273 F1198.
N938 X.015 F1198.
N939 X599.985 F1198.
N940 X601.998 F1198.
N941 Y20.045 Z80.509 F1198.
N942 X599.985 F1198.
N943 X.015 F1198.
N944 X-1.998 F1198.
N945 Y20.245 Z80.746 F1198.
N946 X.015 F1198.
N947 X599.985 F1198.
N948 X601.998 F1198.
N949 Y20.445 Z80.982 F1198.
N950 X599.985 F1198.
N951 X.015 F1198.
N952 X-1.998 F1198.
N953 Y20.645 Z81.218 F1198.
N954 X.015 F1198.
N955 X599.985 F1198.
N956 X601.998 F1198.
N957 Y20.844 Z81.455 F1198.
N958 X599.985 F1198.
N959 X.015 F1198.
N960 X-1.998 F1198.
N961 Y21.044 Z81.691 F1198.
N962 X.015 F1198.
N963 X599.985 F1198.
N964 X601.998 F1198.
N965 Y21.244 Z81.928 F1198.
N966 X599.985 F1198.
N967 X.015 F1198.
N968 X-1.998 F1198.
N969 Y21.444 Z82.164 F1198.
N970 X.015 F1198.
N971 X599.985 F1198.
N972 X601.998 F1198.
N973 Y21.644 Z82.4 F1198.
N974 X599.985 F1198.
N975 X.015 F1198.
N976 X-1.998 F1198.
N977 Y21.843 Z82.637 F1198.
N978 X.015 F1198.
N979 X599.985 F1198.
N980 X601.998 F1198.
N981 Y22.043 Z82.873 F1198.
N982 X599.985 F1198.
N983 X.015 F1198.
N984 X-1.998 F1198.
N985 Y22.243 Z83.109 F1198.
N986 X.015 F1198.
N987 X599.985 F1198.
N988 X601.998 F1198.
N989 Y22.443 Z83.346 F1198.
N990 X599.985 F1198.
N991 X.015 F1198.
N992 X-1.998 F1198.
N993 Y22.642 Z83.582 F1198.
N994 X.015 F1198.
N995 X599.985 F1198.
N996 X601.998 F1198.
N997 Y22.842 Z83.818 F1198.
N998 X599.985 F1198.
N999 X.015 F1198.
N1000 X-1.998 F1198.
N1001 Y23.042 Z84.055 F1198.
N1002 X.015 F1198.
N1003 X599.985 F1198.
N1004 X601.998 F1198.
N1005 Y23.242 Z84.291 F1198.
N1006 X599.985 F1198.
N1007 X.015 F1198.
N1008 X-1.998 F1198.
N1009 Y23.442 Z84.528 F1198.
N1010 X.015 F1198.
N1011 X599.985 F1198.
N1012 X601.998 F1198.
N1013 Y23.641 Z84.764 F1198.
N1014 X599.985 F1198.
N1015 X.015 F1198.
N1016 X-1.998 F1198.
N1017 Y23.841 Z85. F1198.
N1018 X.015 F1198.
N1019 X599.985 F1198.
N1020 X601.998 F1198.
N1021 Y24.041 Z85.237 F1198.
N1022 X599.985 F1198.
N1023 X.015 F1198.
N1024 X-1.998 F1198.
N1025 Y24.241 Z85.473 F1198.
N1026 X.015 F1198.
N1027 X599.985 F1198.
N1028 X601.998 F1198.
N1029 Y24.44 Z85.709 F1198.
N1030 X599.985 F1198.
N1031 X.015 F1198.
N1032 X-1.998 F1198.
N1033 Y24.64 Z85.946 F1198.
N1034 X.015 F1198.
N1035 X599.985 F1198.
N1036 X601.998 F1198.
N1037 Y24.84 Z86.182 F1198.
N1038 X599.985 F1198.
N1039 X.015 F1198.
N1040 X-1.998 F1198.
N1041 Y25.04 Z86.418 F1198.
N1042 X.015 F1198.
N1043 X599.985 F1198.
N1044 X601.998 F1198.
N1045 Y25.24 Z86.655 F1198.
N1046 X599.985 F1198.
N1047 X.015 F1198.
N1048 X-1.998 F1198.
N1049 Y25.439 Z86.891 F1198.
N1050 X.015 F1198.
N1051 X599.985 F1198.
N1052 X601.998 F1198.
N1053 Y25.639 Z87.127 F1198.
N1054 X599.985 F1198.
N1055 X.015 F1198.
N1056 X-1.998 F1198.
N1057 Y25.839 Z87.364 F1198.
N1058 X.015 F1198.
N1059 X599.985 F1198.
N1060 X601.998 F1198.
N1061 Y26.039 Z87.6 F1198.
N1062 X599.985 F1198.
N1063 X.015 F1198.
N1064 X-1.998 F1198.
N1065 Y26.238 Z87.837 F1198.
N1066 X.015 F1198.
N1067 X599.985 F1198.
N1068 X601.998 F1198.
N1069 Y26.438 Z88.073 F1198.
N1070 X599.985 F1198.
N1071 X.015 F1198.
N1072 X-1.998 F1198.
N1073 Y26.638 Z88.309 F1198.
N1074 X.015 F1198.
N1075 X599.985 F1198.
N1076 X601.998 F1198.
N1077 Y26.838 Z88.546 F1198.
N1078 X599.985 F1198.
N1079 X.015 F1198.
N1080 X-1.998 F1198.
N1081 Y27.038 Z88.782 F1198.
N1082 X.015 F1198.
N1083 X599.985 F1198.
N1084 X601.998 F1198.
N1085 Y27.237 Z89.018 F1198.
N1086 X599.985 F1198.
N1087 X.015 F1198.
N1088 X-1.998 F1198.
N1089 Y27.437 Z89.255 F1198.
N1090 X.015 F1198.
N1091 X599.985 F1198.
N1092 X601.998 F1198.
N1093 Y27.637 Z89.491 F1198.
N1094 X599.985 F1198.
N1095 X.015 F1198.
N1096 X-1.998 F1198.
N1097 Y27.837 Z89.727 F1198.
N1098 X.015 F1198.
N1099 X599.985 F1198.
N1100 X601.998 F1198.
N1101 Y28.036 Z89.964 F1198.
N1102 X599.985 F1198.
N1103 X.015 F1198.
N1104 X-1.998 F1198.
N1105 Y28.236 Z90.2 F1198.
N1106 X.015 F1198.
N1107 X599.985 F1198.
N1108 X601.998 F1198.
N1109 Y28.436 Z90.437 F1198.
N1110 X599.985 F1198.
N1111 X.015 F1198.
N1112 X-1.998 F1198.
N1113 Y28.636 Z90.673 F1198.
N1114 X.015 F1198.
N1115 X599.985 F1198.
N1116 X601.998 F1198.
N1117 Y28.836 Z90.909 F1198.
N1118 X599.985 F1198.
N1119 X.015 F1198.
N1120 X-1.998 F1198.
N1121 Y29.035 Z91.146 F1198.
N1122 X.015 F1198.
N1123 X599.985 F1198.
N1124 X601.998 F1198.
N1125 Y29.235 Z91.382 F1198.
N1126 X599.985 F1198.
N1127 X.015 F1198.
N1128 X-1.998 F1198.
N1129 Y29.435 Z91.618 F1198.
N1130 X.015 F1198.
N1131 X599.985 F1198.
N1132 X601.998 F1198.
N1133 Y29.635 Z91.855 F1198.
N1134 X599.985 F1198.
N1135 X.015 F1198.
N1136 X-1.998 F1198.
N1137 Y29.834 Z92.091 F1198.
N1138 X.015 F1198.
N1139 X599.985 F1198.
N1140 X601.998 F1198.
N1141 Y30.034 Z92.327 F1198.
N1142 X599.985 F1198.
N1143 X.015 F1198.
N1144 X-1.998 F1198.
N1145 Y30.234 Z92.564 F1198.
N1146 X.015 F1198.
N1147 X599.985 F1198.
N1148 X601.998 F1198.
N1149 Y30.434 Z92.8 F1198.
N1150 X599.985 F1198.
N1151 X.015 F1198.
N1152 X-1.998 F1198.
N1153 Y30.633 Z93.036 F1198.
N1154 X.015 F1198.
N1155 X599.985 F1198.
N1156 X601.998 F1198.
N1157 Y30.833 Z93.273 F1198.
N1158 X599.985 F1198.
N1159 X.015 F1198.
N1160 X-1.998 F1198.
N1161 Y31.033 Z93.509 F1198.
N1162 X.015 F1198.
N1163 X599.985 F1198.
N1164 X601.998 F1198.
N1165 Y31.233 Z93.746 F1198.
N1166 X599.985 F1198.
N1167 X.015 F1198.
N1168 X-1.998 F1198.
N1169 Y31.433 Z93.982 F1198.
N1170 X.015 F1198.
N1171 X599.985 F1198.
N1172 X601.998 F1198.
N1173 Y31.632 Z94.218 F1198.
N1174 X599.985 F1198.
N1175 X.015 F1198.
N1176 X-1.998 F1198.
N1177 Y31.832 Z94.455 F1198.
N1178 X.015 F1198.
N1179 X599.985 F1198.
N1180 X601.998 F1198.
N1181 Y32.032 Z94.691 F1198.
N1182 X599.985 F1198.
N1183 X.015 F1198.
N1184 X-1.998 F1198.
N1185 Y32.232 Z94.927 F1198.
N1186 X.015 F1198.
N1187 X599.985 F1198.
N1188 X601.998 F1198.
N1189 Y32.431 Z95.164 F1198.
N1190 X599.985 F1198.
N1191 X.015 F1198.
N1192 X-1.998 F1198.
N1193 Y32.631 Z95.4 F1198.
N1194 X.015 F1198.
N1195 X599.985 F1198.
N1196 X601.998 F1198.
N1197 Y32.831 Z95.636 F1198.
N1198 X599.985 F1198.
N1199 X.015 F1198.
N1200 X-1.998 F1198.
N1201 Y33.031 Z95.873 F1198.
N1202 X.015 F1198.
N1203 X599.985 F1198.
N1204 X601.998 F1198.
N1205 Y33.231 Z96.109 F1198.
N1206 X599.985 F1198.
N1207 X.015 F1198.
N1208 X-1.998 F1198.
N1209 Y33.43 Z96.346 F1198.
N1210 X.015 F1198.
N1211 X599.985 F1198.
N1212 X601.998 F1198.
N1213 Y33.63 Z96.582 F1198.
N1214 X599.985 F1198.
N1215 X.015 F1198.
N1216 X-1.998 F1198.
N1217 Y33.83 Z96.818 F1198.
N1218 X.015 F1198.
N1219 X599.985 F1198.
N1220 X601.998 F1198.
N1221 Y34.03 Z97.055 F1198.
N1222 X599.985 F1198.
N1223 X.015 F1198.
N1224 X-1.998 F1198.
N1225 Y34.229 Z97.291 F1198.
N1226 X.015 F1198.
N1227 X599.985 F1198.
N1228 X601.998 F1198.
N1229 Y34.429 Z97.527 F1198.
N1230 X599.985 F1198.
N1231 X.015 F1198.
N1232 X-1.998 F1198.
N1233 Y34.629 Z97.764 F1198.
N1234 X.015 F1198.
N1235 X599.985 F1198.
N1236 X601.998 F1198.
N1237 Y34.829 Z98. F1198.
N1238 X599.985 F1198.
N1239 X.015 F1198.
N1240 X-1.998 F1198.
N1241 Y35.029 Z98.236 F1198.
N1242 X.015 F1198.
N1243 X599.985 F1198.
N1244 X601.998 F1198.
N1245 Y35.228 Z98.473 F1198.
N1246 X599.985 F1198.
N1247 X.015 F1198.
N1248 X-1.998 F1198.
N1249 Y35.428 Z98.709 F1198.
N1250 X.015 F1198.
N1251 X599.985 F1198.
N1252 X601.998 F1198.
N1253 Y35.628 Z98.945 F1198.
N1254 X599.985 F1198.
N1255 X.015 F1198.
N1256 X-1.998 F1198.
N1257 Y35.828 Z99.182 F1198.
N1258 X.015 F1198.
N1259 X599.985 F1198.
N1260 X601.998 F1198.
N1261 Y36.027 Z99.418 F1198.
N1262 X599.985 F1198.
N1263 X.015 F1198.
N1264 X-1.998 F1198.
N1265 Y36.227 Z99.655 F1198.
N1266 X.015 F1198.
N1267 X599.985 F1198.
N1268 X601.998 F1198.
N1269 Y36.427 Z99.891 F1198.
N1270 X599.985 F1198.
N1271 X.015 F1198.
N1272 X-1.998 F1198.
N1273 Y36.627 Z100.127 F1198.
N1274 X.015 F1198.
N1275 X599.985 F1198.
N1276 X601.998 F1198.
N1277 Y36.827 Z100.364 F1198.
N1278 X599.985 F1198.
N1279 X.015 F1198.
N1280 X-1.998 F1198.
N1281 Y37.026 Z100.6 F1198.
N1282 X.015 F1198.
N1283 X599.985 F1198.
N1284 X601.998 F1198.
N1285 Y37.226 Z100.836 F1198.
N1286 X599.985 F1198.
N1287 X.015 F1198.
N1288 X-1.998 F1198.
N1289 Y37.426 Z101.073 F1198.
N1290 X.015 F1198.
N1291 X599.985 F1198.
N1292 X601.998 F1198.
N1293 Y37.626 Z101.309 F1198.
N1294 X599.985 F1198.
N1295 X.015 F1198.
N1296 X-1.998 F1198.
N1297 Y37.825 Z101.545 F1198.
N1298 X.015 F1198.
N1299 X599.985 F1198.
N1300 X601.998 F1198.
N1301 Y38.025 Z101.782 F1198.
N1302 X599.985 F1198.
N1303 X.015 F1198.
N1304 X-1.998 F1198.
N1305 Y38.225 Z102.018 F1198.
N1306 X.015 F1198.
N1307 X599.985 F1198.
N1308 X601.998 F1198.
N1309 Y38.425 Z102.254 F1198.
N1310 X599.985 F1198.
N1311 X.015 F1198.
N1312 X-1.998 F1198.
N1313 Y38.625 Z102.491 F1198.
N1314 X.015 F1198.
N1315 X599.985 F1198.
N1316 X601.998 F1198.
N1317 Y38.824 Z102.727 F1198.
N1318 X599.985 F1198.
N1319 X.015 F1198.
N1320 X-1.998 F1198.
N1321 Y39.024 Z102.964 F1198.
N1322 X.015 F1198.
N1323 X599.985 F1198.
N1324 X601.998 F1198.
N1325 Y39.224 Z103.2 F1198.
N1326 X599.985 F1198.
N1327 X.015 F1198.
N1328 X-1.998 F1198.
N1329 Y39.424 Z103.436 F1198.
N1330 X.015 F1198.
N1331 X599.985 F1198.
N1332 X601.998 F1198.
N1333 Y39.623 Z103.673 F1198.
N1334 X599.985 F1198.
N1335 X.015 F1198.
N1336 X-1.998 F1198.
N1337 Y39.823 Z103.909 F1198.
N1338 X.015 F1198.
N1339 X599.985 F1198.
N1340 X601.998 F1198.
N1341 Y40.023 Z104.145 F1198.
N1342 X599.985 F1198.
N1343 X.015 F1198.
N1344 X-1.998 F1198.
N1345 Y40.223 Z104.382 F1198.
N1346 X.015 F1198.
N1347 X599.985 F1198.
N1348 X601.998 F1198.
N1349 Y40.423 Z104.618 F1198.
N1350 X599.985 F1198.
N1351 X.015 F1198.
N1352 X-1.998 F1198.
N1353 Y40.622 Z104.854 F1198.
N1354 X.015 F1198.
N1355 X599.985 F1198.
N1356 X601.998 F1198.
N1357 Y40.822 Z105.091 F1198.
N1358 X599.985 F1198.
N1359 X.015 F1198.
N1360 X-1.998 F1198.
N1361 Y41.022 Z105.327 F1198.
N1362 X.015 F1198.
N1363 X599.985 F1198.
N1364 X601.998 F1198.
N1365 Y41.222 Z105.564 F1198.
N1366 X599.985 F1198.
N1367 X.015 F1198.
N1368 X-1.998 F1198.
N1369 Y41.421 Z105.8 F1198.
N1370 X.015 F1198.
N1371 X599.985 F1198.
N1372 X601.998 F1198.
N1373 Y41.621 Z106.036 F1198.
N1374 X599.985 F1198.
N1375 X.015 F1198.
N1376 X-1.998 F1198.
N1377 Y41.821 Z106.273 F1198.
N1378 X.015 F1198.
N1379 X599.985 F1198.
N1380 X601.998 F1198.
N1381 Y42.021 Z106.509 F1198.
N1382 X599.985 F1198.
N1383 X.015 F1198.
N1384 X-1.998 F1198.
N1385 Y42.221 Z106.745 F1198.
N1386 X.015 F1198.
N1387 X599.985 F1198.
N1388 X601.998 F1198.
N1389 Y42.42 Z106.982 F1198.
N1390 X599.985 F1198.
N1391 X.015 F1198.
N1392 X-1.998 F1198.
N1393 Y42.62 Z107.218 F1198.
N1394 X.015 F1198.
N1395 X599.985 F1198.
N1396 X601.998 F1198.
N1397 Y42.82 Z107.454 F1198.
N1398 X599.985 F1198.
N1399 X.015 F1198.
N1400 X-1.998 F1198.
N1401 Y43.02 Z107.691 F1198.
N1402 X.015 F1198.
N1403 X599.985 F1198.
N1404 X601.998 F1198.
N1405 Y43.219 Z107.927 F1198.
N1406 X599.985 F1198.
N1407 X.015 F1198.
N1408 X-1.998 F1198.
N1409 Y43.419 Z108.163 F1198.
N1410 X.015 F1198.
N1411 X599.985 F1198.
N1412 X601.998 F1198.
N1413 Y43.619 Z108.4 F1198.
N1414 X599.985 F1198.
N1415 X.015 F1198.
N1416 X-1.998 F1198.
N1417 Y43.819 Z108.636 F1198.
N1418 X.015 F1198.
N1419 X599.985 F1198.
N1420 X601.998 F1198.
N1421 Y44.018 Z108.873 F1198.
N1422 X599.985 F1198.
N1423 X.015 F1198.
N1424 X-1.998 F1198.
N1425 Y44.218 Z109.109 F1198.
N1426 X.015 F1198.
N1427 X599.985 F1198.
N1428 X601.998 F1198.
N1429 Y44.418 Z109.345 F1198.
N1430 X599.985 F1198.
N1431 X.015 F1198.
N1432 X-1.998 F1198.
N1433 Y44.618 Z109.582 F1198.
N1434 X.015 F1198.
N1435 X599.985 F1198.
N1436 X601.998 F1198.
N1437 Y44.818 Z109.818 F1198.
N1438 X599.985 F1198.
N1439 X.015 F1198.
N1440 X-1.998 F1198.
N1441 Y45.017 Z110.054 F1198.
N1442 X.015 F1198.
N1443 X599.985 F1198.
N1444 X601.998 F1198.
N1445 Y45.217 Z110.291 F1198.
N1446 X599.985 F1198.
N1447 X.015 F1198.
N1448 X-1.998 F1198.
N1449 Y45.417 Z110.527 F1198.
N1450 X.015 F1198.
N1451 X599.985 F1198.
N1452 X601.998 F1198.
N1453 Y45.617 Z110.763 F1198.
N1454 X599.985 F1198.
N1455 X.015 F1198.
N1456 X-1.998 F1198.
N1457 Y45.816 Z111. F1198.
N1458 X.015 F1198.
N1459 X599.985 F1198.
N1460 X601.998 F1198.
N1461 Y46.016 Z111.236 F1198.
N1462 X599.985 F1198.
N1463 X.015 F1198.
N1464 X-1.998 F1198.
N1465 Y46.216 Z111.473 F1198.
N1466 X.015 F1198.
N1467 X599.985 F1198.
N1468 X601.998 F1198.
N1469 Y46.416 Z111.709 F1198.
N1470 X599.985 F1198.
N1471 X.015 F1198.
N1472 X-1.998 F1198.
N1473 Y46.616 Z111.945 F1198.
N1474 X.015 F1198.
N1475 X599.985 F1198.
N1476 X601.998 F1198.
N1477 Y46.815 Z112.182 F1198.
N1478 X599.985 F1198.
N1479 X.015 F1198.
N1480 X-1.998 F1198.
N1481 Y47.015 Z112.418 F1198.
N1482 X.015 F1198.
N1483 X599.985 F1198.
N1484 X601.998 F1198.
N1485 Y47.215 Z112.654 F1198.
N1486 X599.985 F1198.
N1487 X.015 F1198.
N1488 X-1.998 F1198.
N1489 Y47.415 Z112.891 F1198.
N1490 X.015 F1198.
N1491 X599.985 F1198.
N1492 X601.998 F1198.
N1493 Y47.614 Z113.127 F1198.
N1494 X599.985 F1198.
N1495 X.015 F1198.
N1496 X-1.998 F1198.
N1497 Y47.814 Z113.363 F1198.
N1498 X.015 F1198.
N1499 X599.985 F1198.
N1500 X601.998 F1198.
N1501 Y48.014 Z113.6 F1198.
N1502 X599.985 F1198.
N1503 X.015 F1198.
N1504 X-1.998 F1198.
N1505 Y48.214 Z113.836 F1198.
N1506 X.015 F1198.
N1507 X599.985 F1198.
N1508 X601.998 F1198.
N1509 Y48.414 Z114.072 F1198.
N1510 X599.985 F1198.
N1511 X.015 F1198.
N1512 X-1.998 F1198.
N1513 Y48.613 Z114.309 F1198.
N1514 X.015 F1198.
N1515 X599.985 F1198.
N1516 X601.998 F1198.
N1517 Y48.813 Z114.545 F1198.
N1518 X599.985 F1198.
N1519 X.015 F1198.
N1520 X-1.998 F1198.
N1521 Y49.013 Z114.782 F1198.
N1522 X.015 F1198.
N1523 X599.985 F1198.
N1524 X601.998 F1198.
N1525 Y49.213 Z115.018 F1198.
N1526 X599.985 F1198.
N1527 X.015 F1198.
N1528 X-1.998 F1198.
N1529 Y49.412 Z115.254 F1198.
N1530 X.015 F1198.
N1531 X599.985 F1198.
N1532 X601.998 F1198.
N1533 Y49.612 Z115.491 F1198.
N1534 X599.985 F1198.
N1535 X.015 F1198.
N1536 X-1.998 F1198.
N1537 Y49.812 Z115.727 F1198.
N1538 X.015 F1198.
N1539 X599.985 F1198.
N1540 X601.998 F1198.
N1541 Y50.012 Z115.963 F1198.
N1542 X599.985 F1198.
N1543 X.015 F1198.
N1544 X-1.998 F1198.
N1545 Y50.212 Z116.2 F1198.
N1546 X.015 F1198.
N1547 X599.985 F1198.
N1548 X601.998 F1198.
N1549 Y50.411 Z116.436 F1198.
N1550 X599.985 F1198.
N1551 X.015 F1198.
N1552 X-1.998 F1198.
N1553 Y50.611 Z116.672 F1198.
N1554 X.015 F1198.
N1555 X599.985 F1198.
N1556 X601.998 F1198.
N1557 Y50.811 Z116.909 F1198.
N1558 X599.985 F1198.
N1559 X.015 F1198.
N1560 X-1.998 F1198.
N1561 Y51.011 Z117.145 F1198.
N1562 X.015 F1198.
N1563 X599.985 F1198.
N1564 X601.998 F1198.
N1565 Y51.21 Z117.382 F1198.
N1566 X599.985 F1198.
N1567 X.015 F1198.
N1568 X-1.998 F1198.
N1569 Y51.41 Z117.618 F1198.
N1570 X.015 F1198.
N1571 X599.985 F1198.
N1572 X601.998 F1198.
N1573 Y51.61 Z117.854 F1198.
N1574 X599.985 F1198.
N1575 X.015 F1198.
N1576 X-1.998 F1198.
N1577 Y51.81 Z118.091 F1198.
N1578 X.015 F1198.
N1579 X599.985 F1198.
N1580 X601.998 F1198.
N1581 Y52.01 Z118.327 F1198.
N1582 X599.985 F1198.
N1583 X.015 F1198.
N1584 X-1.998 F1198.
N1585 Y52.209 Z118.563 F1198.
N1586 X.015 F1198.
N1587 X599.985 F1198.
N1588 X601.998 F1198.
N1589 Y52.409 Z118.8 F1198.
N1590 X599.985 F1198.
N1591 X.015 F1198.
N1592 X-1.998 F1198.
N1593 Y52.609 Z119.036 F1198.
N1594 X.015 F1198.
N1595 X599.985 F1198.
N1596 X601.998 F1198.
N1597 Y52.809 Z119.272 F1198.
N1598 X599.985 F1198.
N1599 X.015 F1198.
N1600 X-1.998 F1198.
N1601 Y53.008 Z119.509 F1198.
N1602 X.015 F1198.
N1603 X599.985 F1198.
N1604 X601.998 F1198.
N1605 Y53.208 Z119.745 F1198.
N1606 X599.985 F1198.
N1607 X.015 F1198.
N1608 X-1.998 F1198.
N1609 Y53.408 Z119.981 F1198.
N1610 X.015 F1198.
N1611 X599.985 F1198.
N1612 X601.998 F1198.
N1613 Y53.608 Z120.218 F1198.
N1614 X599.985 F1198.
N1615 X.015 F1198.
N1616 X-1.998 F1198.
N1617 Y53.808 Z120.454 F1198.
N1618 X.015 F1198.
N1619 X599.985 F1198.
N1620 X601.998 F1198.
N1621 Y54.007 Z120.691 F1198.
N1622 X599.985 F1198.
N1623 X.015 F1198.
N1624 X-1.998 F1198.
N1625 Y54.207 Z120.927 F1198.
N1626 X.015 F1198.
N1627 X599.985 F1198.
N1628 X601.998 F1198.
N1629 Y54.407 Z121.163 F1198.
N1630 X599.985 F1198.
N1631 X.015 F1198.
N1632 X-1.998 F1198.
N1633 Y54.607 Z121.4 F1198.
N1634 X.015 F1198.
N1635 X599.985 F1198.
N1636 X601.998 F1198.
N1637 Y54.806 Z121.636 F1198.
N1638 X599.985 F1198.
N1639 X.015 F1198.
N1640 X-1.998 F1198.
N1641 Y55.006 Z121.872 F1198.
N1642 X.015 F1198.
N1643 X599.985 F1198.
N1644 X601.998 F1198.
N1645 Y55.206 Z122.109 F1198.
N1646 X599.985 F1198.
N1647 X.015 F1198.
N1648 X-1.998 F1198.
N1649 Y55.406 Z122.345 F1198.
N1650 X.015 F1198.
N1651 X599.985 F1198.
N1652 X601.998 F1198.
N1653 Y55.606 Z122.581 F1198.
N1654 X599.985 F1198.
N1655 X.015 F1198.
N1656 X-1.998 F1198.
N1657 Y55.805 Z122.818 F1198.
N1658 X.015 F1198.
N1659 X599.985 F1198.
N1660 X601.998 F1198.
N1661 Y56.005 Z123.054 F1198.
N1662 X599.985 F1198.
N1663 X.015 F1198.
N1664 X-1.998 F1198.
N1665 Y56.205 Z123.291 F1198.
N1666 X.015 F1198.
N1667 X599.985 F1198.
N1668 X601.998 F1198.
N1669 Y56.405 Z123.527 F1198.
N1670 X599.985 F1198.
N1671 X.015 F1198.
N1672 X-1.998 F1198.
N1673 Y56.604 Z123.763 F1198.
N1674 X.015 F1198.
N1675 X599.985 F1198.
N1676 X601.998 F1198.
N1677 Y56.804 Z124. F1198.
N1678 X599.985 F1198.
N1679 X.015 F1198.
N1680 X-1.998 F1198.
N1681 Y57.004 Z124.236 F1198.
N1682 X.015 F1198.
N1683 X599.985 F1198.
N1684 X601.998 F1198.
N1685 Y57.204 Z124.472 F1198.
N1686 X599.985 F1198.
N1687 X.015 F1198.
N1688 X-1.998 F1198.
N1689 Y57.403 Z124.709 F1198.
N1690 X.015 F1198.
N1691 X599.985 F1198.
N1692 X601.998 F1198.
N1693 Y57.603 Z124.945 F1198.
N1694 X599.985 F1198.
N1695 X.015 F1198.
N1696 X-1.998 F1198.
N1697 Y57.803 Z125.181 F1198.
N1698 X.015 F1198.
N1699 X599.985 F1198.
N1700 X601.998 F1198.
N1701 Y58.003 Z125.418 F1198.
N1702 X599.985 F1198.
N1703 X.015 F1198.
N1704 X-1.998 F1198.
N1705 Y58.203 Z125.654 F1198.
N1706 X.015 F1198.
N1707 X599.985 F1198.
N1708 X601.998 F1198.
N1709 Y58.402 Z125.89 F1198.
N1710 X599.985 F1198.
N1711 X.015 F1198.
N1712 X-1.998 F1198.
N1713 Y58.602 Z126.127 F1198.
N1714 X.015 F1198.
N1715 X599.985 F1198.
N1716 X601.998 F1198.
N1717 Y58.802 Z126.363 F1198.
N1718 X599.985 F1198.
N1719 X.015 F1198.
N1720 X-1.998 F1198.
N1721 Y59.002 Z126.6 F1198.
N1722 X.015 F1198.
N1723 X599.985 F1198.
N1724 X601.998 F1198.
N1725 Y59.201 Z126.836 F1198.
N1726 X599.985 F1198.
N1727 X.015 F1198.
N1728 X-1.998 F1198.
N1729 Y59.401 Z127.072 F1198.
N1730 X.015 F1198.
N1731 X599.985 F1198.
N1732 X601.998 F1198.
N1733 Y59.601 Z127.309 F1198.
N1734 X599.985 F1198.
N1735 X.015 F1198.
N1736 X-1.998 F1198.
N1737 Y59.801 Z127.545 F1198.
N1738 X.015 F1198.
N1739 X599.985 F1198.
N1740 X601.998 F1198.
N1741 Y60.001 Z127.781 F1198.
N1742 X599.985 F1198.
N1743 X.015 F1198.
N1744 X-1.998 F1198.
N1745 Y60.2 Z128.018 F1198.
N1746 X.015 F1198.
N1747 X599.985 F1198.
N1748 X601.998 F1198.
N1749 Y60.4 Z128.254 F1198.
N1750 X599.985 F1198.
N1751 X.015 F1198.
N1752 X-1.998 F1198.
N1753 Y60.6 Z128.49 F1198.
N1754 X.015 F1198.
N1755 X599.985 F1198.
N1756 X601.998 F1198.
N1757 Y60.8 Z128.727 F1198.
N1758 X599.985 F1198.
N1759 X.015 F1198.
N1760 X-1.998 F1198.
N1761 Y60.999 Z128.963 F1198.
N1762 X.015 F1198.
N1763 X599.985 F1198.
N1764 X601.998 F1198.
N1765 Y61.199 Z129.2 F1198.
N1766 X599.985 F1198.
N1767 X.015 F1198.
N1768 X-1.998 F1198.
N1769 Y61.399 Z129.436 F1198.
N1770 X.015 F1198.
N1771 X599.985 F1198.
N1772 X601.998 F1198.
N1773 Y61.599 Z129.672 F1198.
N1774 X599.985 F1198.
N1775 X.015 F1198.
N1776 X-1.998 F1198.
N1777 Y61.799 Z129.909 F1198.
N1778 X.015 F1198.
N1779 X599.985 F1198.
N1780 X601.998 F1198.
N1781 Y61.998 Z130.145 F1198.
N1782 X599.985 F1198.
N1783 X.015 F1198.
N1784 X-1.998 F1198.
N1785 Y62.198 Z130.381 F1198.
N1786 X.015 F1198.
N1787 X599.985 F1198.
N1788 X601.998 F1198.
N1789 Y62.398 Z130.618 F1198.
N1790 X599.985 F1198.
N1791 X.015 F1198.
N1792 X-1.998 F1198.
N1793 Y62.598 Z130.854 F1198.
N1794 X.015 F1198.
N1795 X599.985 F1198.
N1796 X601.998 F1198.
N1797 Y62.797 Z131.09 F1198.
N1798 X599.985 F1198.
N1799 X.015 F1198.
N1800 X-1.998 F1198.
N1801 Y62.997 Z131.327 F1198.
N1802 X.015 F1198.
N1803 X599.985 F1198.
N1804 X601.998 F1198.
N1805 Y63.197 Z131.563 F1198.
N1806 X599.985 F1198.
N1807 X.015 F1198.
N1808 X-1.998 F1198.
N1809 Y63.397 Z131.799 F1198.
N1810 X.015 F1198.
N1811 X599.985 F1198.
N1812 X601.998 F1198.
N1813 Y63.597 Z132.036 F1198.
N1814 X599.985 F1198.
N1815 X.015 F1198.
N1816 X-1.998 F1198.
N1817 Y63.796 Z132.272 F1198.
N1818 X.015 F1198.
N1819 X599.985 F1198.
N1820 X601.998 F1198.
N1821 Y63.996 Z132.509 F1198.
N1822 X599.985 F1198.
N1823 X.015 F1198.
N1824 X-1.998 F1198.
N1825 Y64.196 Z132.745 F1198.
N1826 X.015 F1198.
N1827 X599.985 F1198.
N1828 X601.998 F1198.
N1829 Y64.396 Z132.981 F1198.
N1830 X599.985 F1198.
N1831 X.015 F1198.
N1832 X-1.998 F1198.
N1833 Y64.595 Z133.218 F1198.
N1834 X.015 F1198.
N1835 X599.985 F1198.
N1836 X601.998 F1198.
N1837 Y64.795 Z133.454 F1198.
N1838 X599.985 F1198.
N1839 X.015 F1198.
N1840 X-1.998 F1198.
N1841 Y64.995 Z133.69 F1198.
N1842 X.015 F1198.
N1843 X599.985 F1198.
N1844 X601.998 F1198.
N1845 Y65.195 Z133.927 F1198.
N1846 X599.985 F1198.
N1847 X.015 F1198.
N1848 X-1.998 F1198.
N1849 Y65.395 Z134.163 F1198.
N1850 X.015 F1198.
N1851 X599.985 F1198.
N1852 X601.998 F1198.
N1853 Y65.594 Z134.399 F1198.
N1854 X599.985 F1198.
N1855 X.015 F1198.
N1856 X-1.998 F1198.
N1857 Y65.794 Z134.636 F1198.
N1858 X.015 F1198.
N1859 X599.985 F1198.
N1860 X601.998 F1198.
N1861 Y65.994 Z134.872 F1198.
N1862 X599.985 F1198.
N1863 X.015 F1198.
N1864 X-1.998 F1198.
N1865 Y66.194 Z135.109 F1198.
N1866 X.015 F1198.
N1867 X599.985 F1198.
N1868 X601.998 F1198.
N1869 Y66.393 Z135.345 F1198.
N1870 X599.985 F1198.
N1871 X.015 F1198.
N1872 X-1.998 F1198.
N1873 Y66.593 Z135.581 F1198.
N1874 X.015 F1198.
N1875 X599.985 F1198.
N1876 X601.998 F1198.
N1877 Y66.793 Z135.818 F1198.
N1878 X599.985 F1198.
N1879 X.015 F1198.
N1880 X-1.998 F1198.
N1881 Y66.993 Z136.054 F1198.
N1882 X.015 F1198.
N1883 X599.985 F1198.
N1884 X601.998 F1198.
N1885 Y67.193 Z136.29 F1198.
N1886 X599.985 F1198.
N1887 X.015 F1198.
N1888 X-1.998 F1198.
N1889 Y67.392 Z136.527 F1198.
N1890 X.015 F1198.
N1891 X599.985 F1198.
N1892 X601.998 F1198.
N1893 Y67.592 Z136.763 F1198.
N1894 X599.985 F1198.
N1895 X.015 F1198.
N1896 X-1.998 F1198.
N1897 Y67.792 Z136.999 F1198.
N1898 X.015 F1198.
N1899 X599.985 F1198.
N1900 X601.998 F1198.
N1901 Y67.992 Z137.236 F1198.
N1902 X599.985 F1198.
N1903 X.015 F1198.
N1904 X-1.998 F1198.
N1905 Y68.191 Z137.472 F1198.
N1906 X.015 F1198.
N1907 X599.985 F1198.
N1908 X601.998 F1198.
N1909 Y68.391 Z137.708 F1198.
N1910 X599.985 F1198.
N1911 X.015 F1198.
N1912 X-1.998 F1198.
N1913 Y68.591 Z137.945 F1198.
N1914 X.015 F1198.
N1915 X599.985 F1198.
N1916 X601.998 F1198.
N1917 Y68.791 Z138.181 F1198.
N1918 X599.985 F1198.
N1919 X.015 F1198.
N1920 X-1.998 F1198.
N1921 Y68.991 Z138.418 F1198.
N1922 X.015 F1198.
N1923 X599.985 F1198.
N1924 X601.998 F1198.
N1925 Y69.19 Z138.654 F1198.
N1926 X599.985 F1198.
N1927 X.015 F1198.
N1928 X-1.998 F1198.
N1929 Y69.39 Z138.89 F1198.
N1930 X.015 F1198.
N1931 X599.985 F1198.
N1932 X601.998 F1198.
N1933 Y69.59 Z139.127 F1198.
N1934 X599.985 F1198.
N1935 X.015 F1198.
N1936 X-1.998 F1198.
N1937 Y69.79 Z139.363 F1198.
N1938 X.015 F1198.
N1939 X599.985 F1198.
N1940 X601.998 F1198.
N1941 Y69.989 Z139.599 F1198.
N1942 X599.985 F1198.
N1943 X.015 F1198.
N1944 X-1.998 F1198.
N1945 Y70.189 Z139.836 F1198.
N1946 X.015 F1198.
N1947 X599.985 F1198.
N1948 X601.998 F1198.
N1949 Y70.389 Z140.072 F1198.
N1950 X599.985 F1198.
N1951 X.015 F1198.
N1952 X-1.998 F1198.
N1953 Y70.589 Z140.308 F1198.
N1954 X.015 F1198.
N1955 X599.985 F1198.
N1956 X601.998 F1198.
N1957 Y70.789 Z140.545 F1198.
N1958 X599.985 F1198.
N1959 X.015 F1198.
N1960 X-1.998 F1198.
N1961 Y70.988 Z140.781 F1198.
N1962 X.015 F1198.
N1963 X599.985 F1198.
N1964 X601.998 F1198.
N1965 Y71.188 Z141.017 F1198.
N1966 X599.985 F1198.
N1967 X.015 F1198.
N1968 X-1.998 F1198.
N1969 Y71.388 Z141.254 F1198.
N1970 X.015 F1198.
N1971 X599.985 F1198.
N1972 X601.998 F1198.
N1973 Y71.588 Z141.49 F1198.
N1974 X599.985 F1198.
N1975 X.015 F1198.
N1976 X-1.998 F1198.
N1977 Y71.787 Z141.727 F1198.
N1978 X.015 F1198.
N1979 X599.985 F1198.
N1980 X601.998 F1198.
N1981 Y71.987 Z141.963 F1198.
N1982 X599.985 F1198.
N1983 X.015 F1198.
N1984 X-1.998 F1198.
N1985 Y72.187 Z142.199 F1198.
N1986 X.015 F1198.
N1987 X599.985 F1198.
N1988 X601.998 F1198.
N1989 Y72.387 Z142.436 F1198.
N1990 X599.985 F1198.
N1991 X.015 F1198.
N1992 X-1.998 F1198.
N1993 Y72.586 Z142.672 F1198.
N1994 X.015 F1198.
N1995 X599.985 F1198.
N1996 X601.998 F1198.
N1997 Y72.786 Z142.908 F1198.
N1998 X599.985 F1198.
N1999 X.015 F1198.
N2000 X-1.998 F1198.
N2001 Y72.986 Z143.145 F1198.
N2002 X.015 F1198.
N2003 X599.985 F1198.
N2004 X601.998 F1198.
N2005 Y73.186 Z143.381 F1198.
N2006 X599.985 F1198.
N2007 X.015 F1198.
N2008 X-1.998 F1198.
N2009 Y73.386 Z143.617 F1198.
N2010 X.015 F1198.
N2011 X599.985 F1198.
N2012 X601.998 F1198.
N2013 Y73.585 Z143.854 F1198.
N2014 X599.985 F1198.
N2015 X.015 F1198.
N2016 X-1.998 F1198.
N2017 Y73.785 Z144.09 F1198.
N2018 X.015 F1198.
N2019 X599.985 F1198.
N2020 X601.998 F1198.
N2021 Y73.985 Z144.327 F1198.
N2022 X599.985 F1198.
N2023 X.015 F1198.
N2024 X-1.998 F1198.
N2025 Y74.185 Z144.563 F1198.
N2026 X.015 F1198.
N2027 X599.985 F1198.
N2028 X601.998 F1198.
N2029 Y74.384 Z144.799 F1198.
N2030 X599.985 F1198.
N2031 X.015 F1198.
N2032 X-1.998 F1198.
N2033 Y74.584 Z145.036 F1198.
N2034 X.015 F1198.
N2035 X599.985 F1198.
N2036 X601.998 F1198.
N2037 Y74.784 Z145.272 F1198.
N2038 X599.985 F1198.
N2039 X.016 F1198.
N2040 X-1.998 F1198.
N2041 Y74.984 Z145.508 F1198.
N2042 X.016 F1198.
N2043 X599.985 F1198.
N2044 X601.998 F1198.
N2045 Y75.184 Z145.745 F1198.
N2046 X599.985 F1198.
N2047 X.016 F1198.
N2048 X-1.998 F1198.
N2049 Y75.383 Z145.981 F1198.
N2050 X.016 F1198.
N2051 X599.985 F1198.
N2052 X601.998 F1198.
N2053 Y75.583 Z146.217 F1198.
N2054 X599.985 F1198.
N2055 X.016 F1198.
N2056 X-1.998 F1198.
N2057 Y75.783 Z146.454 F1198.
N2058 X.016 F1198.
N2059 X599.985 F1198.
N2060 X601.998 F1198.
N2061 Y75.983 Z146.69 F1198.
N2062 X599.985 F1198.
N2063 X.016 F1198.
N2064 X-1.998 F1198.
N2065 Y76.182 Z146.926 F1198.
N2066 X.016 F1198.
N2067 X599.985 F1198.
N2068 X601.998 F1198.
N2069 Y76.382 Z147.163 F1198.
N2070 X599.985 F1198.
N2071 X.016 F1198.
N2072 X-1.998 F1198.
N2073 Y76.582 Z147.399 F1198.
N2074 X.016 F1198.
N2075 X599.985 F1198.
N2076 X601.998 F1198.
N2077 Y76.782 Z147.636 F1198.
N2078 X599.984 F1198.
N2079 X.016 F1198.
N2080 X-1.998 F1198.
N2081 Y76.982 Z147.872 F1198.
N2082 X.016 F1198.
N2083 X599.984 F1198.
N2084 X601.998 F1198.
N2085 Y77.181 Z148.108 F1198.
N2086 X599.984 F1198.
N2087 X.016 F1198.
N2088 X-1.998 F1198.
N2089 Y77.381 Z148.345 F1198.
N2090 X.016 F1198.
N2091 X599.984 F1198.
N2092 X601.998 F1198.
N2093 Y77.581 Z148.581 F1198.
N2094 X599.984 F1198.
N2095 X.016 F1198.
N2096 X-1.998 F1198.
N2097 Y77.781 Z148.817 F1198.
N2098 X.016 F1198.
N2099 X599.984 F1198.
N2100 X601.998 F1198.
N2101 Y77.98 Z149.054 F1198.
N2102 X599.984 F1198.
N2103 X.016 F1198.
N2104 X-1.998 F1198.
N2105 Y78.18 Z149.29 F1198.
N2106 X.016 F1198.
N2107 X599.984 F1198.
N2108 X601.998 F1198.
N2109 Y78.38 Z149.526 F1198.
N2110 X599.984 F1198.
N2111 X.016 F1198.
N2112 X-1.998 F1198.
N2113 Y78.58 Z149.763 F1198.
N2114 X.016 F1198.
N2115 X599.984 F1198.
N2116 X601.998 F1198.
N2117 Y78.78 Z149.999 F1198.
N2118 X599.984 F1198.
N2119 X.016 F1198.
N2120 X-1.998 F1198.
N2121 Y78.979 Z150.236 F1198.
N2122 X.016 F1198.
N2123 X599.984 F1198.
N2124 X601.998 F1198.
N2125 Y79.179 Z150.472 F1198.
N2126 X599.984 F1198.
N2127 X.016 F1198.
N2128 X-1.998 F1198.
N2129 Y79.379 Z150.708 F1198.
N2130 X.016 F1198.
N2131 X599.984 F1198.
N2132 X601.998 F1198.
N2133 Y79.579 Z150.945 F1198.
N2134 X599.984 F1198.
N2135 X.016 F1198.
N2136 X-1.998 F1198.
N2137 Y79.778 Z151.181 F1198.
N2138 X.016 F1198.
N2139 X599.984 F1198.
N2140 X601.998 F1198.
N2141 Y79.978 Z151.417 F1198.
N2142 X599.984 F1198.
N2143 X.016 F1198.
N2144 X-1.998 F1198.
N2145 Y80.178 Z151.654 F1198.
N2146 X.016 F1198.
N2147 X599.984 F1198.
N2148 X601.998 F1198.
N2149 Y80.378 Z151.89 F1198.
N2150 X599.984 F1198.
N2151 X.016 F1198.
N2152 X-1.998 F1198.
N2153 Y80.578 Z152.126 F1198.
N2154 X.016 F1198.
N2155 X599.984 F1198.
N2156 X601.998 F1198.
N2157 Y80.777 Z152.363 F1198.
N2158 X599.984 F1198.
N2159 X.016 F1198.
N2160 X-1.998 F1198.
N2161 Y80.977 Z152.599 F1198.
N2162 X.016 F1198.
N2163 X599.984 F1198.
N2164 X601.998 F1198.
N2165 Y81.177 Z152.835 F1198.
N2166 X599.984 F1198.
N2167 X.016 F1198.
N2168 X-1.998 F1198.
N2169 Y81.377 Z153.072 F1198.
N2170 X.016 F1198.
N2171 X599.984 F1198.
N2172 X601.998 F1198.
N2173 Y81.576 Z153.308 F1198.
N2174 X599.984 F1198.
N2175 X.016 F1198.
N2176 X-1.998 F1198.
N2177 Y81.776 Z153.545 F1198.
N2178 X.016 F1198.
N2179 X599.984 F1198.
N2180 X601.998 F1198.
N2181 Y81.976 Z153.781 F1198.
N2182 X599.984 F1198.
N2183 X.016 F1198.
N2184 X-1.998 F1198.
N2185 Y82.176 Z154.017 F1198.
N2186 X.016 F1198.
N2187 X599.984 F1198.
N2188 X601.998 F1198.
N2189 Y82.376 Z154.254 F1198.
N2190 X599.984 F1198.
N2191 X.016 F1198.
N2192 X-1.998 F1198.
N2193 Y82.575 Z154.49 F1198.
N2194 X.016 F1198.
N2195 X599.984 F1198.
N2196 X601.998 F1198.
N2197 Y82.775 Z154.726 F1198.
N2198 X599.984 F1198.
N2199 X.016 F1198.
N2200 X-1.998 F1198.
N2201 Y82.975 Z154.963 F1198.
N2202 X.016 F1198.
N2203 X599.984 F1198.
N2204 X601.998 F1198.
N2205 Y83.175 Z155.199 F1198.
N2206 X599.984 F1198.
N2207 X.016 F1198.
N2208 X-1.998 F1198.
N2209 Y83.374 Z155.435 F1198.
N2210 X.016 F1198.
N2211 X599.984 F1198.
N2212 X601.998 F1198.
N2213 Y83.574 Z155.672 F1198.
N2214 X599.984 F1198.
N2215 X.016 F1198.
N2216 X-1.998 F1198.
N2217 Y83.774 Z155.908 F1198.
N2218 X.016 F1198.
N2219 X599.984 F1198.
N2220 X601.998 F1198.
N2221 Y83.974 Z156.145 F1198.
N2222 X599.984 F1198.
N2223 X.016 F1198.
N2224 X-1.998 F1198.
N2225 Y84.174 Z156.381 F1198.
N2226 X.016 F1198.
N2227 X599.984 F1198.
N2228 X601.998 F1198.
N2229 Y84.373 Z156.617 F1198.
N2230 X599.984 F1198.
N2231 X.016 F1198.
N2232 X-1.998 F1198.
N2233 Y84.573 Z156.854 F1198.
N2234 X.016 F1198.
N2235 X599.984 F1198.
N2236 X601.998 F1198.
N2237 Y84.773 Z157.09 F1198.
N2238 X599.984 F1198.
N2239 X.016 F1198.
N2240 X-1.998 F1198.
N2241 Y84.973 Z157.326 F1198.
N2242 X.016 F1198.
N2243 X599.984 F1198.
N2244 X601.998 F1198.
N2245 Y85.172 Z157.563 F1198.
N2246 X599.984 F1198.
N2247 X.016 F1198.
N2248 X-1.998 F1198.
N2249 Y85.372 Z157.799 F1198.
N2250 X.016 F1198.
N2251 X599.984 F1198.
N2252 X601.998 F1198.
N2253 Y85.572 Z158.035 F1198.
N2254 X599.984 F1198.
N2255 X.016 F1198.
N2256 X-1.998 F1198.
N2257 Y85.772 Z158.272 F1198.
N2258 X.016 F1198.
N2259 X599.984 F1198.
N2260 X601.998 F1198.
N2261 Y85.971 Z158.508 F1198.
N2262 X599.984 F1198.
N2263 X.016 F1198.
N2264 X-1.998 F1198.
N2265 Y86.171 Z158.744 F1198.
N2266 X.016 F1198.
N2267 X599.984 F1198.
N2268 X601.998 F1198.
N2269 Y86.371 Z158.981 F1198.
N2270 X599.984 F1198.
N2271 X.016 F1198.
N2272 X-1.998 F1198.
N2273 Y86.571 Z159.217 F1198.
N2274 X.016 F1198.
N2275 X599.984 F1198.
N2276 X601.998 F1198.
N2277 Y86.771 Z159.454 F1198.
N2278 X599.984 F1198.
N2279 X.016 F1198.
N2280 X-1.998 F1198.
N2281 Y86.97 Z159.69 F1198.
N2282 X.016 F1198.
N2283 X599.984 F1198.
N2284 X601.998 F1198.
N2285 Y87.17 Z159.926 F1198.
N2286 X599.984 F1198.
N2287 X.016 F1198.
N2288 X-1.998 F1198.
N2289 Y87.37 Z160.163 F1198.
N2290 X.016 F1198.
N2291 X599.984 F1198.
N2292 X601.998 F1198.
N2293 Y87.57 Z160.399 F1198.
N2294 X599.984 F1198.
N2295 X.016 F1198.
N2296 X-1.998 F1198.
N2297 Y87.769 Z160.635 F1198.
N2298 X.016 F1198.
N2299 X599.984 F1198.
N2300 X601.998 F1198.
N2301 Y87.969 Z160.872 F1198.
N2302 X599.984 F1198.
N2303 X.016 F1198.
N2304 X-1.998 F1198.
N2305 Y88.169 Z161.108 F1198.
N2306 X.016 F1198.
N2307 X599.984 F1198.
N2308 X601.998 F1198.
N2309 Y88.369 Z161.344 F1198.
N2310 X599.984 F1198.
N2311 X.016 F1198.
N2312 X-1.998 F1198.
N2313 Y88.569 Z161.581 F1198.
N2314 X.016 F1198.
N2315 X599.984 F1198.
N2316 X601.998 F1198.
N2317 Y88.768 Z161.817 F1198.
N2318 X599.984 F1198.
N2319 X.016 F1198.
N2320 X-1.998 F1198.
N2321 Y88.968 Z162.054 F1198.
N2322 X.016 F1198.
N2323 X599.984 F1198.
N2324 X601.998 F1198.
N2325 Y89.168 Z162.29 F1198.
N2326 X599.984 F1198.
N2327 X.016 F1198.
N2328 X-1.998 F1198.
N2329 Y89.368 Z162.526 F1198.
N2330 X.016 F1198.
N2331 X599.984 F1198.
N2332 X601.998 F1198.
N2333 Y89.567 Z162.763 F1198.
N2334 X599.984 F1198.
N2335 X.016 F1198.
N2336 X-1.998 F1198.
N2337 Y89.767 Z162.999 F1198.
N2338 X.016 F1198.
N2339 X599.984 F1198.
N2340 X601.998 F1198.
N2341 Y89.967 Z163.235 F1198.
N2342 X599.984 F1198.
N2343 X.016 F1198.
N2344 X-1.998 F1198.
N2345 Y90.167 Z163.472 F1198.
N2346 X.016 F1198.
N2347 X599.984 F1198.
N2348 X601.998 F1198.
N2349 Y90.367 Z163.708 F1198.
N2350 X599.984 F1198.
N2351 X.016 F1198.
N2352 X-1.998 F1198.
N2353 Y90.566 Z163.944 F1198.
N2354 X.016 F1198.
N2355 X599.984 F1198.
N2356 X601.998 F1198.
N2357 Y90.766 Z164.181 F1198.
N2358 X599.984 F1198.
N2359 X.016 F1198.
N2360 X-1.998 F1198.
N2361 Y90.966 Z164.417 F1198.
N2362 X.016 F1198.
N2363 X599.984 F1198.
N2364 X601.998 F1198.
N2365 Y91.166 Z164.653 F1198.
N2366 X599.984 F1198.
N2367 X.016 F1198.
N2368 X-1.998 F1198.
N2369 Y91.365 Z164.89 F1198.
N2370 X.016 F1198.
N2371 X599.984 F1198.
N2372 X601.998 F1198.
N2373 Y91.565 Z165.126 F1198.
N2374 X599.984 F1198.
N2375 X.016 F1198.
N2376 X-1.998 F1198.
N2377 Y91.765 Z165.363 F1198.
N2378 X.016 F1198.
N2379 X599.984 F1198.
N2380 X601.998 F1198.
N2381 Y91.965 Z165.599 F1198.
N2382 X599.984 F1198.
N2383 X.016 F1198.
N2384 X-1.998 F1198.
N2385 Y92.165 Z165.835 F1198.
N2386 X.016 F1198.
N2387 X599.984 F1198.
N2388 X601.998 F1198.
N2389 Y92.364 Z166.072 F1198.
N2390 X599.984 F1198.
N2391 X.016 F1198.
N2392 X-1.998 F1198.
N2393 Y92.564 Z166.308 F1198.
N2394 X.016 F1198.
N2395 X599.984 F1198.
N2396 X601.998 F1198.
N2397 Y92.764 Z166.544 F1198.
N2398 X599.984 F1198.
N2399 X.016 F1198.
N2400 X-1.998 F1198.
N2401 Y92.964 Z166.781 F1198.
N2402 X.016 F1198.
N2403 X599.984 F1198.
N2404 X601.998 F1198.
N2405 Y93.163 Z167.017 F1198.
N2406 X599.984 F1198.
N2407 X.016 F1198.
N2408 X-1.998 F1198.
N2409 Y93.363 Z167.253 F1198.
N2410 X.016 F1198.
N2411 X599.984 F1198.
N2412 X601.998 F1198.
N2413 Y93.563 Z167.49 F1198.
N2414 X599.984 F1198.
N2415 X.016 F1198.
N2416 X-1.998 F1198.
N2417 Y93.763 Z167.726 F1198.
N2418 X.016 F1198.
N2419 X599.984 F1198.
N2420 X601.998 F1198.
N2421 Y93.963 Z167.963 F1198.
N2422 X599.984 F1198.
N2423 X.016 F1198.
N2424 X-1.998 F1198.
N2425 Y94.162 Z168.199 F1198.
N2426 X.016 F1198.
N2427 X599.984 F1198.
N2428 X601.998 F1198.
N2429 Y94.362 Z168.435 F1198.
N2430 X599.984 F1198.
N2431 X.016 F1198.
N2432 X-1.998 F1198.
N2433 Y94.562 Z168.672 F1198.
N2434 X.016 F1198.
N2435 X599.984 F1198.
N2436 X601.998 F1198.
N2437 Y94.762 Z168.908 F1198.
N2438 X599.984 F1198.
N2439 X.016 F1198.
N2440 X-1.998 F1198.
N2441 Y94.961 Z169.144 F1198.
N2442 X.016 F1198.
N2443 X599.984 F1198.
N2444 X601.998 F1198.
N2445 Y95.161 Z169.381 F1198.
N2446 X599.984 F1198.
N2447 X.016 F1198.
N2448 X-1.998 F1198.
N2449 Y95.361 Z169.617 F1198.
N2450 X.016 F1198.
N2451 X599.984 F1198.
N2452 X601.998 F1198.
N2453 Y95.561 Z169.853 F1198.
N2454 X599.984 F1198.
N2455 X.016 F1198.
N2456 X-1.998 F1198.
N2457 Y95.761 Z170.09 F1198.
N2458 X.016 F1198.
N2459 X599.984 F1198.
N2460 X601.998 F1198.
N2461 Y95.96 Z170.326 F1198.
N2462 X599.984 F1198.
N2463 X.016 F1198.
N2464 X-1.998 F1198.
N2465 Y96.16 Z170.562 F1198.
N2466 X.016 F1198.
N2467 X599.984 F1198.
N2468 X601.998 F1198.
N2469 Y96.36 Z170.799 F1198.
N2470 X599.984 F1198.
N2471 X.016 F1198.
N2472 X-1.998 F1198.
N2473 Y96.56 Z171.035 F1198.
N2474 X.016 F1198.
N2475 X599.984 F1198.
N2476 X601.998 F1198.
N2477 Y96.759 Z171.272 F1198.
N2478 X599.984 F1198.
N2479 X.016 F1198.
N2480 X-1.998 F1198.
N2481 Y96.959 Z171.508 F1198.
N2482 X.016 F1198.
N2483 X599.984 F1198.
N2484 X601.998 F1198.
N2485 Y97.159 Z171.744 F1198.
N2486 X599.984 F1198.
N2487 X.016 F1198.
N2488 X-1.998 F1198.
N2489 Y97.359 Z171.981 F1198.
N2490 X.016 F1198.
N2491 X599.984 F1198.
N2492 X601.998 F1198.
N2493 Y97.559 Z172.217 F1198.
N2494 X599.984 F1198.
N2495 X.016 F1198.
N2496 X-1.998 F1198.
N2497 Y97.758 Z172.453 F1198.
N2498 X.016 F1198.
N2499 X599.984 F1198.
N2500 X601.998 F1198.
N2501 Y97.958 Z172.69 F1198.
N2502 X599.984 F1198.
N2503 X.016 F1198.
N2504 X-1.998 F1198.
N2505 Y98.158 Z172.926 F1198.
N2506 X.016 F1198.
N2507 X599.984 F1198.
N2508 X601.998 F1198.
N2509 Y98.358 Z173.162 F1198.
N2510 X599.984 F1198.
N2511 X.016 F1198.
N2512 X-1.998 F1198.
N2513 Y98.557 Z173.399 F1198.
N2514 X.016 F1198.
N2515 X599.984 F1198.
N2516 X601.998 F1198.
N2517 Y98.757 Z173.635 F1198.
N2518 X599.984 F1198.
N2519 X.016 F1198.
N2520 X-1.998 F1198.
N2521 Y98.957 Z173.872 F1198.
N2522 X.016 F1198.
N2523 X599.984 F1198.
N2524 X601.998 F1198.
N2525 Y99.157 Z174.108 F1198.
N2526 X599.984 F1198.
N2527 X.016 F1198.
N2528 X-1.998 F1198.
N2529 Y99.356 Z174.344 F1198.
N2530 X.016 F1198.
N2531 X599.984 F1198.
N2532 X601.998 F1198.
N2533 Y99.556 Z174.581 F1198.
N2534 X599.984 F1198.
N2535 X.016 F1198.
N2536 X-1.998 F1198.
N2537 Y99.756 Z174.817 F1198.
N2538 X.016 F1198.
N2539 X599.984 F1198.
N2540 X601.998 F1198.
N2541 Y99.956 Z175.053 F1198.
N2542 X599.984 F1198.
N2543 X.016 F1198.
N2544 X-1.998 F1198.
N2545 Y100.156 Z175.29 F1198.
N2546 X.016 F1198.
N2547 X599.984 F1198.
N2548 X601.998 F1198.
N2549 Y100.355 Z175.526 F1198.
N2550 X599.984 F1198.
N2551 X.016 F1198.
N2552 X-1.998 F1198.
N2553 Y100.555 Z175.762 F1198.
N2554 X.016 F1198.
N2555 X599.984 F1198.
N2556 X601.998 F1198.
N2557 Y100.755 Z175.999 F1198.
N2558 X599.984 F1198.
N2559 X.016 F1198.
N2560 X-1.998 F1198.
N2561 Y100.955 Z176.235 F1198.
N2562 X.016 F1198.
N2563 X599.984 F1198.
N2564 X601.998 F1198.
N2565 Y101.154 Z176.471 F1198.
N2566 X599.984 F1198.
N2567 X.016 F1198.
N2568 X-1.998 F1198.
N2569 Y101.354 Z176.708 F1198.
N2570 X.016 F1198.
N2571 X599.984 F1198.
N2572 X601.998 F1198.
N2573 Y101.554 Z176.944 F1198.
N2574 X599.984 F1198.
N2575 X.016 F1198.
N2576 X-1.998 F1198.
N2577 Y101.754 Z177.181 F1198.
N2578 X.016 F1198.
N2579 X599.984 F1198.
N2580 X601.998 F1198.
N2581 Y101.954 Z177.417 F1198.
N2582 X599.984 F1198.
N2583 X.016 F1198.
N2584 X-1.998 F1198.
N2585 Y102.153 Z177.653 F1198.
N2586 X.016 F1198.
N2587 X599.984 F1198.
N2588 X601.998 F1198.
N2589 Y102.353 Z177.89 F1198.
N2590 X599.984 F1198.
N2591 X.016 F1198.
N2592 X-1.998 F1198.
N2593 Y102.553 Z178.126 F1198.
N2594 X.016 F1198.
N2595 X599.984 F1198.
N2596 X601.998 F1198.
N2597 Y102.753 Z178.362 F1198.
N2598 X599.984 F1198.
N2599 X.016 F1198.
N2600 X-1.998 F1198.
N2601 Y102.952 Z178.599 F1198.
N2602 X.016 F1198.
N2603 X599.984 F1198.
N2604 X601.998 F1198.
N2605 Y103.152 Z178.835 F1198.
N2606 X599.984 F1198.
N2607 X.016 F1198.
N2608 X-1.998 F1198.
N2609 Y103.352 Z179.071 F1198.
N2610 X.016 F1198.
N2611 X599.984 F1198.
N2612 X601.998 F1198.
N2613 Y103.552 Z179.308 F1198.
N2614 X599.984 F1198.
N2615 X.016 F1198.
N2616 X-1.998 F1198.
N2617 Y103.752 Z179.544 F1198.
N2618 X.016 F1198.
N2619 X599.984 F1198.
N2620 X601.998 F1198.
N2621 Y103.951 Z179.78 F1198.
N2622 X599.984 F1198.
N2623 X.016 F1198.
N2624 X-1.998 F1198.
N2625 Y104.151 Z180.017 F1198.
N2626 X.016 F1198.
N2627 X599.984 F1198.
N2628 X601.998 F1198.
N2629 Y104.351 Z180.253 F1198.
N2630 X599.984 F1198.
N2631 X.016 F1198.
N2632 X-1.998 F1198.
N2633 Y104.551 Z180.49 F1198.
N2634 X.016 F1198.
N2635 X599.984 F1198.
N2636 X601.998 F1198.
N2637 Y104.75 Z180.726 F1198.
N2638 X599.984 F1198.
N2639 X.016 F1198.
N2640 X-1.998 F1198.
N2641 Y104.95 Z180.962 F1198.
N2642 X.016 F1198.
N2643 X599.984 F1198.
N2644 X601.998 F1198.
N2645 Y105.15 Z181.199 F1198.
N2646 X599.984 F1198.
N2647 X.016 F1198.
N2648 X-1.998 F1198.
N2649 Y105.35 Z181.435 F1198.
N2650 X.016 F1198.
N2651 X599.984 F1198.
N2652 X601.998 F1198.
N2653 Y105.55 Z181.671 F1198.
N2654 X599.984 F1198.
N2655 X.016 F1198.
N2656 X-1.998 F1198.
N2657 Y105.749 Z181.908 F1198.
N2658 X.016 F1198.
N2659 X599.984 F1198.
N2660 X601.998 F1198.
N2661 Y105.949 Z182.144 F1198.
N2662 X599.984 F1198.
N2663 X.016 F1198.
N2664 X-1.998 F1198.
N2665 Y106.149 Z182.38 F1198.
N2666 X.016 F1198.
N2667 X599.984 F1198.
N2668 X601.998 F1198.
N2669 Y106.349 Z182.617 F1198.
N2670 X599.984 F1198.
N2671 X.016 F1198.
N2672 X-1.998 F1198.
N2673 Y106.548 Z182.853 F1198.
N2674 X.016 F1198.
N2675 X599.984 F1198.
N2676 X601.998 F1198.
N2677 Y106.748 Z183.09 F1198.
N2678 X599.984 F1198.
N2679 X.016 F1198.
N2680 X-1.998 F1198.
N2681 Y106.948 Z183.326 F1198.
N2682 X.016 F1198.
N2683 X599.984 F1198.
N2684 X601.998 F1198.
N2685 Y107.148 Z183.562 F1198.
N2686 X599.984 F1198.
N2687 X.016 F1198.
N2688 X-1.998 F1198.
N2689 Y107.348 Z183.799 F1198.
N2690 X.016 F1198.
N2691 X599.984 F1198.
N2692 X601.998 F1198.
N2693 Y107.547 Z184.035 F1198.
N2694 X599.984 F1198.
N2695 X.016 F1198.
N2696 X-1.998 F1198.
N2697 Y107.747 Z184.271 F1198.
N2698 X.016 F1198.
N2699 X599.984 F1198.
N2700 X601.998 F1198.
N2701 Y107.947 Z184.508 F1198.
N2702 X599.984 F1198.
N2703 X.016 F1198.
N2704 X-1.998 F1198.
N2705 Y108.147 Z184.744 F1198.
N2706 X.016 F1198.
N2707 X599.984 F1198.
N2708 X601.998 F1198.
N2709 Y108.346 Z184.98 F1198.
N2710 X599.984 F1198.
N2711 X.016 F1198.
N2712 X-1.998 F1198.
N2713 Y108.546 Z185.217 F1198.
N2714 X.016 F1198.
N2715 X599.984 F1198.
N2716 X601.998 F1198.
N2717 Y108.746 Z185.453 F1198.
N2718 X599.984 F1198.
N2719 X.016 F1198.
N2720 X-1.998 F1198.
N2721 Y108.946 Z185.689 F1198.
N2722 X.016 F1198.
N2723 X599.984 F1198.
N2724 X601.998 F1198.
N2725 Y109.146 Z185.926 F1198.
N2726 X599.984 F1198.
N2727 X.016 F1198.
N2728 X-1.998 F1198.
N2729 Y109.345 Z186.162 F1198.
N2730 X.016 F1198.
N2731 X599.984 F1198.
N2732 X601.998 F1198.
N2733 Y109.545 Z186.399 F1198.
N2734 X599.984 F1198.
N2735 X.016 F1198.
N2736 X-1.998 F1198.
N2737 Y109.745 Z186.635 F1198.
N2738 X.016 F1198.
N2739 X599.984 F1198.
N2740 X601.998 F1198.
N2741 Y109.945 Z186.871 F1198.
N2742 X599.984 F1198.
N2743 X.016 F1198.
N2744 X-1.998 F1198.
N2745 Y110.144 Z187.108 F1198.
N2746 X.016 F1198.
N2747 X599.984 F1198.
N2748 X601.998 F1198.
N2749 Y110.344 Z187.344 F1198.
N2750 X599.984 F1198.
N2751 X.016 F1198.
N2752 X-1.998 F1198.
N2753 Y110.544 Z187.58 F1198.
N2754 X.016 F1198.
N2755 X599.984 F1198.
N2756 X601.998 F1198.
N2757 Y110.744 Z187.817 F1198.
N2758 X599.984 F1198.
N2759 X.016 F1198.
N2760 X-1.998 F1198.
N2761 Y110.944 Z188.053 F1198.
N2762 X.016 F1198.
N2763 X599.984 F1198.
N2764 X601.998 F1198.
N2765 Y111.143 Z188.289 F1198.
N2766 X599.984 F1198.
N2767 X.016 F1198.
N2768 X-1.998 F1198.
N2769 Y111.343 Z188.526 F1198.
N2770 X.016 F1198.
N2771 X599.984 F1198.
N2772 X601.998 F1198.
N2773 Y111.543 Z188.762 F1198.
N2774 X599.984 F1198.
N2775 X.016 F1198.
N2776 X-1.998 F1198.
N2777 Y111.743 Z188.999 F1198.
N2778 X.016 F1198.
N2779 X599.984 F1198.
N2780 X601.998 F1198.
N2781 Y111.942 Z189.235 F1198.
N2782 X599.984 F1198.
N2783 X.016 F1198.
N2784 X-1.998 F1198.
N2785 Y112.142 Z189.471 F1198.
N2786 X.016 F1198.
N2787 X599.984 F1198.
N2788 X601.998 F1198.
N2789 Y112.342 Z189.708 F1198.
N2790 X599.984 F1198.
N2791 X.016 F1198.
N2792 X-1.998 F1198.
N2793 Y112.542 Z189.944 F1198.
N2794 X.016 F1198.
N2795 X599.984 F1198.
N2796 X601.998 F1198.
N2797 Y112.741 Z190.18 F1198.
N2798 X599.984 F1198.
N2799 X.016 F1198.
N2800 X-1.998 F1198.
N2801 Y112.941 Z190.417 F1198.
N2802 X.016 F1198.
N2803 X599.984 F1198.
N2804 X601.998 F1198.
N2805 Y113.141 Z190.653 F1198.
N2806 X599.984 F1198.
N2807 X.016 F1198.
N2808 X-1.998 F1198.
N2809 Y113.341 Z190.889 F1198.
N2810 X.016 F1198.
N2811 X599.984 F1198.
N2812 X601.998 F1198.
N2813 Y113.541 Z191.126 F1198.
N2814 X599.984 F1198.
N2815 X.016 F1198.
N2816 X-1.998 F1198.
N2817 Y113.74 Z191.362 F1198.
N2818 X.016 F1198.
N2819 X599.984 F1198.
N2820 X601.998 F1198.
N2821 Y113.94 Z191.598 F1198.
N2822 X599.984 F1198.
N2823 X.016 F1198.
N2824 X-1.998 F1198.
N2825 Y114.14 Z191.835 F1198.
N2826 X.016 F1198.
N2827 X599.984 F1198.
N2828 X601.998 F1198.
N2829 Y114.34 Z192.071 F1198.
N2830 X599.984 F1198.
N2831 X.016 F1198.
N2832 X-1.998 F1198.
N2833 Y114.539 Z192.308 F1198.
N2834 X.016 F1198.
N2835 X599.984 F1198.
N2836 X601.998 F1198.
N2837 Y114.739 Z192.544 F1198.
N2838 X599.984 F1198.
N2839 X.016 F1198.
N2840 X-1.998 F1198.
N2841 Y114.939 Z192.78 F1198.
N2842 X.016 F1198.
N2843 X599.984 F1198.
N2844 X601.998 F1198.
N2845 Y115.139 Z193.017 F1198.
N2846 X599.984 F1198.
N2847 X.016 F1198.
N2848 X-1.998 F1198.
N2849 Y115.339 Z193.253 F1198.
N2850 X.016 F1198.
N2851 X599.984 F1198.
N2852 X601.998 F1198.
N2853 Y115.538 Z193.489 F1198.
N2854 X599.984 F1198.
N2855 X.016 F1198.
N2856 X-1.998 F1198.
N2857 Y115.738 Z193.726 F1198.
N2858 X.016 F1198.
N2859 X599.984 F1198.
N2860 X601.998 F1198.
N2861 Y115.938 Z193.962 F1198.
N2862 X599.984 F1198.
N2863 X.016 F1198.
N2864 X-1.998 F1198.
N2865 Y116.138 Z194.198 F1198.
N2866 X.016 F1198.
N2867 X599.984 F1198.
N2868 X601.998 F1198.
N2869 Y116.337 Z194.435 F1198.
N2870 X599.984 F1198.
N2871 X.016 F1198.
N2872 X-1.998 F1198.
N2873 Y116.537 Z194.671 F1198.
N2874 X.016 F1198.
N2875 X599.984 F1198.
N2876 X601.998 F1198.
N2877 Y116.737 Z194.908 F1198.
N2878 X599.984 F1198.
N2879 X.016 F1198.
N2880 X-1.998 F1198.
N2881 Y116.937 Z195.144 F1198.
N2882 X.016 F1198.
N2883 X599.984 F1198.
N2884 X601.998 F1198.
N2885 Y117.137 Z195.38 F1198.
N2886 X599.984 F1198.
N2887 X.016 F1198.
N2888 X-1.998 F1198.
N2889 Y117.336 Z195.617 F1198.
N2890 X.016 F1198.
N2891 X599.984 F1198.
N2892 X601.998 F1198.
N2893 Y117.536 Z195.853 F1198.
N2894 X599.984 F1198.
N2895 X.016 F1198.
N2896 X-1.998 F1198.
N2897 Y117.736 Z196.089 F1198.
N2898 X.016 F1198.
N2899 X599.984 F1198.
N2900 X601.998 F1198.
N2901 Y117.936 Z196.326 F1198.
N2902 X599.984 F1198.
N2903 X.016 F1198.
N2904 X-1.998 F1198.
N2905 Y118.135 Z196.562 F1198.
N2906 X.016 F1198.
N2907 X599.984 F1198.
N2908 X601.998 F1198.
N2909 Y118.335 Z196.798 F1198.
N2910 X599.984 F1198.
N2911 X.016 F1198.
N2912 X-1.998 F1198.
N2913 Y118.535 Z197.035 F1198.
N2914 X.016 F1198.
N2915 X599.984 F1198.
N2916 X601.998 F1198.
N2917 Y118.735 Z197.271 F1198.
N2918 X599.984 F1198.
N2919 X.016 F1198.
N2920 X-1.998 F1198.
N2921 Y118.935 Z197.507 F1198.
N2922 X.016 F1198.
N2923 X599.984 F1198.
N2924 X601.998 F1198.
N2925 Y119.134 Z197.744 F1198.
N2926 X599.984 F1198.
N2927 X.016 F1198.
N2928 X-1.998 F1198.
N2929 Y119.334 Z197.98 F1198.
N2930 X.016 F1198.
N2931 X599.984 F1198.
N2932 X601.998 F1198.
N2933 Y119.534 Z198.217 F1198.
N2934 X599.984 F1198.
N2935 X.016 F1198.
N2936 X-1.998 F1198.
N2937 Y119.734 Z198.453 F1198.
N2938 X.016 F1198.
N2939 X599.984 F1198.
N2940 X601.998 F1198.
N2941 Y119.933 Z198.689 F1198.
N2942 X599.984 F1198.
N2943 X.016 F1198.
N2944 X-1.998 F1198.
N2945 Y120.133 Z198.926 F1198.
N2946 X.016 F1198.
N2947 X599.984 F1198.
N2948 X601.998 F1198.
N2949 Y120.333 Z199.162 F1198.
N2950 X599.984 F1198.
N2951 X.016 F1198.
N2952 X-1.998 F1198.
N2953 Y120.533 Z199.398 F1198.
N2954 X.016 F1198.
N2955 X599.984 F1198.
N2956 X601.998 F1198.
N2957 Y120.733 Z199.635 F1198.
N2958 X599.984 F1198.
N2959 X.016 F1198.
N2960 X-1.998 F1198.
N2961 Y120.932 Z199.871 F1198.
N2962 X.016 F1198.
N2963 X599.984 F1198.
N2964 X601.998 F1198.
N2965 Y121.132 Z200.107 F1198.
N2966 X599.984 F1198.
N2967 X.016 F1198.
N2968 X-1.998 F1198.
N2969 Y121.332 Z200.344 F1198.
N2970 X.016 F1198.
N2971 X599.984 F1198.
N2972 X601.998 F1198.
N2973 Y121.532 Z200.58 F1198.
N2974 X599.984 F1198.
N2975 X.016 F1198.
N2976 X-1.998 F1198.
N2977 Y121.731 Z200.817 F1198.
N2978 X.016 F1198.
N2979 X599.984 F1198.
N2980 X601.998 F1198.
N2981 Y121.931 Z201.053 F1198.
N2982 X599.984 F1198.
N2983 X.016 F1198.
N2984 X-1.998 F1198.
N2985 Y122.131 Z201.289 F1198.
N2986 X.016 F1198.
N2987 X599.984 F1198.
N2988 X601.998 F1198.
N2989 Y122.331 Z201.526 F1198.
N2990 X599.984 F1198.
N2991 X.016 F1198.
N2992 X-1.998 F1198.
N2993 Y122.531 Z201.762 F1198.
N2994 X.016 F1198.
N2995 X599.984 F1198.
N2996 X601.998 F1198.
N2997 Y122.73 Z201.998 F1198.
N2998 X599.984 F1198.
N2999 X.016 F1198.
N3000 X-1.998 F1198.
N3001 Y122.93 Z202.235 F1198.
N3002 X.016 F1198.
N3003 X599.984 F1198.
N3004 X601.998 F1198.
N3005 Y123.13 Z202.471 F1198.
N3006 X599.984 F1198.
N3007 X.016 F1198.
N3008 X-1.998 F1198.
N3009 Y123.33 Z202.707 F1198.
N3010 X.016 F1198.
N3011 X599.984 F1198.
N3012 X601.998 F1198.
N3013 Y123.529 Z202.944 F1198.
N3014 X599.984 F1198.
N3015 X.016 F1198.
N3016 X-1.998 F1198.
N3017 Y123.729 Z203.18 F1198.
N3018 X.016 F1198.
N3019 X599.984 F1198.
N3020 X601.998 F1198.
N3021 Y123.929 Z203.416 F1198.
N3022 X599.984 F1198.
N3023 X.016 F1198.
N3024 X-1.998 F1198.
N3025 Y124.129 Z203.653 F1198.
N3026 X.016 F1198.
N3027 X599.984 F1198.
N3028 X601.998 F1198.
N3029 Y124.329 Z203.889 F1198.
N3030 X599.984 F1198.
N3031 X.016 F1198.
N3032 X-1.998 F1198.
N3033 Y124.528 Z204.126 F1198.
N3034 X.016 F1198.
N3035 X599.984 F1198.
N3036 X601.998 F1198.
N3037 Y124.728 Z204.362 F1198.
N3038 X599.984 F1198.
N3039 X.016 F1198.
N3040 X-1.998 F1198.
N3041 Y124.928 Z204.598 F1198.
N3042 X.016 F1198.
N3043 X599.984 F1198.
N3044 X601.998 F1198.
N3045 Y125.128 Z204.835 F1198.
N3046 X599.984 F1198.
N3047 X.016 F1198.
N3048 X-1.998 F1198.
N3049 Y125.327 Z205.071 F1198.
N3050 X.016 F1198.
N3051 X599.984 F1198.
N3052 X601.998 F1198.
N3053 Y125.527 Z205.307 F1198.
N3054 X599.984 F1198.
N3055 X.016 F1198.
N3056 X-1.998 F1198.
N3057 Y125.727 Z205.544 F1198.
N3058 X.016 F1198.
N3059 X599.984 F1198.
N3060 X601.998 F1198.
N3061 Y125.927 Z205.78 F1198.
N3062 X599.984 F1198.
N3063 X.016 F1198.
N3064 X-1.998 F1198.
N3065 X-1.997 Y126.126 Z206.016 F1198.
N3066 X.016 F1198.
N3067 X599.984 F1198.
N3068 X601.998 F1198.
N3069 Y126.326 Z206.253 F1198.
N3070 X599.984 F1198.
N3071 X.016 F1198.
N3072 X-1.997 F1198.
N3073 Y126.526 Z206.489 F1198.
N3074 X.016 F1198.
N3075 X599.984 F1198.
N3076 X601.998 F1198.
N3077 Y126.726 Z206.726 F1198.
N3078 X599.984 F1198.
N3079 X.016 F1198.
N3080 X-1.997 F1198.
N3081 Y126.926 Z206.962 F1198.
N3082 X.016 F1198.
N3083 X599.984 F1198.
N3084 X601.998 F1198.
N3085 Y127.125 Z207.198 F1198.
N3086 X599.984 F1198.
N3087 X.016 F1198.
N3088 X-1.997 F1198.
N3089 Y127.325 Z207.435 F1198.
N3090 X.016 F1198.
N3091 X599.984 F1198.
N3092 X601.998 F1198.
N3093 Y127.525 Z207.671 F1198.
N3094 X599.984 F1198.
N3095 X.016 F1198.
N3096 X-1.997 F1198.
N3097 Y127.725 Z207.907 F1198.
N3098 X.016 F1198.
N3099 X599.984 F1198.
N3100 X601.998 F1198.
N3101 Y127.924 Z208.144 F1198.
N3102 X599.984 F1198.
N3103 X.016 F1198.
N3104 X-1.997 F1198.
N3105 Y128.124 Z208.38 F1198.
N3106 X.016 F1198.
N3107 X599.984 F1198.
N3108 X601.998 F1198.
N3109 Y128.324 Z208.616 F1198.
N3110 X599.984 F1198.
N3111 X.016 F1198.
N3112 X-1.997 F1198.
N3113 Y128.524 Z208.853 F1198.
N3114 X.016 F1198.
N3115 X599.984 F1198.
N3116 X601.998 F1198.
N3117 Y128.724 Z209.089 F1198.
N3118 X599.984 F1198.
N3119 X.016 F1198.
N3120 X-1.997 F1198.
N3121 Y128.923 Z209.325 F1198.
N3122 X.016 F1198.
N3123 X599.984 F1198.
N3124 X601.998 F1198.
N3125 Y129.123 Z209.562 F1198.
N3126 X599.984 F1198.
N3127 X.016 F1198.
N3128 X-1.997 F1198.
N3129 Y129.323 Z209.798 F1198.
N3130 X.016 F1198.
N3131 X599.984 F1198.
N3132 X601.998 F1198.
N3133 Y129.523 Z210.035 F1198.
N3134 X599.984 F1198.
N3135 X.016 F1198.
N3136 X-1.997 F1198.
N3137 Y129.722 Z210.271 F1198.
N3138 X.016 F1198.
N3139 X599.984 F1198.
N3140 X601.998 F1198.
N3141 Y129.922 Z210.507 F1198.
N3142 X599.984 F1198.
N3143 X.016 F1198.
N3144 X-1.997 F1198.
N3145 Y130.122 Z210.744 F1198.
N3146 X.016 F1198.
N3147 X599.984 F1198.
N3148 X601.998 F1198.
N3149 Y130.322 Z210.98 F1198.
N3150 X599.984 F1198.
N3151 X.016 F1198.
N3152 X-1.997 F1198.
N3153 Y130.522 Z211.216 F1198.
N3154 X.016 F1198.
N3155 X599.984 F1198.
N3156 X601.998 F1198.
N3157 Y130.721 Z211.453 F1198.
N3158 X599.984 F1198.
N3159 X.016 F1198.
N3160 X-1.997 F1198.
N3161 Y130.921 Z211.689 F1198.
N3162 X.016 F1198.
N3163 X599.984 F1198.
N3164 X601.998 F1198.
N3165 Y131.121 Z211.925 F1198.
N3166 X599.984 F1198.
N3167 X.016 F1198.
N3168 X-1.997 F1198.
N3169 Y131.321 Z212.162 F1198.
N3170 X.016 F1198.
N3171 X599.984 F1198.
N3172 X601.998 F1198.
N3173 Y131.52 Z212.398 F1198.
N3174 X599.984 F1198.
N3175 X.016 F1198.
N3176 X-1.997 F1198.
N3177 Y131.72 Z212.635 F1198.
N3178 X.016 F1198.
N3179 X599.984 F1198.
N3180 X601.998 F1198.
N3181 Y131.92 Z212.871 F1198.
N3182 X599.984 F1198.
N3183 X.016 F1198.
N3184 X-1.997 F1198.
N3185 Y132.12 Z213.107 F1198.
N3186 X.016 F1198.
N3187 X599.984 F1198.
N3188 X601.998 F1198.
N3189 Y132.32 Z213.344 F1198.
N3190 X599.984 F1198.
N3191 X.016 F1198.
N3192 X-1.997 F1198.
N3193 Y132.519 Z213.58 F1198.
N3194 X.016 F1198.
N3195 X599.984 F1198.
N3196 X601.998 F1198.
N3197 Y132.719 Z213.816 F1198.
N3198 X599.984 F1198.
N3199 X.016 F1198.
N3200 X-1.997 F1198.
N3201 Y132.919 Z214.053 F1198.
N3202 X.016 F1198.
N3203 X599.984 F1198.
N3204 X601.998 F1198.
N3205 Y133.119 Z214.289 F1198.
N3206 X599.984 F1198.
N3207 X.016 F1198.
N3208 X-1.997 F1198.
N3209 Y133.318 Z214.525 F1198.
N3210 X.016 F1198.
N3211 X599.984 F1198.
N3212 X601.998 F1198.
N3213 Y133.518 Z214.762 F1198.
N3214 X599.984 F1198.
N3215 X.016 F1198.
N3216 X-1.997 F1198.
N3217 Y133.718 Z214.998 F1198.
N3218 X.016 F1198.
N3219 X599.984 F1198.
N3220 X601.998 F1198.
N3221 Y133.918 Z215.234 F1198.
N3222 X599.984 F1198.
N3223 X.016 F1198.
N3224 X-1.997 F1198.
N3225 Y134.118 Z215.471 F1198.
N3226 X.016 F1198.
N3227 X599.984 F1198.
N3228 X601.998 F1198.
N3229 Y134.317 Z215.707 F1198.
N3230 X599.984 F1198.
N3231 X.016 F1198.
N3232 X-1.997 F1198.
N3233 Y134.517 Z215.944 F1198.
N3234 X.016 F1198.
N3235 X599.984 F1198.
N3236 X601.997 F1198.
N3237 Y134.717 Z216.18 F1198.
N3238 X599.984 F1198.
N3239 X.016 F1198.
N3240 X-1.997 F1198.
N3241 Y134.917 Z216.416 F1198.
N3242 X.017 F1198.
N3243 X599.983 F1198.
N3244 X601.997 F1198.
N3245 X601.996 Y135.116 Z216.653 F1198.
N3246 X599.983 F1198.
N3247 X.017 F1198.
N3248 X-1.996 F1198.
N3249 Y135.316 Z216.889 F1198.
N3250 X.017 F1198.
N3251 X599.983 F1198.
N3252 X601.996 F1198.
N3253 Y135.516 Z217.125 F1198.
N3254 X599.982 F1198.
N3255 X.018 F1198.
N3256 X-1.996 F1198.
N3257 X-1.995 Y135.716 Z217.362 F1198.
N3258 X.018 F1198.
N3259 X599.982 F1198.
N3260 X601.995 F1198.
N3261 Y135.916 Z217.598 F1198.
N3262 X600. F1198.
N3263 X0.0 F1198.
N3264 X-1.995 F1198.
N3265 X-1.994 Y136.115 Z217.834 F1198.
N3266 X.001 F1198.
N3267 X599.999 F1198.
N3268 X601.994 F1198.
N3269 Y136.315 Z218.071 F1198.
N3270 X599.999 F1198.
N3271 X.001 F1198.
N3272 X-1.994 F1198.
N3273 Y136.515 Z218.307 F1198.
N3274 X.001 F1198.
N3275 X599.999 F1198.
N3276 X601.994 F1198.
N3277 X601.993 Y136.715 Z218.543 F1198.
N3278 X599.998 F1198.
N3279 X.002 F1198.
N3280 X-1.993 F1198.
N3281 Y136.914 Z218.78 F1198.
N3282 X.002 F1198.
N3283 X599.998 F1198.
N3284 X601.993 F1198.
N3285 X601.992 Y137.114 Z219.016 F1198.
N3286 X599.997 F1198.
N3287 X.003 F1198.
N3288 X-1.992 F1198.
N3289 Y137.314 Z219.253 F1198.
N3290 X.003 F1198.
N3291 X599.997 F1198.
N3292 X601.992 F1198.
N3293 X601.991 Y137.514 Z219.489 F1198.
N3294 X599.996 F1198.
N3295 X.004 F1198.
N3296 X-1.991 F1198.
N3297 Y137.714 Z219.725 F1198.
N3298 X.004 F1198.
N3299 X599.996 F1198.
N3300 X601.991 F1198.
N3301 Y137.913 Z219.962 F1198.
N3302 X599.996 F1198.
N3303 X.004 F1198.
N3304 X-1.991 F1198.
N3305 X-1.99 Y138.113 Z220.198 F1198.
N3306 X.005 F1198.
N3307 X599.995 F1198.
N3308 X601.99 F1198.
N3309 Y138.313 Z220.434 F1198.
N3310 X599.995 F1198.
N3311 X.005 F1198.
N3312 X-1.99 F1198.
N3313 X-1.989 Y138.513 Z220.671 F1198.
N3314 X.006 F1198.
N3315 X599.994 F1198.
N3316 X601.989 F1198.
N3317 Y138.712 Z220.907 F1198.
N3318 X599.994 F1198.
N3319 X.006 F1198.
N3320 X-1.989 F1198.
N3321 Y138.912 Z221.143 F1198.
N3322 X.006 F1198.
N3323 X599.994 F1198.
N3324 X601.989 F1198.
N3325 X601.988 Y139.112 Z221.38 F1198.
N3326 X599.993 F1198.
N3327 X.007 F1198.
N3328 X-1.988 F1198.
N3329 Y139.312 Z221.616 F1198.
N3330 X.007 F1198.
N3331 X599.993 F1198.
N3332 X601.988 F1198.
N3333 X601.987 Y139.511 Z221.853 F1198.
N3334 X599.992 F1198.
N3335 X.008 F1198.
N3336 X-1.987 F1198.
N3337 Y139.711 Z222.089 F1198.
N3338 X.008 F1198.
N3339 X599.991 F1198.
N3340 X601.986 F1198.
N3341 X601.985 Y139.911 Z222.325 F1198.
N3342 X599.99 F1198.
N3343 X.01 F1198.
N3344 X-1.985 F1198.
N3345 X-1.984 Y140.111 Z222.562 F1198.
N3346 X.011 F1198.
N3347 X599.989 F1198.
N3348 X601.984 F1198.
N3349 X601.983 Y140.311 Z222.798 F1198.
N3350 X599.988 F1198.
N3351 X.012 F1198.
N3352 X-1.983 F1198.
N3353 X-1.982 Y140.51 Z223.034 F1198.
N3354 X.013 F1198.
N3355 X599.987 F1198.
N3356 X601.982 F1198.
N3357 X601.981 Y140.71 Z223.271 F1198.
N3358 X599.986 F1198.
N3359 X.014 F1198.
N3360 X-1.981 F1198.
N3361 X-1.98 Y140.91 Z223.507 F1198.
N3362 X.015 F1198.
N3363 X599.985 F1198.
N3364 X601.98 F1198.
N3365 X601.979 Y141.11 Z223.743 F1198.
N3366 X599.984 F1198.
N3367 X.016 F1198.
N3368 X-1.979 F1198.
N3369 X-1.978 Y141.309 Z223.98 F1198.
N3370 X.017 F1198.
N3371 X599.983 F1198.
N3372 X601.977 F1198.
N3373 X601.976 Y141.509 Z224.216 F1198.
N3374 X600. F1198.
N3375 X0.0 F1198.
N3376 X-1.976 F1198.
N3377 X-1.975 Y141.709 Z224.452 F1198.
N3378 X.001 F1198.
N3379 X599.999 F1198.
N3380 X601.975 F1198.
N3381 X601.974 Y141.909 Z224.689 F1198.
N3382 X599.998 F1198.
N3383 X.002 F1198.
N3384 X-1.974 F1198.
N3385 X-1.973 Y142.109 Z224.925 F1198.
N3386 X.003 F1198.
N3387 X599.996 F1198.
N3388 X601.973 F1198.
N3389 X601.972 Y142.308 Z225.162 F1198.
N3390 X599.995 F1198.
N3391 X.005 F1198.
N3392 X-1.972 F1198.
N3393 X-1.971 Y142.508 Z225.398 F1198.
N3394 X.006 F1198.
N3395 X599.994 F1198.
N3396 X601.971 F1198.
N3397 X601.97 Y142.708 Z225.634 F1198.
N3398 X599.993 F1198.
N3399 X.007 F1198.
N3400 X-1.97 F1198.
N3401 X-1.969 Y142.908 Z225.871 F1198.
N3402 X.008 F1198.
N3403 X599.992 F1198.
N3404 X601.968 F1198.
N3405 X601.967 Y143.107 Z226.107 F1198.
N3406 X599.991 F1198.
N3407 X.009 F1198.
N3408 X-1.967 F1198.
N3409 X-1.966 Y143.307 Z226.343 F1198.
N3410 X.01 F1198.
N3411 X599.99 F1198.
N3412 X601.966 F1198.
N3413 X601.965 Y143.507 Z226.58 F1198.
N3414 X599.989 F1198.
N3415 X.011 F1198.
N3416 X-1.965 F1198.
N3417 X-1.964 Y143.707 Z226.816 F1198.
N3418 X.012 F1198.
N3419 X599.988 F1198.
N3420 X601.964 F1198.
N3421 X601.963 Y143.907 Z227.052 F1198.
N3422 X599.986 F1198.
N3423 X.013 F1198.
N3424 X-1.963 F1198.
N3425 X-1.962 Y144.106 Z227.289 F1198.
N3426 X.015 F1198.
N3427 X599.985 F1198.
N3428 X601.962 F1198.
N3429 X601.961 Y144.306 Z227.525 F1198.
N3430 X599.984 F1198.
N3431 X.016 F1198.
N3432 X-1.961 F1198.
N3433 X-1.96 Y144.506 Z227.762 F1198.
N3434 X.017 F1198.
N3435 X599.983 F1198.
N3436 X601.959 F1198.
N3437 X601.958 Y144.706 Z227.998 F1198.
N3438 X600. F1198.
N3439 X.018 F1198.
N3440 X-1.958 F1198.
N3441 X-1.956 Y144.905 Z228.234 F1198.
N3442 X.002 F1198.
N3443 X599.998 F1198.
N3444 X601.956 F1198.
N3445 X601.954 Y145.105 Z228.471 F1198.
N3446 X599.996 F1198.
N3447 X.003 F1198.
N3448 X-1.955 F1198.
N3449 X-1.953 Y145.305 Z228.707 F1198.
N3450 X.005 F1198.
N3451 X599.995 F1198.
N3452 X601.952 F1198.
N3453 X601.951 Y145.505 Z228.943 F1198.
N3454 X599.993 F1198.
N3455 X.007 F1198.
N3456 X-1.951 F1198.
N3457 X-1.949 Y145.705 Z229.18 F1198.
N3458 X.008 F1198.
N3459 X599.991 F1198.
N3460 X601.949 F1198.
N3461 X601.947 Y145.904 Z229.416 F1198.
N3462 X599.989 F1198.
N3463 X.01 F1198.
N3464 X-1.948 F1198.
N3465 X-1.946 Y146.104 Z229.652 F1198.
N3466 X.012 F1198.
N3467 X599.987 F1198.
N3468 X601.945 F1198.
N3469 X601.943 Y146.304 Z229.889 F1198.
N3470 X599.985 F1198.
N3471 X.014 F1198.
N3472 X-1.944 F1198.
N3473 X-1.942 Y146.504 Z230.125 F1198.
N3474 X.015 F1198.
N3475 X599.984 F1198.
N3476 X601.942 F1198.
N3477 X601.94 Y146.703 Z230.361 F1198.
N3478 X599.982 F1198.
N3479 X.017 F1198.
N3480 X-1.941 F1198.
N3481 X-1.939 Y146.903 Z230.598 F1198.
N3482 X0.0 F1198.
N3483 X599.999 F1198.
N3484 X601.938 F1198.
N3485 X601.936 Y147.103 Z230.834 F1198.
N3486 X599.997 F1198.
N3487 X.002 F1198.
N3488 X-1.937 F1198.
N3489 X-1.935 Y147.303 Z231.071 F1198.
N3490 X.004 F1198.
N3491 X599.995 F1198.
N3492 X601.934 F1198.
N3493 X601.932 Y147.503 Z231.307 F1198.
N3494 X599.993 F1198.
N3495 X.006 F1198.
N3496 X-1.933 F1198.
N3497 X-1.932 Y147.702 Z231.543 F1198.
N3498 X.008 F1198.
N3499 X599.991 F1198.
N3500 X601.931 F1198.
N3501 X601.929 Y147.902 Z231.78 F1198.
N3502 X599.99 F1198.
N3503 X.01 F1198.
N3504 X-1.93 F1198.
N3505 X-1.928 Y148.102 Z232.016 F1198.
N3506 X.011 F1198.
N3507 X599.988 F1198.
N3508 X601.927 F1198.
N3509 X601.925 Y148.302 Z232.252 F1198.
N3510 X599.986 F1198.
N3511 X.013 F1198.
N3512 X-1.926 F1198.
N3513 X-1.924 Y148.501 Z232.489 F1198.
N3514 X.015 F1198.
N3515 X599.984 F1198.
N3516 X601.923 F1198.
N3517 X601.922 Y148.701 Z232.725 F1198.
N3518 X-1.922 F1198.
N3519 X-1.92 Y148.901 Z232.961 F1198.
N3520 X601.92 F1198.
N3521 X601.918 Y149.101 Z233.198 F1198.
N3522 X-1.918 F1198.
N3523 X-1.916 Y149.301 Z233.434 F1198.
N3524 X601.916 F1198.
N3525 X601.914 Y149.5 Z233.671 F1198.
N3526 X-1.915 F1198.
N3527 X-1.913 Y149.7 Z233.907 F1198.
N3528 X601.913 F1198.
N3529 X601.911 Y149.844 Z234.078 F1198.
N3530 X595.145 Y149.87 Z234.108 F1198.
N3531 X587.674 Y149.89 Z234.132 F1198.
N3532 X12.326 F1198.
N3533 Z284.132 F1198.
N3534 M1
;(****************************************************************)  
;      END OPERATION: FIXED_CONTOUR_1_COPY
;(****************************************************************) 
 
;(****************************************************************)
;    START OPERATION: FIXED_CONTOUR_1_COPY_COPY
;     TYPE OPERATION: Fixed-axis Surface Contouring
;(****************************************************************)
N3535 G0 X642.273 Y121.179 D1
N3536 Z238.47
N3537 Z232.733
N3538 G3 X616.273 Y147.179 I-26. J0.0 F1198.
N3539 G1 X587.673 F1198.
N3540 X12.327 F1198.
N3541 X7.346 Y147.198 Z232.734 F1198.
N3542 X-1.914 Y147.249 Z232.739 F1198.
N3543 Y147.462 Z232.756 F1198.
N3544 X601.914 F1198.
N3545 Y147.76 Z232.781 F1198.
N3546 X-1.914 F1198.
N3547 Y148.058 Z232.806 F1198.
N3548 X601.914 F1198.
N3549 Y148.356 Z232.831 F1198.
N3550 X-1.914 F1198.
N3551 X-1.915 Y148.654 Z232.856 F1198.
N3552 X601.914 F1198.
N3553 X601.915 Y148.952 Z232.881 F1198.
N3554 X-1.915 F1198.
N3555 Y149.25 Z232.906 F1198.
N3556 X.006 F1198.
N3557 X599.994 F1198.
N3558 X601.915 F1198.
N3559 Y149.549 Z232.931 F1198.
N3560 X599.994 F1198.
N3561 X.006 F1198.
N3562 X-1.915 F1198.
N3563 Y149.847 Z232.956 F1198.
N3564 X.006 F1198.
N3565 X599.994 F1198.
N3566 X601.915 F1198.
N3567 Y150.145 Z232.981 F1198.
N3568 X599.994 F1198.
N3569 X.005 F1198.
N3570 X-1.915 F1198.
N3571 X-1.916 Y150.443 Z233.006 F1198.
N3572 X.005 F1198.
N3573 X599.995 F1198.
N3574 X601.915 F1198.
N3575 X601.916 Y150.741 Z233.031 F1198.
N3576 X599.995 F1198.
N3577 X.005 F1198.
N3578 X-1.916 F1198.
N3579 Y151.039 Z233.056 F1198.
N3580 X.005 F1198.
N3581 X599.995 F1198.
N3582 X601.916 F1198.
N3583 Y151.337 Z233.081 F1198.
N3584 X599.995 F1198.
N3585 X.005 F1198.
N3586 X-1.916 F1198.
N3587 Y151.635 Z233.106 F1198.
N3588 X.005 F1198.
N3589 X599.995 F1198.
N3590 X601.916 F1198.
N3591 Y151.933 Z233.131 F1198.
N3592 X599.995 F1198.
N3593 X.005 F1198.
N3594 X-1.916 F1198.
N3595 Y152.231 Z233.156 F1198.
N3596 X.004 F1198.
N3597 X599.996 F1198.
N3598 X601.916 F1198.
N3599 X601.917 Y152.529 Z233.181 F1198.
N3600 X599.996 F1198.
N3601 X.004 F1198.
N3602 X-1.917 F1198.
N3603 Y152.827 Z233.206 F1198.
N3604 X.004 F1198.
N3605 X599.996 F1198.
N3606 X601.917 F1198.
N3607 Y153.125 Z233.231 F1198.
N3608 X599.996 F1198.
N3609 X.004 F1198.
N3610 X-1.917 F1198.
N3611 Y153.423 Z233.256 F1198.
N3612 X.004 F1198.
N3613 X599.996 F1198.
N3614 X601.917 F1198.
N3615 Y153.721 Z233.281 F1198.
N3616 X599.996 F1198.
N3617 X.004 F1198.
N3618 X-1.917 F1198.
N3619 Y154.019 Z233.306 F1198.
N3620 X.003 F1198.
N3621 X599.997 F1198.
N3622 X601.917 F1198.
N3623 X601.918 Y154.317 Z233.331 F1198.
N3624 X599.997 F1198.
N3625 X.003 F1198.
N3626 X-1.918 F1198.
N3627 X-1.917 Y154.615 Z233.356 F1198.
N3628 X.004 F1198.
N3629 X599.997 F1198.
N3630 X601.917 F1198.
N3631 Y154.913 Z233.381 F1198.
N3632 X599.996 F1198.
N3633 X.004 F1198.
N3634 X-1.917 F1198.
N3635 Y155.211 Z233.406 F1198.
N3636 X.004 F1198.
N3637 X599.996 F1198.
N3638 X601.917 F1198.
N3639 X601.916 Y155.509 Z233.431 F1198.
N3640 X599.996 F1198.
N3641 X.004 F1198.
N3642 X-1.916 F1198.
N3643 Y155.807 Z233.456 F1198.
N3644 X.005 F1198.
N3645 X599.995 F1198.
N3646 X601.916 F1198.
N3647 Y156.105 Z233.481 F1198.
N3648 X599.995 F1198.
N3649 X.005 F1198.
N3650 X-1.916 F1198.
N3651 X-1.915 Y156.403 Z233.506 F1198.
N3652 X601.915 F1198.
N3653 Y156.701 Z233.531 F1198.
N3654 X-1.915 F1198.
N3655 Y156.999 Z233.556 F1198.
N3656 X601.915 F1198.
N3657 Y157.297 Z233.581 F1198.
N3658 X-1.915 F1198.
N3659 X-1.914 Y157.595 Z233.606 F1198.
N3660 X601.914 F1198.
N3661 Y157.893 Z233.631 F1198.
N3662 X-1.914 F1198.
N3663 Y158.106 Z233.649 F1198.
N3664 X7.346 Y158.157 Z233.654 F1198.
N3665 X12.327 Y158.176 Z233.655 F1198.
N3666 X587.673 F1198.
N3667 Z283.655 F1198.
N3668 M1
;(****************************************************************)  
;      END OPERATION: FIXED_CONTOUR_1_COPY_COPY
;(****************************************************************) 
 
N3669 M5 M9
N3670 T0 M6
N3671 M30
(================================================================)
(TOTAL MACHINE TIME: 467.05 MIN)
(================================================================)
(END PROGRAMM UGOLNIK#2_UST2_2 MM)
