N2264 ;TOOLPATH :  SKLONSPHEROY  STRATEGY USED : Surface_machine
N2265 ; Toolpath mashining time:0.213 час
N2266 ;TOOLPATH WP : 1
N2267 ; TOOL ID : T7 "   " TOOL TYPE : TIPRADIUSED
N2268 ;"Diam=" 25 "Corner radius=" 4 "Long=" 54 "Angle=" +0 " deg"
N2269 T="FR25R4"
N2270 M6
N2271 D1
N2272 S3500 M3 F9000
N2273 G64 SOFT COMPON
N2274 X83.67 Y10
N2277 Z-8.554 M8
N2278 G1 Z-10.094 F200
N2279 X83.185 Z-12.034
N2280 Y0 F800
N2282 Y-125
N2283 X83.67 Y-130 Z-12.155
N2286 Y5
N2287 X84.155 Y10 Z-12.277
N2290 Y-125
N2291 X84.64 Y-130 Z-12.398
N2294 Y5
N2295 X85.125 Y10 Z-12.519
N2298 Y-125
N2299 X85.61 Y-130 Z-12.641
N2300 Y-120
N2301 Y0
N2302 Y5
N2303 X86.095 Y10 Z-12.762
N2304 Y0
N2305 Y-120
N2306 Y-125
N2307 X86.58 Y-130 Z-12.883
N2308 Y-120
N2309 Y0
N2310 Y5
N2311 X87.065 Y10 Z-13.004
N2312 Y0
N2313 Y-120
N2314 Y-125
N2315 X87.55 Y-130 Z-13.126
N2316 Y-120
N2317 Y0
N2318 Y5
N2319 X88.035 Y10 Z-13.247
N2320 Y0
N2321 Y-120
N2322 Y-125
N2323 X88.521 Y-130 Z-13.368
N2324 Y-120
N2325 Y0
N2326 Y5
N2327 X89.006 Y10 Z-13.49
N2328 Y0
N2329 Y-120
N2330 Y-125
N2331 X89.491 Y-130 Z-13.611
N2332 Y-120
N2333 Y0
N2334 Y5
N2335 X89.976 Y10 Z-13.732
N2336 Y0
N2337 Y-120
N2338 Y-125
N2339 X90.461 Y-130 Z-13.854
N2340 Y-120
N2341 Y0
N2342 Y5
N2343 X90.946 Y10 Z-13.975
N2344 Y0
N2345 Y-120
N2346 Y-125
N2347 X91.431 Y-130 Z-14.096
N2348 Y-120
N2349 Y0
N2350 Y5
N2351 X91.916 Y10 Z-14.217
N2352 Y0
N2353 Y-120
N2354 Y-125
N2355 X92.401 Y-130 Z-14.339
N2356 Y-120
N2357 Y0
N2358 Y5
N2359 X92.886 Y10 Z-14.46
N2360 Y0
N2361 Y-120
N2362 Y-125
N2363 X93.371 Y-130 Z-14.581
N2364 Y-120
N2365 Y0
N2366 Y5
N2367 X93.856 Y10 Z-14.703
N2368 Y0
N2369 Y-120
N2370 Y-125
N2371 X94.341 Y-130 Z-14.824
N2372 Y-120
N2373 Y0
N2374 Y5
N2375 X94.826 Y10 Z-14.945
N2376 Y0
N2377 Y-120
N2378 Y-125
N2379 X95.311 Y-130 Z-15.067
N2380 Y-120
N2381 Y0
N2382 Y5
N2383 X95.796 Y10 Z-15.188
N2384 Y0
N2385 Y-120
N2386 Y-125
N2387 X96.282 Y-130 Z-15.309
N2388 Y-120
N2389 Y0
N2390 Y5
N2391 X96.767 Y10 Z-15.43
N2392 Y0
N2393 Y-120
N2394 Y-125
N2395 X97.252 Y-130 Z-15.552
N2396 Y-120
N2397 Y0
N2398 Y5
N2399 X97.737 Y10 Z-15.673
N2400 Y0
N2401 Y-120
N2402 Y-125
N2403 X98.222 Y-130 Z-15.794
N2404 Y-120
N2405 Y0
N2406 Y5
N2407 X98.707 Y10 Z-15.916
N2408 Y0
N2409 Y-120
N2410 Y-125
N2411 X99.192 Y-130 Z-16.037
N2412 Y-120
N2413 Y0
N2414 Y5
N2415 X99.677 Y10 Z-16.158
N2416 Y0
N2417 Y-120
N2418 Y-125
N2419 X100.162 Y-130 Z-16.28
N2420 Y-120
N2421 Y0
N2422 Y5
N2423 X100.647 Y10 Z-16.401
N2424 Y0
N2425 Y-120
N2426 Y-125
N2427 X101.132 Y-130 Z-16.522
N2428 Y-120
N2429 Y0
N2430 Y5
N2431 X101.617 Y10 Z-16.643
N2432 Y0
N2433 Y-120
N2434 Y-125
N2435 X102.102 Y-130 Z-16.765
N2436 Y-120
N2437 Y0
N2438 Y5
N2439 X102.587 Y10 Z-16.886
N2440 Y0
N2441 Y-120
N2442 Y-125
N2443 X103.072 Y-130 Z-17.007
N2444 Y-120
N2445 Y0
N2446 Y5
N2447 X103.557 Y10 Z-17.129
N2448 Y0
N2449 Y-120
N2450 Y-125
N2451 X104.043 Y-130 Z-17.25
N2452 Y-120
N2453 Y0
N2454 Y5
N2455 X104.528 Y10 Z-17.371
N2456 Y0
N2457 Y-120
N2458 Y-125
N2459 X105.013 Y-130 Z-17.493
N2460 Y-120
N2461 Y0
N2462 Y5
N2463 X105.498 Y10 Z-17.614
N2464 Y0
N2465 Y-120
N2466 Y-125
N2467 X105.983 Y-130 Z-17.735
N2468 Y-120
N2469 Y0
N2470 Y5
N2471 X106.468 Y10 Z-17.856
N2472 Y0
N2473 Y-120
N2474 Y-125
N2475 X106.953 Y-130 Z-17.978
N2476 Y-120
N2477 Y0
N2478 Y5
N2479 X107.438 Y10 Z-18.099
N2480 Y0
N2481 Y-120
N2482 Y-125
N2483 X107.923 Y-130 Z-18.22
N2484 Y-120
N2485 Y0
N2486 Y5
N2487 X108.408 Y10 Z-18.342
N2488 Y0
N2489 Y-120
N2490 Y-125
N2491 X108.893 Y-130 Z-18.463
N2492 Y-120
N2493 Y0
N2494 Y5
N2495 X109.378 Y10 Z-18.584
N2496 Y0
N2497 Y-120
N2498 Y-125
N2499 X109.863 Y-130 Z-18.705
N2500 Y-120
N2501 Y0
N2502 Y5
N2503 X110.348 Y10 Z-18.827
N2504 Y0
N2505 Y-120
N2506 Y-125
N2507 X110.833 Y-130 Z-18.948
N2508 Y-120
N2509 Y0
N2510 Y5
N2511 X111.318 Y10 Z-19.069
N2512 Y0
N2513 Y-120
N2514 Y-125
N2515 X111.804 Y-130 Z-19.191
N2516 Y-120
N2517 Y0
N2518 Y5
N2519 X112.289 Y10 Z-19.312
N2520 Y0
N2521 Y-120
N2522 Y-125
N2523 X112.774 Y-130 Z-19.433
N2524 Y-120
N2525 Y0
N2526 Y5
N2527 X113.259 Y10 Z-19.555
N2528 Y0
N2529 Y-120
N2530 Y-125
N2531 X113.744 Y-130 Z-19.676
N2532 Y-120
N2533 Y0
N2534 Y5
N2535 X114.229 Y10 Z-19.797
N2536 Y0
N2537 Y-120
N2538 Y-125
N2539 X114.714 Y-130 Z-19.918
N2540 Y-120
N2541 Y0
N2542 Y5
N2543 X115.199 Y10 Z-20.04
N2544 Y0
N2545 Y-120
N2546 Y-125
N2547 X115.684 Y-130 Z-20.161
N2548 Y-120
N2549 Y0
N2550 Y5
N2551 X116.169 Y10 Z-20.282
N2552 Y0
N2553 Y-120
N2554 Y-125
N2555 X116.654 Y-130 Z-20.404
N2556 Y-120
N2557 Y0
N2558 Y5
N2559 X117.139 Y10 Z-20.525
N2560 Y0
N2561 Y-120
N2562 Y-125
N2563 X117.624 Y-130 Z-20.646
N2564 Y-120
N2565 Y0
N2566 Y5
N2567 X118.109 Y10 Z-20.768
N2568 Y0
N2569 Y-120
N2570 Y-125
N2571 X145.42 Z88.446 F15000
N2572 G0 Z50
M9 M1
N2575 ;TOOLPATH :  RADIUS "   " STRATEGY USED : Surface_machine
N2576 ; Toolpath mashining time:0.106 час
N2577 ;TOOLPATH WP : 1
N2578 G0 X118.595 Y10
N2579 Z79.352
N2580 M8
N2581 Z-17.648
N2582 G1 Z-18.827 F200
N2583 X118.109 Z-20.768
N2584 Y0 F800
N2585 Y-120
N2586 Y-125
N2587 X118.725 Y-130 Z-20.907
N2588 X118.715 Y-120 Z-20.939
N2589 X118.714 Y-118.442 Z-20.943
N2590 Y-1.685
N2591 X118.715 Y0 Z-20.939
N2592 X118.72 Y5 Z-20.924
N2593 X119.34 Y10 Z-21.054
N2594 X119.32 Y0 Z-21.114
N2595 X119.317 Y-1.558 Z-21.123
N2596 Y-118.315
N2597 X119.32 Y-120 Z-21.114
N2598 X119.329 Y-125 Z-21.086
N2599 X119.915 Y-130 Z-21.32
N2600 Y-120
N2601 Y0
N2602 Y5
N2603 X120.539 Y10 Z-21.454
N2604 X120.505 Y0 Z-21.539
N2605 X120.5 Y-1.558 Z-21.552
N2606 Y-118.315
N2607 X120.505 Y-120 Z-21.539
N2608 X120.521 Y-125 Z-21.5
N2609 X121.085 Y-130 Z-21.784
N2610 Y-120
N2611 Y0
N2612 Y5
N2613 X121.686 Y10 Z-21.986
N2614 X121.66 Y0 Z-22.042
N2615 X121.656 Y-1.558 Z-22.051
N2616 Y-118.315
N2617 X121.66 Y-120 Z-22.042
N2618 X121.672 Y-125 Z-22.016
N2619 X122.235 Y-130 Z-22.301
N2620 X122.22 Y-120 Z-22.329
N2621 X122.218 Y-118.442 Z-22.333
N2622 Y-1.685
N2623 X122.22 Y0 Z-22.329
N2624 X122.227 Y5 Z-22.316
N2625 X122.779 Y10 Z-22.62
N2626 Y0
N2627 Y-120
N2628 Y-125
N2629 X123.336 Y-130 Z-22.915
N2630 X123.319 Y-120 Z-22.943
N2631 X123.316 Y-118.442 Z-22.948
N2632 Y-1.685
N2633 X123.319 Y0 Z-22.943
N2634 X123.327 Y5 Z-22.93
N2635 X123.892 Y10 Z-23.217
N2636 X123.857 Y0 Z-23.271
N2637 X123.851 Y-1.558 Z-23.279
N2638 Y-118.315
N2639 X123.857 Y-120 Z-23.271
N2640 X123.873 Y-125 Z-23.246
N2641 X124.376 Y-130 Z-23.626
N2642 Y-120
N2643 Y0
N2644 Y5
N2645 X124.944 Y10 Z-23.918
N2646 X124.889 Y0 Z-23.992
N2647 X124.88 Y-1.558 Z-24.003
N2648 Y-118.315
N2649 X124.889 Y-120 Z-23.992
N2650 X124.914 Y-125 Z-23.958
N2651 X125.384 Y-130 Z-24.381
N2652 Y-120
N2653 Y0
N2654 Y5
N2655 X125.911 Y10 Z-24.733
N2656 X125.871 Y0 Z-24.78
N2657 X125.865 Y-1.558 Z-24.787
N2658 Y-118.315
N2659 X125.871 Y-120 Z-24.78
N2660 X125.889 Y-125 Z-24.758
N2661 X126.357 Y-130 Z-25.181
N2662 X126.336 Y-120 Z-25.204
N2663 X126.333 Y-118.442 Z-25.207
N2664 Y-1.685
N2665 X126.336 Y0 Z-25.204
N2666 X126.346 Y5 Z-25.193
N2667 X126.799 Y10 Z-25.631
N2668 Y0
N2669 Y-120
N2670 Y-125
N2671 X127.258 Y-130 Z-26.063
N2672 X127.235 Y-120 Z-26.085
N2673 X127.232 Y-118.442 Z-26.088
N2674 Y-1.685
N2675 X127.235 Y0 Z-26.085
N2676 X127.246 Y5 Z-26.075
N2677 X127.716 Y10 Z-26.499
N2678 X127.669 Y0 Z-26.541
N2679 X127.661 Y-1.558 Z-26.548
N2680 Y-118.315
N2681 X127.669 Y-120 Z-26.541
N2682 X127.691 Y-125 Z-26.522
N2683 X128.077 Y-130 Z-27.021
N2684 Y-120
N2685 Y0
N2686 Y5
N2687 X128.55 Y10 Z-27.45
N2688 X128.476 Y0 Z-27.508
N2689 X128.465 Y-1.558 Z-27.517
N2690 Y-118.315
N2691 X128.476 Y-120 Z-27.508
N2692 X128.511 Y-125 Z-27.481
N2693 X128.852 Y-130 Z-28.013
N2694 Y-120
N2695 Y0
N2696 Y5
N2697 X129.27 Y10 Z-28.49
N2698 X129.218 Y0 Z-28.525
N2699 X129.21 Y-1.558 Z-28.531
N2700 Y-118.315
N2701 X129.218 Y-120 Z-28.525
N2702 X129.242 Y-125 Z-28.509
N2703 X129.583 Y-130 Z-29.04
N2704 X129.556 Y-120 Z-29.057
N2705 X129.552 Y-118.442 Z-29.059
N2706 Y-1.685
N2707 X129.556 Y0 Z-29.057
N2708 X129.568 Y5 Z-29.049
N2709 X129.89 Y10 Z-29.59
N2710 Y0
N2711 Y-120
N2712 Y-125
N2713 X130.219 Y-130 Z-30.128
N2714 X130.192 Y-120 Z-30.142
N2715 X130.188 Y-118.442 Z-30.145
N2716 Y-1.685
N2717 X130.192 Y0 Z-30.142
N2718 X130.205 Y5 Z-30.136
N2719 X130.546 Y10 Z-30.669
N2720 X130.491 Y0 Z-30.697
N2721 X130.482 Y-1.558 Z-30.701
N2722 Y-118.315
N2723 X130.491 Y-120 Z-30.697
N2724 X130.516 Y-125 Z-30.684
N2725 X130.76 Y-130 Z-31.266
N2726 Y-120
N2727 Y0
N2728 Y5
N2729 X131.102 Y10 Z-31.805
N2730 X131.017 Y0 Z-31.841
N2731 X131.003 Y-1.558 Z-31.847
N2732 Y-118.315
N2733 X131.017 Y-120 Z-31.841
N2734 X131.056 Y-125 Z-31.824
N2735 X131.247 Y-130 Z-32.427
N2736 Y-120
N2737 Y0
N2738 Y5
N2739 X131.527 Y10 Z-32.996
N2740 X131.466 Y0 Z-33.017
N2741 X131.456 Y-1.558 Z-33.021
N2742 Y-118.315
N2743 X131.466 Y-120 Z-33.017
N2744 X131.494 Y-125 Z-33.008
N2745 X131.685 Y-130 Z-33.609
N2746 X131.653 Y-120 Z-33.618
N2747 X131.648 Y-118.442 Z-33.62
N2748 Y-1.685
N2749 X131.653 Y0 Z-33.618
N2750 X131.668 Y5 Z-33.614
N2751 X131.836 Y10 Z-34.221
N2752 Y0
N2753 Y-120
N2754 Y-125
N2755 X132.013 Y-130 Z-34.826
N2756 X131.983 Y-120 Z-34.833
N2757 X131.978 Y-118.442 Z-34.834
N2758 Y-1.685
N2759 X131.983 Y0 Z-34.833
N2760 X131.997 Y5 Z-34.83
N2761 X132.185 Y10 Z-35.434
N2762 X132.125 Y0 Z-35.446
N2763 X132.116 Y-1.558 Z-35.448
N2764 Y-118.315
N2765 X132.125 Y-120 Z-35.446
N2766 X132.153 Y-125 Z-35.441
N2767 X132.236 Y-130 Z-36.066
N2768 Y-120
N2769 Y0
N2770 Y5
N2771 X132.423 Y10 Z-36.676
N2772 X132.333 Y0 Z-36.688
N2773 X132.329 Y-0.472 Z-36.689
N2774 X133.32 Z-36.557 F15000
N2775 X133.452 Y-119.464 Z-36.539
N2776 X133.32 Y-119.465 Z-36.557
N2777 X132.329 Y-119.467 Z-36.689 F200
N2778 X132.333 Y-120 Z-36.688 F800
N2779 X132.373 Y-125 Z-36.683
N2780 G0 Z100 M9
N2786 RET

